public/textures/LUTs/TROPIC COLOUR - BEST OF LOOKS (telegram - @creativecashe)-1/TROPIC COLOUR - BEST OF LOOKS/TC - BOLD ABSTRACTION/TC - CLARITY.cube
TITLE "Generated by Resolve"
LUT_3D_SIZE 9
0.011841 0.0154116 0.013138
0.0287785 0.0144198 0.0121309
0.118334 0.00900282 0.0167239
0.31136 0.0147707 0.0436255
0.623072 0.00114443 0.051667
1 0 0.0411383
1 0 0.0400702
1 0 0.0395056
1 0 0.039765
0.00894179 0.029984 0.0103304
0.0269169 0.0300603 0.0103609
0.119585 0.0253452 0.0171206
0.326696 0.0314336 0.0505074
0.667857 0.00454719 0.0548562
1 0 0.040177
1 0 0.0429694
1 0 0.0530098
1 0 0.0569009
0.00161746 0.107942 0.00328069
0.0186618 0.115099 0.00447089
0.0955673 0.107713 0.0118105
0.343679 0.088426 0.0601205
0.675196 0.05449 0.0694438
1 0.0107729 0.0464027
1 0.0309911 0.0530861
1 0.085481 0.0601358
1 0.105394 0.0620737
0.0341497 0.280613 0.0370642
0.0571298 0.307897 0.0489509
0.0981308 0.322118 0.055314
0.327794 0.329793 0.0993973
0.605585 0.323201 0.13312
0.992767 0.283803 0.0400092
1 0.328634 0.0284581
0.999847 0.414252 0.0393683
0.998764 0.441489 0.0494392
0.0818799 0.534951 0.0873732
0.0935378 0.573297 0.0878767
0.132799 0.586633 0.101198
0.37937 0.583352 0.195987
0.586679 0.596765 0.227832
0.851392 0.61149 0.116426
0.900557 0.657679 0.109819
0.913359 0.718227 0.13872
0.910597 0.734981 0.152621
0 0.876081 0
0 0.910063 0
0.0016022 0.915694 0
0.362127 0.845136 0.120241
0.631556 0.815763 0.283742
0.823407 0.841367 0.200641
0.895613 0.87747 0.159594
0.922271 0.912016 0.161868
0.922866 0.921019 0.167422
0 1 0
0 1 0
0 1 0
0.304433 0.997421 0.0128176
0.621683 0.959045 0.206683
0.815305 0.965438 0.19765
0.904204 0.978515 0.139696
0.927092 0.983154 0.134234
0.926955 0.984192 0.136797
0 1 0
0 1 0
0.0215 1 0
0.326741 1 0.0118563
0.617212 0.990478 0.187854
0.806073 0.991257 0.191546
0.903731 0.999313 0.126909
0.925734 0.999802 0.117342
0.925689 0.999802 0.11841
0 1 0
0 1 0
0.0743572 1 0
0.367163 1 0.0230869
0.622263 0.999954 0.182391
0.802396 1 0.185367
0.903792 1 0.118318
0.923293 1 0.107866
0.923278 1 0.108019
0.0113222 0.0149233 0.0389715
0.028275 0.0140383 0.0361334
0.114244 0.00880446 0.0324102
0.309865 0.0146639 0.0547341
0.613291 0.00134279 0.0638285
1 0 0.0488441
1 0 0.0479744
1 0 0.0538643
1 0 0.0565652
0.00880446 0.0298466 0.03122
0.0268711 0.0300908 0.0316625
0.118181 0.0256352 0.0343481
0.328283 0.0320592 0.0625925
0.660334 0.00607309 0.071107
1 0 0.0584726
1 0 0.0630045
1 0 0.076997
1 0 0.0848707
0.00143435 0.111452 0.019379
0.0188602 0.119707 0.0212863
0.0981765 0.113771 0.0287938
0.350729 0.095201 0.073991
0.674525 0.0634165 0.0877089
1 0.0159762 0.0669108
1 0.0416266 0.0733349
1 0.0996262 0.0899672
1 0.118791 0.101472
0.0370794 0.290761 0.0518654
0.0609445 0.319646 0.0646525
0.107195 0.335958 0.0723278
0.336767 0.345449 0.115846
0.609293 0.339971 0.152636
0.983551 0.303899 0.0673381
0.999954 0.351278 0.0566415
0.996933 0.436347 0.0743877
0.99202 0.461845 0.0855268
0.0832837 0.549111 0.0992599
0.0954299 0.587777 0.101549
0.142 0.59765 0.118975
0.389105 0.594369 0.213291
0.594339 0.608438 0.246433
0.841688 0.625818 0.157977
0.891585 0.672663 0.153903
0.904494 0.729747 0.185306
0.902647 0.745235 0.198779
0 0.889555 0
0 0.920607 0
0.00132753 0.925658 1.5259e-05
0.375601 0.852918 0.146868
0.637903 0.824384 0.308095
0.821591 0.847913 0.246784
0.89546 0.883375 0.206226
0.919997 0.915084 0.210239
0.92079 0.923262 0.215824
0 1 0
0 1 0
0.000198367 1 0
0.315618 0.99646 0.0301213
0.62826 0.956054 0.244694
0.815152 0.963073 0.246921
0.904936 0.976471 0.187137
0.92604 0.980865 0.181827
0.925948 0.981842 0.184268
0 1 0
0 1 0
0.0186923 1 0
0.330739 1 0.0268864
0.622034 0.987182 0.22536
0.805859 0.987076 0.240574
0.903807 0.997375 0.174029
0.925231 0.99852 0.163684
0.9252 0.998627 0.164569
0 1 0
0 1 0
0.0709697 1 0
0.368139 1 0.0447852
0.625727 0.999664 0.21973
0.802167 0.999878 0.234089
0.903212 1 0.165469
0.922179 1 0.154452
0.922164 1 0.154513
0.00972 0.0133211 0.171557
0.0246281 0.0129091 0.169848
0.0948653 0.00946059 0.155703
0.302007 0.0147707 0.125383
0.560159 0.00543221 0.122072
1 0 0.102266
1 0 0.105806
1 0 0.139971
1 0 0.157473
0.00875868 0.0278019 0.156542
0.0252232 0.0285649 0.160479
0.103014 0.026276 0.152743
0.323095 0.0330358 0.134691
0.601114 0.0197147 0.14255
1 0 0.142794
1 0 0.175982
1 0 0.247364
1 0 0.271595
0.00993362 0.106355 0.117754
0.0305333 0.115084 0.134188
0.0984512 0.114275 0.129137
0.355398 0.0979019 0.140002
0.626413 0.0816663 0.163302
0.999649 0.02327 0.17142
1 0.0512551 0.222522
1 0.120607 0.300511
0.999878 0.146014 0.323323
0.0373846 0.29752 0.0775158
0.0615702 0.328695 0.0994125
0.106722 0.346029 0.10782
0.341405 0.354833 0.145006
0.608225 0.35021 0.190814
0.957732 0.321065 0.138109
0.989853 0.371466 0.16965
0.962509 0.459236 0.266133
0.945754 0.484504 0.297307
0.0895094 0.556085 0.125628
0.103105 0.594217 0.130587
0.148943 0.603449 0.14931
0.390784 0.601572 0.236301
0.595071 0.615488 0.272526
0.826764 0.635569 0.221454
0.877638 0.681422 0.230518
0.888624 0.734813 0.297063
0.886885 0.748791 0.325475
0 0.894942 3.0518e-05
0 0.9252 0.000137331
0.00157168 0.928878 0.0018616
0.383215 0.854444 0.188251
0.63801 0.827131 0.345037
0.813153 0.847593 0.31899
0.891829 0.881727 0.285008
0.915282 0.911223 0.294163
0.916304 0.918151 0.302129
0 1 0
0 1 0
0.000915541 1 0
0.31751 0.99469 0.0705577
0.631037 0.949767 0.301366
0.811002 0.955184 0.328573
0.903487 0.97055 0.272923
0.924392 0.975128 0.26685
0.924376 0.975982 0.269261
0 1 0
0 1 0.000961318
0.00903334 1 0.000289921
0.325551 0.999985 0.0649882
0.623041 0.980041 0.282887
0.802533 0.977966 0.323003
0.900221 0.991669 0.262699
0.924453 0.994873 0.248341
0.924422 0.995132 0.249226
0 1 0.00608835
0 1 0.0117494
0.0549935 1 0.00680552
0.35903 1 0.0859846
0.624689 0.997665 0.276921
0.799222 0.994644 0.317357
0.898924 0.999786 0.254932
0.920974 0.999954 0.23975
0.920989 0.999954 0.239689
0.0109102 0.0141604 0.36524
0.0225681 0.0149386 0.363226
0.0608072 0.0154421 0.352651
0.262852 0.0201877 0.333425
0.486198 0.0221256 0.320714
0.964736 0 0.41416
1 0 0.432914
1 0 0.484047
1 0 0.503761
0.0138399 0.0277562 0.354131
0.0267796 0.0297704 0.359503
0.069749 0.0318303 0.358038
0.289204 0.0388495 0.348058
0.526604 0.0397192 0.355688
0.972869 0 0.478798
1 0 0.524804
1 0 0.587884
1 0 0.603906
0.0290074 0.0956893 0.338109
0.0469978 0.107073 0.356405
0.0918441 0.109926 0.369009
0.328054 0.102937 0.371542
0.561471 0.101991 0.386694
0.931121 0.0506142 0.498604
0.982238 0.0822766 0.550042
0.971115 0.158984 0.593133
0.957031 0.183795 0.601419
0.078233 0.280217 0.346639
0.108522 0.31136 0.389364
0.145205 0.329931 0.413062
0.356207 0.352956 0.386297
0.629633 0.346105 0.418158
0.826825 0.358236 0.46717
0.870115 0.410834 0.521752
0.887572 0.484489 0.585748
0.890761 0.504555 0.60206
0.11577 0.552758 0.318059
0.141634 0.584466 0.367849
0.178759 0.594965 0.393225
0.371954 0.614404 0.368841
0.601938 0.620005 0.403616
0.83003 0.634195 0.454994
0.884627 0.677531 0.516045
0.908614 0.727352 0.577646
0.911925 0.740246 0.591867
0.00320439 0.870726 0.190661
0.0145266 0.894926 0.248386
0.0612039 0.890669 0.295338
0.414328 0.836622 0.390723
0.633097 0.824582 0.476356
0.805066 0.837705 0.507988
0.892622 0.86862 0.549401
0.918013 0.895171 0.592309
0.920546 0.901976 0.60209
0 1 0.165896
0 1 0.226764
0.00325017 0.999619 0.255421
0.374075 0.967437 0.346593
0.64625 0.935103 0.479561
0.812085 0.939803 0.534752
0.904738 0.953094 0.550042
0.930358 0.958221 0.570504
0.93077 0.958877 0.575341
0 1 0.263966
0 1 0.319356
0.0141299 1 0.324666
0.386725 0.990295 0.376989
0.645701 0.960006 0.485267
0.807233 0.959915 0.532509
0.898528 0.971023 0.531212
0.930648 0.97586 0.53785
0.930739 0.976074 0.539666
0 1 0.410636
0 1 0.445869
0.0814832 1 0.424308
0.426291 0.995758 0.43389
0.650935 0.976913 0.497169
0.806836 0.974838 0.532845
0.896269 0.984939 0.518959
0.926482 0.988891 0.516197
0.926467 0.988891 0.515724
9.15541e-05 0.00111391 0.823728
0.00643931 0.00140383 0.810391
0.0448157 0.00242618 0.745602
0.249027 0.0120851 0.592462
0.50985 0.00726329 0.577279
0.947463 0 0.697154
1 0 0.729992
1 0 0.775296
1 0 0.796292
0.000747692 0.0123903 0.783673
0.00856031 0.0137026 0.786984
0.0501717 0.0163729 0.743358
0.280262 0.0322271 0.606302
0.570092 0.0187381 0.628534
0.99089 0 0.775189
1 0 0.82649
1 0 0.895781
1 0 0.916472
0.0102083 0.0863661 0.65832
0.0264286 0.100237 0.678035
0.073167 0.104311 0.666468
0.308064 0.106401 0.59556
0.591638 0.0916762 0.634638
0.966598 0.043122 0.787091
0.994858 0.0734875 0.850629
0.994812 0.141283 0.907683
0.994507 0.165713 0.917693
0.106737 0.276616 0.559716
0.137728 0.311391 0.59646
0.174014 0.329473 0.614633
0.348714 0.357809 0.623148
0.608865 0.357183 0.6365
0.810254 0.375708 0.669642
0.861067 0.430121 0.727993
0.88835 0.500603 0.795377
0.892348 0.519799 0.812528
0.184543 0.537423 0.632197
0.213687 0.566674 0.671534
0.251057 0.577066 0.687297
0.403326 0.602853 0.671473
0.614221 0.615625 0.664042
0.866835 0.623682 0.702617
0.93051 0.668803 0.764385
0.957977 0.71545 0.82211
0.962249 0.727321 0.836378
0.0752728 0.817044 0.679927
0.112108 0.838834 0.730785
0.186664 0.834546 0.752087
0.429847 0.821515 0.706035
0.594003 0.836484 0.663966
0.80415 0.836332 0.68069
0.931014 0.859648 0.725597
0.9608 0.885298 0.763622
0.961959 0.891951 0.771542
0.00244144 0.972732 0.714427
0.0391852 0.965835 0.774639
0.117815 0.955108 0.799329
0.435584 0.930282 0.745098
0.619669 0.940978 0.706096
0.794247 0.945815 0.698985
0.908202 0.953826 0.728985
0.954177 0.959808 0.748455
0.954635 0.960739 0.750927
0.0185397 0.993408 0.823026
0.0673381 0.988785 0.868147
0.141711 0.979294 0.871534
0.456977 0.952804 0.790845
0.622843 0.962448 0.731487
0.790204 0.966674 0.704707
0.897673 0.97113 0.724315
0.948318 0.975967 0.737041
0.949157 0.976257 0.737789
0.0550393 0.998718 0.927703
0.102358 0.993408 0.948089
0.196429 0.982635 0.926116
0.487831 0.964736 0.825452
0.629099 0.978195 0.747341
0.79089 0.980545 0.711086
0.895262 0.983597 0.724025
0.94229 0.987335 0.732692
0.942962 0.987335 0.732677
0 0 1
0 0 1
0.0281071 0 1
0.281926 0 0.998978
0.608682 0 0.972488
0.967376 0 0.976638
1 0 0.983703
1 0 0.998856
1 0 1
0 0.00213626 1
0 0.00256352 1
0.0329442 0.00181582 1
0.322087 0.000213626 0.996582
0.672862 0 0.989441
0.999023 0 0.999512
1 0 0.999969
1 0 1
1 0 1
0 0.070161 0.999496
1.5259e-05 0.0864271 1
0.035462 0.0879377 0.999481
0.342672 0.0730907 0.971496
0.687984 0.049485 0.971084
0.999756 0.0267948 0.999557
1 0.0582437 1
1 0.127916 0.999969
1 0.152377 1
0.0129091 0.295125 0.950118
0.0339361 0.332387 0.964752
0.0839246 0.348165 0.967117
0.34136 0.364324 0.816022
0.59585 0.367208 0.804059
0.841199 0.37499 0.85977
0.885542 0.431037 0.879835
0.896132 0.50341 0.887724
0.897124 0.522469 0.891295
0.151965 0.551934 0.896361
0.174746 0.581857 0.941314
0.22443 0.589578 0.934142
0.429633 0.603525 0.834699
0.604303 0.622492 0.85507
0.837934 0.633738 0.891539
0.923919 0.675578 0.919524
0.950591 0.717556 0.941695
0.954376 0.728191 0.947601
0.111589 0.802075 0.971847
0.139788 0.826719 0.987854
0.203433 0.8262 0.991058
0.489387 0.801526 0.927398
0.640604 0.814115 0.914595
0.799146 0.828138 0.924575
0.943847 0.846601 0.949187
0.985641 0.87042 0.964172
0.985687 0.876738 0.966659
0.0572824 0.937774 0.995773
0.100374 0.938567 1
0.166339 0.93341 0.999985
0.494789 0.90602 0.985031
0.658351 0.919295 0.960006
0.779171 0.941054 0.93315
0.901732 0.950607 0.922301
0.976684 0.955505 0.934188
0.978424 0.956481 0.936828
0.0766461 0.968536 1
0.10901 0.969543 1
0.171359 0.962921 1
0.508278 0.930358 0.9944
0.666514 0.939864 0.976974
0.773907 0.965179 0.936904
0.883268 0.974884 0.903273
0.960159 0.976471 0.90808
0.965164 0.976669 0.908675
0.0928054 0.985718 1
0.118318 0.983886 1
0.183124 0.976501 1
0.529503 0.945602 0.998795
0.673869 0.95491 0.983185
0.77499 0.979065 0.939574
0.876493 0.989441 0.8934
0.948928 0.990387 0.892058
0.954086 0.99028 0.891966
0 0 1
0 0 1
0.0231022 0 1
0.266224 0 1
0.6103 0 1
0.954437 0 1
1 0 1
1 0 1
1 0 1
0 0.00135805 1
0 0.00183108 1
0.0290227 0.00154116 1
0.313985 1.5259e-05 1
0.676158 0 1
0.997314 0 1
1 0 1
1 0 1
1 0 1
0 0.0680705 1
0 0.0865492 1
0.0315862 0.088777 1
0.343069 0.0686046 0.99881
0.696941 0.0455329 0.996246
1 0.0274205 1
1 0.0607767 1
1 0.131701 1
1 0.156466 1
0.000122072 0.300633 1
0.0138552 0.33817 1
0.0642252 0.353079 0.999969
0.333761 0.3664 0.886
0.594385 0.36968 0.845335
0.848615 0.376471 0.900328
0.891997 0.434272 0.907805
0.89897 0.508309 0.910811
0.899382 0.527626 0.913619
0.0877852 0.568078 1
0.126787 0.594079 1
0.182681 0.600763 0.999969
0.420676 0.609323 0.901152
0.59971 0.627298 0.895964
0.822446 0.638117 0.924193
0.921721 0.678386 0.940597
0.947799 0.719341 0.96141
0.951308 0.729595 0.967224
0.0857404 0.808865 1
0.115129 0.8327 1
0.176577 0.832731 1
0.485206 0.802533 0.9906
0.649729 0.810925 0.966995
0.789227 0.826551 0.980179
0.928801 0.844526 0.989883
0.983368 0.866545 0.994614
0.983276 0.872435 0.995972
0.0742657 0.930877 1
0.0990158 0.936965 1
0.151522 0.935744 1
0.475822 0.907393 1
0.66836 0.912993 1
0.7944 0.929335 0.999969
0.900725 0.942199 0.998978
0.975494 0.951904 0.989609
0.978683 0.95314 0.989639
0.0847028 0.964889 1
0.107317 0.968627 1
0.154543 0.965591 1
0.48217 0.932677 1
0.670787 0.935027 1
0.790616 0.95465 1
0.887373 0.966415 0.999832
0.960235 0.972473 0.989288
0.967926 0.973114 0.987716
0.0936599 0.984619 1
0.115068 0.983871 1
0.159594 0.980362 1
0.501732 0.948302 1
0.675746 0.950286 1
0.791348 0.968719 1
0.8822 0.980194 0.999954
0.950286 0.985718 0.990097
0.958373 0.986145 0.988251
0 0 1
0 0 1
0.0208591 0 1
0.255329 0 1
0.601694 0 1
0.947768 0 1
1 0 1
1 0 1
1 0 1
0 0.00103761 1
0 0.00161746 1
0.0275425 0.00154116 1
0.309056 1.5259e-05 1
0.674418 0 1
0.996155 0 1
1 0 1
1 0 1
1 0 1
0 0.0696269 1
0 0.0895552 1
0.0307012 0.0930953 1
0.347021 0.0710155 1
0.705364 0.0463111 0.999954
1 0.0313573 1
1 0.0693065 1
1 0.141497 1
0.999985 0.166354 1
0 0.307332 1
0.0111849 0.345281 1
0.060914 0.360525 1
0.333852 0.373678 0.921492
0.597436 0.377035 0.866499
0.852491 0.384054 0.920302
0.895582 0.44445 0.926009
0.901091 0.517403 0.927886
0.901411 0.536446 0.930343
0.0782788 0.575067 1
0.117235 0.601236 1
0.1729 0.608454 1
0.421714 0.615015 0.924743
0.599237 0.633524 0.909651
0.817594 0.644007 0.938155
0.922271 0.684855 0.956222
0.947188 0.72488 0.976837
0.95053 0.734997 0.982559
0.0771801 0.815595 1
0.105531 0.839643 1
0.163531 0.840726 1
0.477195 0.807553 0.997559
0.649943 0.812955 0.980957
0.786007 0.828229 0.992447
0.921675 0.846372 0.99968
0.980667 0.867872 1
0.980499 0.873472 1
0.0754406 0.931441 1
0.0995499 0.937606 1
0.141115 0.938567 1
0.459281 0.910597 1
0.665675 0.912383 1
0.792859 0.927535 1
0.895827 0.940352 1
0.970489 0.950591 1
0.974365 0.952056 1
0.0848402 0.965087 1
0.107347 0.968673 1
0.145037 0.967651 1
0.464378 0.935714 1
0.667536 0.934218 1
0.789517 0.952697 1
0.882856 0.964797 1
0.956024 0.971222 0.999985
0.965377 0.971984 0.999985
0.0933394 0.984298 1
0.114611 0.983551 1
0.150362 0.982055 1
0.484428 0.951064 1
0.67219 0.94931 1
0.790295 0.966522 1
0.877577 0.978317 1
0.946334 0.984237 0.999939
0.95668 0.984939 0.999893
0 0 1
0 0 1
0.0198215 0 1
0.251057 0 1
0.597818 0 1
0.945556 0 1
1 0 1
1 0 1
1 0 1
0 0.000946059 1
0 0.00166323 1
0.0278782 0.00172427 1
0.310933 0 1
0.677333 0 1
0.996658 0 1
1 0 1
1 0 1
1 0 1
0 0.0749371 1
0 0.0963149 1
0.0322118 0.101183 1
0.355535 0.0778363 1
0.715877 0.0512703 1
1 0.0393988 1
1 0.0793164 1
1 0.153445 1
1 0.178775 1
0 0.31751 1
0.0129244 0.35613 1
0.0626993 0.371633 1
0.340307 0.384817 0.942748
0.604486 0.388739 0.882383
0.854871 0.397848 0.933593
0.897444 0.457252 0.938399
0.902464 0.528084 0.940307
0.903151 0.545769 0.942748
0.0736858 0.583688 1
0.112459 0.610941 1
0.168261 0.61828 1
0.428946 0.624018 0.942702
0.604379 0.642908 0.922255
0.819425 0.653056 0.950469
0.924346 0.693126 0.9691
0.947555 0.731517 0.987839
0.950607 0.741115 0.992325
0.0755932 0.824231 1
0.101427 0.84828 1
0.154314 0.850614 1
0.476295 0.815778 0.999512
0.654429 0.818799 0.990326
0.789242 0.833082 0.998428
0.920195 0.851255 1
0.978698 0.871122 1
0.978454 0.876448 1
0.0765393 0.932631 1
0.100542 0.938628 1
0.138628 0.940215 1
0.452079 0.913466 1
0.666499 0.913268 1
0.794659 0.928344 1
0.895247 0.940871 1
0.968093 0.950713 1
0.971817 0.952041 1
0.0854353 0.965713 1
0.107774 0.969085 1
0.144106 0.968154 1
0.454658 0.938125 1
0.66717 0.93434 1
0.790631 0.95201 1
0.881773 0.964126 1
0.953796 0.970642 1
0.963577 0.97142 1
0.0934768 0.984054 1
0.114626 0.983307 1
0.149386 0.98204 1
0.472801 0.953338 1
0.670954 0.949126 1
0.790997 0.965515 1
0.876341 0.977356 1
0.94464 0.98352 1
0.956191 0.984344 1
