public/textures/LUTs/TROPIC COLOUR - BEST OF LOOKS (telegram - @creativecashe)-1/TROPIC COLOUR - BEST OF LOOKS/TC - BOLD ABSTRACTION/TC - CLARITY.cube
TITLE "Generated by Resolve"
LUT_3D_SIZE 5
0.011841 0.0154116 0.013138
0.118334 0.00900282 0.0167239
0.623072 0.00114443 0.051667
1 0 0.0400702
1 0 0.039765
0.00161746 0.107942 0.00328069
0.0955673 0.107713 0.0118105
0.675196 0.05449 0.0694438
1 0.0309911 0.0530861
1 0.105394 0.0620737
0.0818799 0.534951 0.0873732
0.132799 0.586633 0.101198
0.586679 0.596765 0.227832
0.900557 0.657679 0.109819
0.910597 0.734981 0.152621
0 1 0
0 1 0
0.621683 0.959045 0.206683
0.904204 0.978515 0.139696
0.926955 0.984192 0.136797
0 1 0
0.0743572 1 0
0.622263 0.999954 0.182391
0.903792 1 0.118318
0.923278 1 0.108019
0.00972 0.0133211 0.171557
0.0948653 0.00946059 0.155703
0.560159 0.00543221 0.122072
1 0 0.105806
1 0 0.157473
0.00993362 0.106355 0.117754
0.0984512 0.114275 0.129137
0.626413 0.0816663 0.163302
1 0.0512551 0.222522
0.999878 0.146014 0.323323
0.0895094 0.556085 0.125628
0.148943 0.603449 0.14931
0.595071 0.615488 0.272526
0.877638 0.681422 0.230518
0.886885 0.748791 0.325475
0 1 0
0.000915541 1 0
0.631037 0.949767 0.301366
0.903487 0.97055 0.272923
0.924376 0.975982 0.269261
0 1 0.00608835
0.0549935 1 0.00680552
0.624689 0.997665 0.276921
0.898924 0.999786 0.254932
0.920989 0.999954 0.239689
9.15541e-05 0.00111391 0.823728
0.0448157 0.00242618 0.745602
0.50985 0.00726329 0.577279
1 0 0.729992
1 0 0.796292
0.0102083 0.0863661 0.65832
0.073167 0.104311 0.666468
0.591638 0.0916762 0.634638
0.994858 0.0734875 0.850629
0.994507 0.165713 0.917693
0.184543 0.537423 0.632197
0.251057 0.577066 0.687297
0.614221 0.615625 0.664042
0.93051 0.668803 0.764385
0.962249 0.727321 0.836378
0.00244144 0.972732 0.714427
0.117815 0.955108 0.799329
0.619669 0.940978 0.706096
0.908202 0.953826 0.728985
0.954635 0.960739 0.750927
0.0550393 0.998718 0.927703
0.196429 0.982635 0.926116
0.629099 0.978195 0.747341
0.895262 0.983597 0.724025
0.942962 0.987335 0.732677
0 0 1
0.0231022 0 1
0.6103 0 1
1 0 1
1 0 1
0 0.0680705 1
0.0315862 0.088777 1
0.696941 0.0455329 0.996246
1 0.0607767 1
1 0.156466 1
0.0877852 0.568078 1
0.182681 0.600763 0.999969
0.59971 0.627298 0.895964
0.921721 0.678386 0.940597
0.951308 0.729595 0.967224
0.0742657 0.930877 1
0.151522 0.935744 1
0.66836 0.912993 1
0.900725 0.942199 0.998978
0.978683 0.95314 0.989639
0.0936599 0.984619 1
0.159594 0.980362 1
0.675746 0.950286 1
0.8822 0.980194 0.999954
0.958373 0.986145 0.988251
0 0 1
0.0198215 0 1
0.597818 0 1
1 0 1
1 0 1
0 0.0749371 1
0.0322118 0.101183 1
0.715877 0.0512703 1
1 0.0793164 1
1 0.178775 1
0.0736858 0.583688 1
0.168261 0.61828 1
0.604379 0.642908 0.922255
0.924346 0.693126 0.9691
0.950607 0.741115 0.992325
0.0765393 0.932631 1
0.138628 0.940215 1
0.666499 0.913268 1
0.895247 0.940871 1
0.971817 0.952041 1
0.0934768 0.984054 1
0.149386 0.98204 1
0.670954 0.949126 1
0.876341 0.977356 1
0.956191 0.984344 1
