public/textures/LUTs/TROPIC COLOUR - BEST OF LOOKS (telegram - @creativecashe)-1/TROPIC COLOUR - BEST OF LOOKS/TC - BOLD ABSTRACTION/TC - ABSOLUTE.cube
TITLE "Generated by Resolve"
LUT_3D_SIZE 33
0 0.0184634 0.0267185
0 0.0184939 0.0267491
0 0.019089 0.0270848
0 0.019501 0.028336
0.00877394 0.0175021 0.0310674
0.0290379 0.013611 0.030808
0.0540627 0.0101015 0.0226444
0.0806897 0.0074464 0.00996414
0.111528 0.00508125 0.00157168
0.148211 0.00396735 0
0.191241 0.00471504 0
0.241321 0.00494392 0
0.297322 0.00381476 0
0.356878 0.00141909 0
0.417105 0.000213626 0
0.476081 0 0
0.533379 0 0
0.58909 0 0
0.644038 0 0
0.698238 0 0
0.751736 0 0
0.803769 0 0
0.854337 0 0
0.902419 0 0
0.948241 0 0
0.972107 0 0
0.979202 0 0
0.980484 0 0
0.980591 0 0
0.980591 0 0
0.980591 0 0
0.980591 0 0
0.980591 0 0
0 0.0184634 0.0267185
0 0.0184939 0.0267491
0 0.0190585 0.0270695
0 0.0194858 0.0282597
0.00820935 0.0176394 0.0309148
0.0279698 0.0138094 0.030869
0.0528725 0.0102541 0.0231174
0.0793317 0.00756847 0.0106508
0.110018 0.00520333 0.00190738
0.146456 0.00401312 0
0.189212 0.004654 0
0.238987 0.00494392 0
0.294942 0.00386053 0
0.354177 0.0015259 0
0.414603 0.000259403 0
0.473625 1.5259e-05 0
0.530983 0 0
0.586709 0 0
0.641657 0 0
0.695842 0 0
0.749371 0 0
0.80148 0 0
0.852125 0 0
0.900328 0 0
0.946242 0 0
0.971222 0 0
0.979004 0 0
0.980453 0 0
0.980591 0 0
0.980591 0 0
0.980591 0 0
0.980591 0 0
0.980591 0 0
0 0.0184634 0.0267185
0 0.0184939 0.0267491
0 0.0190127 0.027039
0 0.0194705 0.0281987
0.00767529 0.0177615 0.0307622
0.0268101 0.014023 0.03093
0.051667 0.0104067 0.0235904
0.0780804 0.00769055 0.0112764
0.108522 0.00531014 0.00222782
0.144701 0.00404364 0
0.18735 0.00460822 0
0.236851 0.00494392 0
0.292363 0.00392157 0
0.351705 0.00163272 0
0.411872 0.000320439 0
0.470939 1.5259e-05 0
0.528572 0 0
0.584344 0 0
0.639261 0 0
0.693233 0 0
0.746777 0 0
0.798993 0 0
0.849897 0 0
0.898039 0 0
0.944228 0 0
0.97026 0 0
0.978805 0 0
0.980438 0 0
0.980591 0 0
0.980591 0 0
0.980591 0 0
0.980591 0 0
0.980591 0 0
0 0.0254826 0.0270848
0 0.0254063 0.0271
0 0.025864 0.0272984
0 0.0264591 0.0276188
0.00645457 0.0258946 0.0285191
0.0238193 0.0233768 0.0280003
0.0475471 0.020264 0.0220951
0.0739605 0.0173648 0.0113832
0.104402 0.0141909 0.00257877
0.141024 0.0108034 0
0.184543 0.00820935 0
0.235004 0.00601205 0
0.292027 0.00375372 0
0.351553 0.0015259 0
0.412589 0.00030518 0
0.472374 1.5259e-05 0
0.530861 0 0
0.58793 0 0
0.644877 0 0
0.701106 0 0
0.756237 0 0
0.809491 0 0
0.860761 0 0
0.909148 0 0
0.952071 0 0
0.973602 0 0
0.979583 0 0
0.980514 0 0
0.980591 0 0
0.980591 0 0
0.980591 0 0
0.980591 0 0
0.980591 0 0
0 0.0364538 0.0246586
0 0.036286 0.0246891
0 0.0367132 0.0250248
0 0.0373541 0.0258335
0.00662242 0.0370947 0.0269474
0.0233921 0.0352636 0.0274815
0.045716 0.0329442 0.0234836
0.0709239 0.0307469 0.0133974
0.101167 0.0278172 0.00337224
0.138247 0.0236362 0
0.183154 0.018204 0
0.236088 0.0115816 0
0.295674 0.00546273 0
0.358755 0.00138857 0
0.423072 0.00015259 0
0.484688 1.5259e-05 0
0.545586 0 0
0.605631 0 0
0.66566 0 0
0.724529 0 0
0.781109 0 0
0.835203 0 0
0.886915 0 0
0.934874 0 0
0.966705 0 0
0.978225 0 0
0.980362 0 0
0.980591 0 0
0.980591 0 0
0.980591 0 0
0.980591 0 0
0.980591 0 0
0.980591 0 0
0 0.049836 0.0211032
0 0.0496986 0.0211795
0 0.0502174 0.0216526
0 0.051194 0.0228428
0.0055848 0.0514687 0.0245518
0.0216983 0.0502022 0.0255589
0.0457618 0.0478828 0.0242771
0.0729229 0.0455787 0.0181582
0.102403 0.0434882 0.00805676
0.138689 0.0404822 0.00129702
0.184085 0.0356756 0
0.238422 0.0290074 0
0.30016 0.021088 0
0.366537 0.0125734 0
0.434348 0.00460822 0
0.500084 0.00106813 0
0.564736 0.000259403 0
0.628779 3.0518e-05 0
0.691463 0 0
0.751492 0 0
0.808667 0 0
0.863233 0 0
0.914458 0 0
0.958099 0 0
0.976944 0 0
0.980194 0 0
0.98056 0 0
0.980591 0 0
0.980591 0 0
0.980591 0 0
0.980591 0 0
0.980591 0 0
0.980591 0 0
0 0.0663767 0.0158541
0 0.0663005 0.0160525
0 0.0671092 0.0167697
0 0.0687877 0.0183413
0.00366217 0.0699931 0.0203403
0.017319 0.0697642 0.0215457
0.0431373 0.0677501 0.021912
0.0762493 0.0644388 0.0207218
0.109606 0.0621958 0.014725
0.145495 0.0606851 0.00544747
0.189609 0.0578164 0.00047303
0.243778 0.0527962 0
0.305882 0.0457923 0
0.372503 0.0373846 0
0.441169 0.0287022 0
0.508888 0.0217136 0
0.576699 0.0160372 0
0.643671 0.0112306 0
0.709072 0.00735485 0
0.771084 0.00462348 0
0.830198 0.00294499 0
0.885939 0.00222782 0
0.936324 0.00192264 0
0.970565 0.00166323 0
0.981308 0.00184634 0
0.981689 0.00154116 0
0.981659 0.000808728 0
0.981353 0.000320439 0
0.981109 0 0
0.981277 0 0
0.981521 0 0
0.981598 0.00030518 0
0.981613 0.00138857 0
0 0.087541 0.00801099
0 0.0877241 0.00822461
0 0.0888838 0.00895705
0 0.0913558 0.0107576
0.00158694 0.0940719 0.0132753
0.0116121 0.0952621 0.0151217
0.0367437 0.0942855 0.0159152
0.0741741 0.0909438 0.0168307
0.116136 0.0869917 0.0168917
0.158068 0.0843671 0.0118257
0.202182 0.0828565 0.00390631
0.253834 0.0801556 0.000289921
0.313924 0.0752117 0
0.379248 0.0689097 0
0.44744 0.0622263 0
0.51545 0.0557412 0
0.583734 0.0497444 0
0.651591 0.0443427 0
0.71809 0.0400092 0
0.781064 0.0371099 0
0.841031 0.0357214 0
0.897642 0.0357977 0
0.947799 0.0366827 0
0.976501 0.0366827 0
0.983597 0.0358587 0
0.983764 0.0346227 0
0.983673 0.033051 0
0.983429 0.0315404 0
0.983185 0.0300908 0
0.9832 0.0287022 0
0.983337 0.0285649 0
0.983551 0.0310979 0
0.983841 0.0355535 0
0 0.114656 0.0016022
0 0.115129 0.00169375
0 0.117021 0.00190738
0 0.120165 0.0030518
0.000289921 0.124331 0.00527962
0.0065919 0.127108 0.00715648
0.0280308 0.127733 0.00802625
0.0657969 0.125475 0.00886549
0.114946 0.120684 0.0113985
0.168765 0.115358 0.0130312
0.221378 0.111955 0.00856031
0.274266 0.110079 0.00202945
0.331472 0.107973 0
0.393774 0.104601 0
0.459342 0.100526 0
0.526162 0.0966506 0
0.593759 0.093019 0
0.661387 0.0899519 0
0.72784 0.087892 0
0.790677 0.0869764 0
0.850584 0.0879377 0
0.907149 0.0901045 0
0.957229 0.0930495 0
0.983413 0.0939803 0
0.988235 0.0933089 0
0.988312 0.0921492 0
0.988205 0.0909285 0
0.988083 0.0894789 0
0.987945 0.0878767 0
0.987808 0.0863813 0
0.987854 0.0867933 0
0.988251 0.0910964 0
0.988876 0.0978256 0
0 0.148425 0
0 0.148913 0
0 0.151446 0
0 0.155367 0.000198367
0 0.161013 0.00077821
0.00318914 0.165286 0.00132753
0.0186618 0.167544 0.00163272
0.053193 0.167254 0.0018616
0.105058 0.163516 0.00326543
0.169039 0.156725 0.0068513
0.236713 0.149615 0.00875868
0.301488 0.145327 0.004654
0.362066 0.143847 0.000488289
0.421286 0.143267 0
0.48278 0.142748 0
0.546258 0.142016 0
0.611383 0.141314 0
0.677516 0.141146 0
0.742641 0.141787 0
0.804257 0.143832 0
0.862837 0.147127 0
0.918364 0.151827 0
0.967361 0.156817 0
0.991943 0.159106 0
0.994675 0.159197 0
0.994675 0.15877 0
0.994629 0.158282 0
0.994553 0.157549 0
0.994461 0.156558 0
0.994369 0.155657 0
0.994476 0.156542 0
0.994949 0.161059 0
0.995682 0.167865 0
0 0.188235 0
0 0.188891 0
0 0.192065 0
0 0.196719 0
0 0.203998 0
0.000808728 0.210178 0
0.00959792 0.21413 0
0.0388342 0.215839 0
0.0892805 0.214374 0.000198367
0.158572 0.208438 0.00128176
0.23978 0.199283 0.00340276
0.321828 0.19115 0.00407416
0.395865 0.186694 0.00175479
0.459556 0.186328 1.5259e-05
0.518883 0.188052 0
0.578592 0.190616 0
0.639918 0.193408 0
0.702327 0.196612 0
0.763729 0.20058 0
0.822217 0.205432 0
0.877531 0.211215 0
0.930465 0.217975 0
0.975982 0.224872 0
0.998184 0.228779 0
0.998978 0.229175 0
0.998978 0.229191 0
0.998962 0.228901 0
0.998947 0.228931 0
0.998917 0.228428 0
0.998901 0.227924 0
0.998947 0.228809 0
0.999176 0.233036 0
0.999527 0.239506 0
0 0.235233 0
0 0.235981 0
0 0.240162 0
0 0.245762 0
0 0.25452 0
4.57771e-05 0.26276 0
0.00428779 0.268635 0
0.0256199 0.27248 0
0.070985 0.27361 0
0.14078 0.269947 4.57771e-05
0.230411 0.261204 0.000320439
0.327626 0.250385 0.000762951
0.418357 0.242054 0.000564584
0.495369 0.238346 0
0.561624 0.239292 0
0.622278 0.243076 0
0.680217 0.248554 0
0.73698 0.254597 0
0.792676 0.261479 0
0.845914 0.268971 0
0.896651 0.277348 0
0.94432 0.286198 0
0.982712 0.294835 0
1 0.29987 0
1 0.300542 0
1 0.300755 0
1 0.301045 0
1 0.301167 0
1 0.30106 0
1 0.300755 0
1 0.301183 0
1 0.304601 0
1 0.310307 0
0 0.289845 0
0 0.290639 0
0 0.295995 0
0 0.302556 0
0 0.313024 0
0 0.323171 0
0.00163272 0.330724 0
0.0143587 0.33666 0
0.0527199 0.340459 0
0.120851 0.340017 0
0.212863 0.332998 0
0.320607 0.320989 0
0.425223 0.309926 0
0.517205 0.302708 0
0.596613 0.300175 0
0.665324 0.301747 0
0.724575 0.306783 0
0.778408 0.314061 0
0.828809 0.322713 0
0.876295 0.332158 0
0.921752 0.342275 0
0.962921 0.352895 0
0.990799 0.362966 0
1 0.369085 0
1 0.370199 0
1 0.370581 0
1 0.370871 0
1 0.371145 0
1 0.37116 0
1 0.370779 0
1 0.370748 0
1 0.373281 0
1 0.378119 0
0 0.353216 0
0 0.35375 0
0 0.359777 0
0 0.367239 0
0 0.379309 0
0 0.390982 0
6.10361e-05 0.400488 0
0.00543221 0.408301 0
0.0372778 0.413916 0
0.103639 0.415671 0
0.193805 0.411063 0
0.306538 0.39942 0
0.422538 0.386481 0
0.525338 0.37673 0
0.61677 0.370169 0
0.695064 0.367788 0
0.760586 0.370001 0
0.816754 0.375769 0
0.866331 0.384161 0
0.911421 0.394369 0
0.951812 0.405478 0
0.983337 0.417044 0
0.998367 0.427909 0
1 0.43508 0
1 0.436759 0
1 0.437125 0
1 0.437476 0
1 0.4374 0
1 0.437156 0
1 0.436667 0
1 0.436316 0
1 0.437842 0
1 0.441764 0
0 0.420783 0
0 0.421134 0
0 0.427756 0
0 0.435767 0
0 0.449317 0
0 0.462593 0
0 0.473518 0
0.00369268 0.482155 0
0.0305333 0.48867 0
0.0917983 0.491768 0
0.179294 0.488502 0
0.292042 0.478096 0
0.415 0.463828 0
0.525307 0.451301 0
0.624277 0.442008 0
0.710674 0.436698 0
0.783062 0.435981 0
0.844327 0.439292 0
0.897154 0.446204 0
0.942458 0.455207 0
0.977691 0.465522 0
0.996429 0.476585 0
0.999985 0.487175 0
1 0.494697 0
1 0.497063 0
1 0.497627 0
1 0.497749 0
1 0.497444 0
1 0.496834 0
1 0.495995 0
1 0.495262 0
1 0.495827 0
1 0.498589 0
0 0.491081 0
0 0.491218 0
0 0.498558 0
0 0.507607 0
0 0.522377 0
0 0.536721 0
0 0.54786 0
0.00260929 0.556634 0
0.0255131 0.563439 0
0.0823682 0.566751 0
0.167498 0.564828 0
0.278935 0.555413 0
0.404273 0.540124 0
0.521462 0.525872 0
0.626154 0.514763 0
0.718242 0.5075 0
0.796597 0.504234 0
0.862394 0.505287 0
0.91873 0.509728 0
0.963973 0.516594 0
0.990997 0.525048 0
0.999741 0.534554 0
1 0.543969 0
1 0.551019 0
1 0.553292 0
1 0.553567 0
1 0.553536 0
1 0.553079 0
1 0.552285 0
1 0.551232 0
1 0.550011 0
1 0.549508 0
1 0.551049 0
0 0.563455 0
0 0.563302 0
0 0.570794 0
0 0.581613 0
0 0.596719 0
0 0.61091 0
0 0.621805 0
0.00187686 0.630442 0
0.0222171 0.636896 0
0.0763561 0.640757 0
0.160098 0.639353 0
0.268605 0.630747 0
0.394446 0.615564 0
0.515496 0.599603 0
0.625879 0.586786 0
0.721996 0.577676 0
0.803601 0.572946 0
0.873274 0.571756 0
0.93225 0.573602 0
0.976532 0.577798 0
0.997482 0.583795 0
1 0.591043 0
1 0.598672 0
1 0.604471 0
1 0.606226 0
1 0.605982 0
1 0.605646 0
1 0.605112 0
1 0.604364 0
1 0.603174 0
1 0.601541 0
1 0.600214 0
1 0.600855 0
0 0.636469 0
0 0.636103 0
0 0.643748 0
0 0.656306 0
0 0.671229 0
0 0.68484 0
0 0.695338 0
0.00134279 0.703548 0
0.0211337 0.710246 0
0.0751965 0.713863 0
0.157794 0.712367 0
0.264012 0.704097 0
0.387442 0.689296 0
0.510994 0.672847 0
0.625772 0.658091 0
0.724666 0.647257 0
0.808057 0.640604 0
0.879667 0.637324 0
0.939971 0.636866 0
0.982422 0.638575 0
0.99971 0.641871 0
1 0.646433 0
1 0.65156 0
1 0.655665 0
1 0.65684 0
1 0.656275 0
1 0.65565 0
1 0.654917 0
1 0.654032 0
1 0.652689 0
1 0.650874 0
1 0.649165 0
1 0.649256 0
0 0.710307 0
0 0.709651 0
0 0.716777 0
0 0.730724 0
0 0.745464 0
0 0.758358 0
0 0.768429 0
0.000854505 0.776455 0
0.0222477 0.782528 0
0.0792859 0.785245 0
0.161242 0.7832 0
0.264881 0.774838 0
0.384909 0.760525 0
0.508354 0.743603 0
0.625772 0.726925 0
0.726833 0.714107 0
0.81146 0.70544 0
0.884016 0.700282 0
0.944762 0.697795 0
0.985061 0.697215 0
1 0.698039 0
1 0.699886 0
1 0.702403 0
1 0.704692 0
1 0.705196 0
1 0.704601 0
1 0.703761 0
1 0.702739 0
1 0.701564 0
1 0.700221 0
1 0.698405 0
1 0.696681 0
1 0.696406 0
0 0.782605 0
0 0.781826 0
0 0.789517 0
0 0.80351 0
0 0.817258 0
0 0.829541 0
0 0.838926 0
0.000854505 0.846021 0
0.0254063 0.85098 0
0.0872663 0.852796 0
0.168765 0.849867 0
0.270298 0.841108 0
0.386297 0.826627 0
0.507759 0.808957 0
0.625849 0.790768 0
0.728573 0.776196 0
0.814511 0.765835 0
0.887709 0.759106 0
0.948394 0.754833 0
0.986954 0.752148 0
1 0.750713 0
1 0.750286 0
1 0.750622 0
1 0.751247 0
1 0.751049 0
1 0.750347 0
1 0.749325 0
1 0.748135 0
1 0.746899 0
1 0.745235 0
1 0.743389 0
1 0.74168 0
1 0.740963 0
0 0.852262 0
0 0.85153 0
0 0.860838 0
0 0.874144 0
0 0.88687 0
0 0.897932 0
0 0.906035 0
0.00430304 0.911849 0
0.0337987 0.915297 0
0.0977188 0.916106 0
0.178332 0.91191 0
0.277867 0.902312 0
0.389822 0.887861 0
0.50837 0.869535 0
0.62594 0.85005 0
0.729473 0.83389 0
0.816724 0.82208 0
0.89073 0.813901 0
0.951949 0.808072 0
0.988739 0.803632 0
1 0.800259 0
1 0.797909 0
1 0.796506 0
1 0.795804 0
1 0.794995 0
1 0.794171 0
1 0.792966 0
1 0.791714 0
1 0.790234 0
1 0.78854 0
1 0.786648 0
1 0.784833 0
1 0.784009 0
0 0.91957 0
0 0.918898 0
0 0.928801 0
0 0.941085 0
0 0.952117 0
0 0.961166 0
0 0.966705 0
0.0100862 0.969863 0
0.0453498 0.971679 0
0.108766 0.971572 0
0.188159 0.968093 0
0.285237 0.958618 0
0.39324 0.944121 0
0.508598 0.926024 0
0.625223 0.906035 0
0.730205 0.888518 0
0.818143 0.875288 0
0.892927 0.865568 0
0.95494 0.858381 0
0.990509 0.852705 0
1 0.848112 0
1 0.844236 0
1 0.841291 0
1 0.839292 0
1 0.83801 0
1 0.837018 0
1 0.835691 0
1 0.834333 0
1 0.832883 0
1 0.831205 0
1 0.829236 0
1 0.827436 0
1 0.826383 0
0 0.976699 0
0 0.976242 0
0 0.981338 0
0 0.98732 0
0 0.99295 0
0 0.997497 0
0 0.999588 0
0.0145876 0.999985 0
0.0544594 1 0
0.11725 1 0
0.196139 0.99913 0
0.291279 0.994797 0
0.395911 0.986206 0
0.508019 0.975189 0
0.622889 0.957748 0
0.728649 0.939986 0
0.817945 0.925383 0
0.893828 0.914275 0
0.957092 0.905867 0
0.992096 0.899077 0
1 0.893385 0
1 0.888624 0
1 0.884443 0
1 0.881392 0
1 0.879759 0
1 0.878584 0
1 0.877272 0
1 0.876112 0
1 0.87454 0
1 0.872755 0
1 0.870787 0
1 0.868833 0
1 0.867826 0
0 1 0
0 1 0
0 1 0
0 1 0
0 1 0
0 1 0
0 1 0
0.0172732 1 0
0.0599374 1 0
0.12256 1 0
0.20087 1 0
0.294331 1 0
0.39736 1 0
0.506828 0.999908 0
0.620172 0.992264 0
0.725505 0.98172 0
0.815732 0.968368 0
0.893004 0.957015 0
0.958312 0.948135 0
0.993378 0.940917 0
1 0.934585 0
1 0.928923 0
1 0.924086 0
1 0.920607 0
1 0.918959 0
1 0.917662 0
1 0.916548 0
1 0.915206 0
1 0.913695 0
1 0.912077 0
1 0.910277 0
1 0.908522 0
1 0.907423 0
0 1 0
0 1 0
0 1 0
0 1 0
0 1 0
0 1 0
0 1 0
0.0184329 1 0
0.0626841 1 0
0.125582 1 0
0.203876 1 0
0.296651 1 0
0.398383 1 0
0.506127 1 0
0.618402 1 0
0.72314 0.999741 0
0.813626 0.994125 0
0.891508 0.986313 0
0.958755 0.978668 0
0.994324 0.971771 0
0.999924 0.965743 0
1 0.960372 0
1 0.95581 0
1 0.952575 0
1 0.951263 0
1 0.950378 0
1 0.949538 0
1 0.948791 0
1 0.947845 0
1 0.946761 0
1 0.945647 0
1 0.944671 0
1 0.943877 0
0 1 0
0 1 0
0 1 0
0 1 0
0 1 0
0 1 0
0 1 0
0.0187839 1 0
0.0641031 1 0
0.127489 1 0
0.205798 1 0
0.298817 1 0
0.399664 1 0
0.506905 1 0
0.618555 1 0
0.723278 1 0
0.813382 0.999847 0
0.891676 0.995407 0
0.959991 0.988952 0
0.994568 0.982742 0
0.999756 0.977371 0
1 0.97258 0
1 0.968551 0
1 0.965972 0
1 0.965255 0
1 0.965118 0
1 0.965042 0
1 0.96495 0
1 0.964858 0
1 0.964752 0
1 0.96463 0
1 0.964492 0
1 0.964385 0
0 1 0
0 1 0
0 1 0
0 1 0
0 1 0
0 1 0
0 1 0
0.0189517 1 0
0.0647135 1 0
0.128359 1 0
0.206775 1 0
0.299702 1 0
0.399863 1 0
0.507012 1 0
0.619074 1 0
0.723613 1 0
0.813825 1 0
0.891768 0.995575 0
0.960052 0.989105 0
0.99469 0.982925 0
0.99971 0.977554 0
1 0.972763 0
1 0.968795 0
1 0.966262 0
1 0.96553 0
1 0.965408 0
1 0.965347 0
1 0.965286 0
1 0.965209 0
1 0.965118 0
1 0.965011 0
1 0.964904 0
1 0.964828 0
0 1 0
0 1 0
0 1 0
0 1 0
0 1 0
0 1 0
0.000366217 1 0
0.019089 1 0
0.0646067 1 0
