public/textures/LUTs/TROPIC COLOUR - BEST OF LOOKS (telegram - @creativecashe)-1/TROPIC COLOUR - BEST OF LOOKS/TC - BOLD ABSTRACTION/TC - ABSOLUTE.cube
TITLE "Generated by Resolve"
LUT_3D_SIZE 9
0 0.0184634 0.0267185
0.00877394 0.0175021 0.0310674
0.111528 0.00508125 0.00157168
0.297322 0.00381476 0
0.533379 0 0
0.751736 0 0
0.948241 0 0
0.980591 0 0
0.980591 0 0
0 0.0364538 0.0246586
0.00662242 0.0370947 0.0269474
0.101167 0.0278172 0.00337224
0.295674 0.00546273 0
0.545586 0 0
0.781109 0 0
0.966705 0 0
0.980591 0 0
0.980591 0 0
0 0.114656 0.0016022
0.000289921 0.124331 0.00527962
0.114946 0.120684 0.0113985
0.331472 0.107973 0
0.593759 0.093019 0
0.850584 0.0879377 0
0.988235 0.0933089 0
0.987945 0.0878767 0
0.988876 0.0978256 0
0 0.289845 0
0 0.313024 0
0.0527199 0.340459 0
0.425223 0.309926 0
0.724575 0.306783 0
0.921752 0.342275 0
1 0.370199 0
1 0.37116 0
1 0.378119 0
0 0.563455 0
0 0.596719 0
0.0222171 0.636896 0
0.394446 0.615564 0
0.803601 0.572946 0
0.997482 0.583795 0
1 0.606226 0
1 0.604364 0
1 0.600855 0
0 0.852262 0
0 0.88687 0
0.0337987 0.915297 0
0.389822 0.887861 0
0.816724 0.82208 0
1 0.800259 0
1 0.794995 0
1 0.790234 0
1 0.784009 0
0 1 0
0 1 0
0.0626841 1 0
0.398383 1 0
0.813626 0.994125 0
0.999924 0.965743 0
1 0.951263 0
1 0.947845 0
1 0.943877 0
0 1 0
0 1 0
0.0633707 1 0
0.397467 1 0
0.811017 1 0
0.999771 0.977798 0
1 0.965698 0
1 0.965408 0
1 0.965087 0
0 1 0
0 1 0
0.0625772 1 0
0.394629 1 0
0.81001 1 0
1 0.977783 0
1 0.965972 0
1 0.965866 0
1 0.965652 0
0 0.0226902 0.049958
0.00129702 0.0222019 0.0555276
0.118669 0.00140383 0.0284428
0.302525 0.00151064 0
0.534997 0 0
0.753872 0 0
0.950942 0 0
0.980591 0 0
0.980591 0 0
0 0.0387732 0.045594
0.00169375 0.0404974 0.0462959
0.106706 0.0254978 0.0258793
0.301701 0.00384527 0
0.548684 0 0
0.783871 0 0
0.968032 0 0
0.980591 0 0
0.980591 0 0
0 0.115587 0.01944
0.000320439 0.12578 0.0261845
0.111406 0.123949 0.0337072
0.33019 0.111971 0.0012665
0.598978 0.0951095 0
0.855909 0.0905776 0
0.98967 0.0960403 0
0.9888 0.0905165 0
0.990036 0.100877 0
0 0.293172 0
0 0.316167 0
0.0531777 0.345129 0.000228885
0.424567 0.315755 0.00762951
0.720333 0.313909 0.0012665
0.919066 0.348943 0
1 0.37464 0
1 0.374823 0
1 0.381994 0
0 0.567712 0
0 0.600397 0
0.0225528 0.640986 0
0.391485 0.621286 0
0.80206 0.577432 0.000595102
0.997131 0.58854 0.00541695
1 0.610437 0.000183108
1 0.607843 1.5259e-05
1 0.604501 0
0 0.855146 0
0 0.888945 0
0.0358587 0.917998 0
0.386648 0.890883 0
0.814343 0.824674 0
1 0.802365 0.000137331
1 0.796719 0.00303655
1 0.792157 9.15541e-05
1 0.78526 0
0 1 0
0 1 0
0.0629282 1 0
0.395438 1 0
0.810452 0.994705 0
0.999802 0.966476 0
1 0.951888 0
1 0.948302 0
1 0.944015 0
0 1 0
0 1 0
0.0632334 1 0
0.395041 1 0
0.808057 1 0
0.999649 0.978271 0
1 0.966064 0
1 0.965743 0
1 0.965408 0
0 1 0
0 1 0
0.0622721 1 0
0.392584 1 0
0.807858 1 0
1 0.978103 0
1 0.966171 0
1 0.966049 0
1 0.965789 0
0 0.033463 0.149569
0 0.0340124 0.154955
0.0911727 0.00352483 0.170855
0.337789 0 0.0656291
0.563622 0 0.000839246
0.776989 0 0
0.967529 0 0
0.99144 0 0
0.989639 0 0
0 0.0530861 0.13228
0 0.0551308 0.136721
0.0813611 0.0248569 0.160479
0.340261 0 0.0667124
0.585199 0 0.00131228
0.813733 0 0
0.988571 0 0
0.996658 0 0
0.996384 0 0
0 0.121172 0.113405
0 0.132998 0.121675
0.0845808 0.135485 0.136477
0.346731 0.114214 0.0771038
0.6327 0.0948959 0.00502022
0.890913 0.092134 0
0.999985 0.0986496 0
0.999985 0.09337 0
1 0.104494 0
0 0.302663 0.0559243
0 0.32755 0.0650187
0.0562142 0.359503 0.095964
0.40676 0.339879 0.114031
0.688334 0.345052 0.0689403
0.907439 0.374914 0.00753796
1 0.395636 0.000335698
1 0.395651 0.00030518
1 0.402686 0.000686656
0 0.582162 0.013077
0 0.616068 0.0224308
0.0252995 0.657603 0.0545815
0.366476 0.646967 0.057145
0.786908 0.600122 0.0961013
0.988876 0.612848 0.106157
1 0.634897 0.0701457
1 0.63209 0.0652323
1 0.628153 0.059205
0 0.866957 0.0128328
0 0.900862 0.0319219
0.0443885 0.928603 0.0644846
0.369848 0.906462 0.0547951
0.794141 0.840726 0.046952
1 0.814878 0.0998856
1 0.809262 0.114275
1 0.804776 0.10721
1 0.798291 0.0985122
0 1 0.0327764
0 1 0.0524758
0.0666972 1 0.0763714
0.381598 1 0.0558022
0.784329 0.999298 0.0225986
0.999207 0.973709 0.0559854
1 0.958587 0.0847639
1 0.955154 0.0786603
1 0.951019 0.070222
0 1 0.0297704
0 1 0.0475471
0.0674449 1 0.0708782
0.381506 1 0.0516213
0.782956 1 0.0190585
0.997757 0.982605 0.0522469
1 0.970153 0.0816968
1 0.969879 0.076463
1 0.969665 0.068986
0 1 0.0256962
0 1 0.0429999
0.0664988 1 0.0658427
0.380072 1 0.0482032
0.784176 1 0.0179751
0.998611 0.982269 0.0545968
1 0.970138 0.0854963
1 0.970031 0.0822309
1 0.969848 0.0760815
0 0.0463111 0.356451
0 0.0477302 0.360449
0.00325017 0.0279393 0.398978
0.320211 0 0.362936
0.618723 0 0.230808
0.839002 0 0.0981155
0.996185 0 0.0239719
1 0 0.00880446
1 0 0.0115663
0 0.0665599 0.334066
0 0.0686198 0.33959
0.00381476 0.0488289 0.384329
0.326314 0 0.368368
0.6439 0 0.241138
0.876814 0 0.112047
0.999634 0 0.04654
1 0 0.0454414
1 0 0.0560006
0 0.150744 0.273701
0 0.165225 0.288182
0.00384527 0.173663 0.326558
0.3514 0.0966201 0.399603
0.707729 0.0636454 0.275578
0.953185 0.0708476 0.168963
1 0.0813611 0.135927
1 0.0748302 0.147494
1 0.0844129 0.174151
0 0.310887 0.258717
0 0.336538 0.277073
0.0333104 0.37023 0.320821
0.330251 0.367102 0.35465
0.674449 0.357748 0.277913
0.924178 0.378058 0.201709
1 0.397238 0.17258
1 0.39707 0.176486
1 0.401968 0.185351
0 0.591669 0.211688
0 0.624506 0.232166
0.0229953 0.664057 0.292805
0.331121 0.658259 0.333089
0.731212 0.618372 0.343313
0.93576 0.637415 0.306767
1 0.660517 0.245182
1 0.658213 0.241169
1 0.653376 0.23415
0 0.870924 0.23682
0 0.902846 0.266041
0.0403754 0.927321 0.323766
0.344839 0.90631 0.333074
0.728206 0.854109 0.295842
0.984787 0.821881 0.347723
1 0.819501 0.351934
1 0.815152 0.344137
1 0.80911 0.333471
0 1 0.27921
0 1 0.302617
0.0588998 1 0.342
0.356924 1 0.333165
0.713039 1 0.276814
0.987976 0.981537 0.297368
1 0.964187 0.333715
1 0.960555 0.327138
1 0.95552 0.318074
0 1 0.275074
0 1 0.295796
0.060029 1 0.334325
0.357351 1 0.327214
0.714 1 0.272572
0.987091 0.988373 0.292317
1 0.974136 0.328634
1 0.973877 0.322255
1 0.973754 0.313329
0 1 0.269551
0 1 0.288136
0.0599222 1 0.326055
0.357168 1 0.320867
0.718013 1 0.269017
0.988098 0.987701 0.293156
1 0.97409 0.33022
1 0.973922 0.325963
1 0.973816 0.318135
0 0.0588083 0.597787
0 0.0608225 0.601099
0 0.0478828 0.637201
0.162722 6.10361e-05 0.694087
0.590219 0 0.587579
0.859113 0 0.51516
1 0 0.411978
1 0 0.381903
1 0 0.396735
0 0.0780652 0.580652
0 0.0807965 0.586892
0 0.0670787 0.631144
0.16733 0.00231937 0.70222
0.619348 0 0.609659
0.897871 0 0.544579
1 0 0.462226
1 0 0.466178
1 0 0.494072
0 0.176287 0.518181
0 0.193271 0.537484
0 0.203952 0.595926
0.171679 0.132662 0.727367
0.69958 0.0450446 0.683879
0.979492 0.0390631 0.635386
1 0.0445869 0.600046
1 0.0399786 0.623346
1 0.0465858 0.660471
0 0.352865 0.473259
0 0.381506 0.497292
0.000106813 0.428229 0.512489
0.136507 0.426978 0.596033
0.689052 0.338247 0.692287
0.978225 0.34374 0.61738
1 0.363882 0.567742
1 0.362402 0.579507
1 0.365881 0.594965
0 0.599542 0.49955
0 0.631922 0.524559
0.00758373 0.672557 0.580621
0.287785 0.669993 0.612863
0.639338 0.642329 0.624552
0.908827 0.642451 0.565499
1 0.656962 0.515938
1 0.653925 0.51458
1 0.647929 0.509911
0 0.87454 0.514336
0 0.903944 0.545266
0.0221866 0.927535 0.599634
0.325765 0.902113 0.627436
0.664851 0.856733 0.62446
0.93698 0.827619 0.630488
1 0.834119 0.594903
1 0.830137 0.586892
1 0.824186 0.575128
0 1 0.552239
0 1 0.576288
0.0400549 1 0.618555
0.335897 1 0.638331
0.661967 1 0.611261
0.937041 0.987472 0.588724
1 0.967224 0.621881
1 0.96318 0.616526
1 0.957992 0.608896
0 1 0.551156
0 1 0.570809
0.0396887 1 0.611551
0.335286 1 0.63212
0.663157 1 0.607645
0.936812 0.994736 0.585779
1 0.978347 0.617197
1 0.978058 0.612177
1 0.977905 0.6047
0 1 0.545357
0 1 0.562554
0.0390021 1 0.603983
0.335973 1 0.627695
0.667338 1 0.606561
0.941787 0.993835 0.5888
1 0.978347 0.621698
1 0.97818 0.617929
1 0.978012 0.610391
0 0.0686351 0.773114
0 0.0710307 0.777081
0 0.0609445 0.810468
0.0310369 0.00448615 0.884245
0.526223 0 0.840558
0.845869 0 0.776944
1 0 0.742916
1 0 0.730404
1 0 0.747768
0 0.0880751 0.76199
0 0.0917983 0.769512
0 0.0813001 0.812329
0.0419471 0.0153506 0.896834
0.559258 0 0.861799
0.88809 0 0.808454
1 0 0.790082
1 0 0.798321
1 0 0.820584
0 0.196857 0.713924
0 0.216495 0.734524
0 0.229557 0.793698
0.050309 0.171054 0.910842
0.634592 0.0582437 0.928359
0.978408 0.0366979 0.899504
1 0.0380713 0.904173
1 0.0349737 0.919982
1 0.0411841 0.944869
0 0.40444 0.629175
0 0.435721 0.654093
0 0.484428 0.680262
0.026154 0.471992 0.776715
0.564874 0.376715 0.91841
0.978729 0.336339 0.910857
1 0.344366 0.903365
1 0.342947 0.911727
1 0.346365 0.922301
0 0.627771 0.693889
0 0.661189 0.717037
6.10361e-05 0.704479 0.748501
0.149508 0.720058 0.757244
0.490059 0.690578 0.797818
0.922271 0.627207 0.859297
1 0.630823 0.809369
1 0.626566 0.809766
1 0.619944 0.807782
0 0.880064 0.739116
0 0.908339 0.766461
0.0117037 0.931777 0.809995
0.289708 0.909575 0.822049
0.629908 0.864073 0.806241
0.877745 0.840589 0.808576
1 0.837079 0.766003
1 0.832792 0.760693
1 0.826169 0.753017
0 1 0.76051
0 1 0.782925
0.0198825 1 0.815732
0.310719 1 0.819501
0.649226 1 0.809857
0.889998 0.99144 0.805249
1 0.973312 0.813474
1 0.969207 0.810132
1 0.963775 0.805188
0 1 0.765591
0 1 0.785229
0.018204 1 0.816495
0.304311 1 0.820005
0.64567 1 0.808972
0.890074 0.999161 0.804608
1 0.984833 0.81323
1 0.984527 0.810269
1 0.984314 0.805661
0 1 0.76492
0 1 0.782956
0.01738 1 0.813993
0.301686 1 0.818845
0.649195 1 0.809842
0.897749 0.998917 0.809613
1 0.985061 0.820249
1 0.984894 0.817868
1 0.984634 0.812711
0 0.080293 0.920851
0 0.0831006 0.924544
0 0.0750286 0.95285
0 0.0232853 0.998962
0.411887 0 0.999069
0.828962 0 0.967086
1 0 0.951019
1 0 0.955139
1 0 0.972061
0 0.100969 0.913436
0 0.105882 0.921263
0 0.0985428 0.959274
0 0.0413519 0.999664
0.447562 0 0.999969
0.875914 0 0.987671
1 0 0.984848
1 0 0.989853
1 0 0.99588
0 0.221393 0.879133
0 0.245121 0.899046
0 0.260761 0.951247
0.000564584 0.21091 1
0.515984 0.0964675 1
0.972274 0.0417334 1
1 0.0404669 1
1 0.0372625 1
1 0.0460365 1
0 0.450828 0.78648
0 0.487037 0.809003
0 0.534112 0.841688
0 0.519326 0.920684
0.426093 0.429572 0.999969
0.957732 0.352422 1
1 0.349462 1
1 0.347494 1
1 0.350149 1
0 0.676997 0.823621
0 0.713176 0.846433
0 0.760922 0.858183
0.0211185 0.776974 0.864942
0.357992 0.738659 0.939116
0.839475 0.655238 0.998962
1 0.624933 0.998199
1 0.620096 0.998123
1 0.613001 0.997955
0 0.899321 0.90016
0 0.928557 0.9178
0.000534066 0.950576 0.940978
0.208255 0.938231 0.948074
0.502846 0.906676 0.912657
0.777218 0.871839 0.936584
0.999802 0.823926 0.975036
1 0.81677 0.966873
1 0.809918 0.961883
0 1 0.912077
0 1 0.917067
0.0136721 1 0.935714
0.287663 1 0.944076
0.623407 1 0.936416
0.867552 0.99556 0.938262
0.99942 0.983368 0.946548
1 0.978164 0.948486
1 0.973327 0.942275
0 1 0.910674
0 1 0.916533
0.0121614 1 0.935241
0.285603 1 0.944411
0.624613 1 0.936797
0.87628 0.999969 0.943465
1 0.992599 0.952895
1 0.992294 0.95082
1 0.992157 0.948272
0 1 0.912276
0 1 0.916945
0.00993362 1 0.93489
0.280812 1 0.945739
0.624781 1 0.938216
0.881498 0.999832 0.945861
1 0.992691 0.957626
1 0.992554 0.955474
1 0.992355 0.952117
0 0.0950332 1
0 0.0982834 1
0 0.0916609 1
0 0.0451209 1
0.263859 0 1
0.775906 0 1
1 0 1
1 0 1
1 0 1
0 0.11783 1
0 0.124437 1
0 0.119493 1
0 0.068101 1
0.29839 0.000671397 1
0.830488 0 1
1 0 1
1 0 1
1 0 1
0 0.251804 0.998077
0 0.279438 0.999817
0 0.297536 1
0 0.253681 1
0.368841 0.144808 1
0.93547 0.0560006 1
1 0.0428168 1
1 0.0389563 1
1 0.05066 1
0 0.497673 0.931533
0 0.537224 0.950942
0 0.583108 0.978866
0 0.570001 0.998535
0.284138 0.482734 1
0.874846 0.384878 1
1 0.357366 1
1 0.350561 1
1 0.353491 1
0 0.735134 0.929839
0 0.771405 0.943145
0 0.820142 0.944503
0 0.829099 0.955306
0.225635 0.786954 0.999283
0.721172 0.695308 1
1 0.636347 1
1 0.621759 1
1 0.614252 1
0 0.93077 0.936538
0 0.959655 0.93402
0 0.980743 0.938842
0.0863203 0.981155 0.964248
0.349996 0.958267 0.972427
0.665934 0.908171 0.982528
0.990372 0.845151 0.997208
1 0.817411 0.998505
1 0.809689 0.998856
0 1 0.917617
0 1 0.91809
0.00787366 1 0.93373
0.251621 1 0.946029
0.56144 1 0.945418
0.782116 1 0.951537
0.969955 0.993072 0.96965
1 0.979583 0.97673
1 0.973297 0.977584
0 1 0.915908
0 1 0.920531
0.0159457 1 0.936019
0.292943 1 0.945907
0.628565 1 0.945556
0.875212 1 0.958602
0.999985 0.993698 0.974319
1 0.993332 0.974487
1 0.993332 0.974487
0 1 0.915908
0 1 0.920485
0.0164034 1 0.935897
0.292638 1 0.945907
0.633555 1 0.945693
0.885451 0.999878 0.95964
1 0.993332 0.974487
1 0.993332 0.974487
1 0.993332 0.974487
0 0.106676 1
0 0.110582 1
0 0.105058 1
0 0.0611124 1
0.155459 0.000518807 1
0.705791 0 1
1 0 1
1 0 1
1 0 1
0 0.13257 1
0 0.141314 1
0 0.138384 1
0 0.0897231 1
0.179339 0.00708019 1
0.761654 0 1
1 0 1
1 0 1
1 0 1
0 0.279942 1
0 0.311177 1
0 0.330877 1
0 0.290425 1
0.246128 0.187716 1
0.870588 0.081117 1
1 0.0513924 1
1 0.0403449 1
1 0.0553292 1
0 0.538293 0.999802
0 0.581262 0.998917
0 0.626154 0.990707
0 0.614115 0.992645
0.156847 0.532174 1
0.764691 0.42591 1
1 0.373953 1
1 0.354635 1
1 0.356725 1
0 0.785122 0.954559
0 0.822263 0.948623
0 0.867384 0.94284
0 0.874281 0.943358
0.107973 0.830747 0.992599
0.593622 0.739269 1
0.997116 0.663172 1
1 0.6262 1
1 0.615656 1
0 0.968521 0.933242
0 0.98854 0.930526
0 0.998749 0.927642
0.00378424 0.998978 0.944778
0.217411 0.993225 0.963546
0.552865 0.946029 0.971725
0.913893 0.875044 0.994934
1 0.825147 0.998001
1 0.81033 0.99884
0 1 0.91632
0 1 0.916014
3.0518e-05 1 0.92726
0.160189 1 0.944991
0.43328 1 0.94551
0.668788 1 0.946334
0.895476 0.999802 0.960647
1 0.984329 0.976043
1 0.97435 0.977447
0 1 0.915908
0 1 0.919249
0.0107729 1 0.934874
0.27126 1 0.945922
0.595605 1 0.945251
0.83093 1 0.954772
0.985336 0.996231 0.970703
1 0.993347 0.974487
1 0.993332 0.974487
0 1 0.915908
0 1 0.921202
0.0205539 1 0.936446
0.30071 1 0.945891
0.640726 1 0.945815
0.889754 0.999817 0.960052
1 0.993393 0.974502
1 0.993332 0.974487
1 0.993332 0.974487
