public/textures/LUTs/TROPIC COLOUR - BEST OF LOOKS (telegram - @creativecashe)-1/TROPIC COLOUR - BEST OF LOOKS/TC - BOLD ABSTRACTION/TC - CLARITY.cube
TITLE "Generated by Resolve"
LUT_3D_SIZE 33
0.011841 0.0154116 0.013138
0.0155489 0.0153048 0.0130159
0.0195926 0.0151064 0.0127871
0.0239719 0.0148165 0.0124971
0.0287785 0.0144198 0.0121309
0.0350195 0.0138247 0.0115969
0.046128 0.0128023 0.0113375
0.0733959 0.0110933 0.0128634
0.118334 0.00900282 0.0167239
0.168185 0.00779736 0.0220188
0.215732 0.00920119 0.0289158
0.262547 0.0122225 0.0364996
0.31136 0.0147707 0.0436255
0.362387 0.0159152 0.0496529
0.419455 0.0144808 0.0541848
0.493065 0.00782788 0.0558328
0.623072 0.00114443 0.051667
0.789197 0 0.0436103
0.941909 0 0.0375372
0.995651 0 0.0398718
1 0 0.0411383
1 0 0.0408331
1 0 0.0405432
1 0 0.0402838
1 0 0.0400702
1 0 0.0398871
1 0 0.0396582
1 0 0.0394598
1 0 0.0395056
1 0 0.0397192
1 0 0.039826
1 0 0.0397955
1 0 0.039765
0.0113222 0.0186313 0.012665
0.0151064 0.0185855 0.0125582
0.0191653 0.0183719 0.0124208
0.023621 0.0181582 0.0121767
0.0285191 0.0178225 0.0118715
0.0350042 0.017258 0.0113985
0.0466011 0.0162661 0.0112764
0.0742962 0.0145418 0.0129549
0.119158 0.0124819 0.0169528
0.169726 0.0112612 0.0225223
0.218585 0.0125582 0.0298314
0.265904 0.01561 0.0377661
0.315419 0.0182498 0.045182
0.366918 0.0193332 0.0513161
0.425361 0.0176852 0.0557259
0.500511 0.0105898 0.0570077
0.637324 0.00131228 0.0515602
0.807004 1.5259e-05 0.0428626
0.956222 0 0.0372778
0.997772 0 0.0401312
1 0 0.0410315
1 0 0.0407111
1 0 0.0404212
1 0 0.040177
1 0 0.0399634
1 0 0.039765
1 0 0.0395361
1 0 0.039292
1 0 0.0400244
1 0 0.0413977
1 0 0.0420691
1 0 0.0419776
1 0 0.0419013
0.0107424 0.022034 0.0120851
0.0145571 0.0220188 0.0120394
0.018677 0.0219272 0.0119478
0.0231937 0.0217441 0.0117952
0.0281529 0.0214542 0.0115511
0.0348974 0.0209201 0.0111849
0.0471656 0.0199741 0.0111849
0.0749828 0.0183261 0.0129854
0.119966 0.0162509 0.0171664
0.171313 0.0149691 0.0230411
0.221195 0.0162356 0.0307469
0.269291 0.0193637 0.0391089
0.319448 0.0220951 0.0468452
0.371771 0.0231785 0.0531777
0.431403 0.0213169 0.0575418
0.506767 0.0145266 0.0589151
0.6495 0.00158694 0.0517433
0.820905 3.0518e-05 0.0423133
0.959869 0 0.0375219
0.998444 0 0.040116
1 0 0.0406348
1 0 0.0403143
1 0 0.0400092
1 0 0.0396887
1 0 0.0393988
1 0 0.0394598
1 0 0.0404669
1 0 0.0417029
1 0 0.0436103
1 0 0.0458381
1 0 0.0468452
1 0 0.0467689
1 0 0.0466773
0.00993362 0.025864 0.0113069
0.0137942 0.025864 0.0113375
0.0179904 0.0258488 0.0113069
0.0225681 0.0257267 0.0112154
0.0276188 0.0255131 0.0110475
0.0345769 0.0250401 0.0108034
0.047364 0.0241855 0.0109712
0.0752575 0.0225528 0.0128939
0.120073 0.0205386 0.0172274
0.172915 0.0192416 0.0235447
0.223774 0.0204623 0.0316777
0.27274 0.0236973 0.0405585
0.32314 0.026566 0.048661
0.376104 0.0276646 0.0552377
0.436728 0.0256962 0.0596628
0.512749 0.0191501 0.0610361
0.659678 0.00320439 0.0530861
0.832593 0.000183108 0.0424811
0.966598 0 0.0374914
0.999268 0 0.0400549
1 0 0.0400702
1 0 0.0397498
1 0 0.0395056
1 0 0.039826
1 0 0.0404669
1 0 0.0415198
1 0 0.0434577
1 0 0.0456703
1 0 0.0481422
1 0 0.0508583
1 0 0.0518807
1 0 0.0518196
1 0 0.0517739
0.00894179 0.029984 0.0103304
0.0128481 0.0301213 0.0104219
0.0170901 0.0301823 0.0104677
0.0217441 0.0301671 0.0104524
0.0269169 0.0300603 0.0103609
0.0338598 0.0297093 0.0102235
0.0467384 0.0288853 0.0105135
0.0745098 0.0273594 0.0125582
0.119585 0.0253452 0.0171206
0.173632 0.0239872 0.0238193
0.225788 0.0251316 0.0324559
0.275517 0.0284886 0.0419165
0.326696 0.0314336 0.0505074
0.380285 0.0326543 0.0573892
0.441657 0.0307164 0.0619364
0.520088 0.0239109 0.0630961
0.667857 0.00454719 0.0548562
0.842252 0.000259403 0.0434424
0.977264 0 0.0379492
0.999908 0 0.0404517
1 0 0.040177
1 0 0.0400397
1 0 0.040177
1 0 0.0412604
1 0 0.0429694
1 0 0.0450904
1 0 0.0475166
1 0 0.0501869
1 0 0.0530098
1 0 0.0559396
1 0 0.0570077
1 0 0.0569467
1 0 0.0569009
0.0075227 0.037171 0.00892653
0.0113985 0.0377508 0.0090486
0.0156863 0.0379339 0.00917067
0.0204013 0.0380102 0.00926223
0.0256657 0.0378576 0.00927749
0.0326085 0.0373693 0.00923171
0.0451057 0.0363622 0.00959792
0.0726177 0.0344549 0.0117342
0.118044 0.0319066 0.0165103
0.173617 0.0298466 0.0238193
0.227207 0.0305333 0.0330968
0.278019 0.0337835 0.0432441
0.329824 0.0367895 0.0523079
0.383703 0.0381933 0.0595865
0.446036 0.0364233 0.064332
0.527321 0.02916 0.0652323
0.674876 0.00646983 0.0569009
0.849821 0.000335698 0.0451972
0.989807 0 0.0391089
1 0 0.041474
1 0 0.0413214
1 0 0.0417182
1 0 0.0426947
1 0 0.0442817
1 0 0.0464485
1 0 0.049012
1 0 0.0518196
1 0 0.0547799
1 6.10361e-05 0.0578164
1 0.000259403 0.0609598
1 0.000320439 0.0619821
1 0.000289921 0.0619364
1 0.000289921 0.0619059
0.0052491 0.0520638 0.00668345
0.00903334 0.0527352 0.00689708
0.0133516 0.0530861 0.0071107
0.0181125 0.0530251 0.00732433
0.0234531 0.0527047 0.00746166
0.0302129 0.0514839 0.0075227
0.0417945 0.0495766 0.0078584
0.068513 0.0463722 0.00991836
0.1149 0.0421759 0.0149538
0.1729 0.0380865 0.0233768
0.227985 0.037232 0.0336004
0.27982 0.0398413 0.0444343
0.332692 0.0428626 0.0541238
0.386725 0.0445258 0.0618143
0.449332 0.0430457 0.0668803
0.531792 0.0359503 0.0677501
0.678645 0.0138399 0.0594339
0.855665 0.000640879 0.0471351
0.991943 0 0.0409094
1 0 0.0432441
1 0 0.043473
1 0 0.0442359
1 0 0.045594
1 0 0.0475319
1 0 0.0499733
1 0 0.052842
1 0 0.0561685
1 0 0.0597391
1 0.00135805 0.063035
1 0.00669871 0.065507
1 0.00851453 0.0661936
1 0.00849927 0.0661784
1 0.0084535 0.0661631
0.00282292 0.0768749 0.00430304
0.00636301 0.0785687 0.00459297
0.0106203 0.0797589 0.00489815
0.0152895 0.0805066 0.00515755
0.0205844 0.080705 0.00534066
0.0269322 0.0799725 0.00541695
0.0366827 0.0779736 0.00584421
0.0606699 0.0750439 0.00816358
0.105989 0.0699016 0.0132143
0.167788 0.063508 0.0193942
0.22858 0.0586709 0.0321813
0.283543 0.0576791 0.0455634
0.337362 0.0581521 0.0568856
0.391592 0.0581064 0.0654154
0.454032 0.0555276 0.0708019
0.535592 0.0478065 0.0717021
0.681697 0.0251164 0.0628672
0.859846 0.00335698 0.0496681
0.987884 7.62951e-05 0.0436103
1 0 0.0455482
1 0 0.0459907
1 0 0.0471656
1 0 0.0489204
1 0.000183108 0.0512551
1 0.00404364 0.0532845
1 0.00807202 0.0556191
1 0.0125124 0.0582895
1 0.0216678 0.0607767
1 0.0323796 0.0632334
1 0.0443275 0.0652934
1 0.0476844 0.0658274
1 0.0476844 0.0658274
1 0.0476692 0.0658122
0.00161746 0.107942 0.00328069
0.00482185 0.110155 0.00363165
0.00891127 0.112322 0.00395209
0.013489 0.114046 0.00418097
0.0186618 0.115099 0.00447089
0.0247654 0.115084 0.00462348
0.0328985 0.113985 0.00486763
0.0536355 0.111772 0.0069276
0.0955673 0.107713 0.0118105
0.155169 0.102251 0.0180667
0.223362 0.0948043 0.0289464
0.285756 0.0905928 0.0452888
0.343679 0.088426 0.0601205
0.398733 0.0868849 0.0707561
0.459586 0.0835126 0.0772564
0.536675 0.0760815 0.0789349
0.675196 0.05449 0.0694438
0.851347 0.0269627 0.0538643
0.984085 0.0135958 0.0450446
1 0.0105898 0.0458839
1 0.0107729 0.0464027
1 0.0128939 0.0475776
1 0.0167544 0.0492561
1 0.0218509 0.0513466
1 0.0309911 0.0530861
1 0.0413977 0.0549325
1 0.0521553 0.0568551
1 0.0691691 0.0584573
1 0.085481 0.0601358
1 0.101366 0.0616922
1 0.105409 0.062089
1 0.105394 0.0620737
1 0.105394 0.0620737
0.0021973 0.143542 0.00422675
0.00529488 0.146807 0.0047303
0.00936904 0.149844 0.00521859
0.014023 0.152239 0.00569162
0.0192721 0.15491 0.00634775
0.0252384 0.156115 0.00672923
0.0322728 0.156359 0.00689708
0.0493477 0.155261 0.00816358
0.085771 0.152804 0.0123293
0.14226 0.14934 0.0211185
0.211582 0.143389 0.0286259
0.282216 0.136965 0.0451514
0.346929 0.132876 0.0629587
0.405341 0.130205 0.0768902
0.465461 0.127047 0.0856794
0.535653 0.121599 0.0893568
0.660136 0.10399 0.0801251
0.829313 0.0761425 0.0609445
0.977798 0.0516365 0.0460822
1 0.0437324 0.0436255
1 0.0444343 0.0436713
1 0.0495308 0.04448
1 0.0588846 0.0457313
1 0.0713664 0.0470283
1 0.0855116 0.0485695
1 0.100725 0.0501869
1 0.118212 0.0515755
1 0.136553 0.0527504
1 0.152834 0.0539712
1 0.169863 0.0548562
1 0.173983 0.0550851
1 0.173983 0.0550851
1 0.173983 0.0550851
0.00512703 0.182788 0.00756847
0.00895705 0.187198 0.0087129
0.0134279 0.191119 0.00994888
0.0187076 0.195377 0.0115511
0.0242161 0.198596 0.0128023
0.0302129 0.201022 0.013611
0.0367895 0.202716 0.0140688
0.0500954 0.20325 0.0144808
0.0794995 0.202701 0.0170901
0.136095 0.200427 0.0291447
0.196796 0.198337 0.036286
0.269398 0.193347 0.0478523
0.341939 0.189609 0.065568
0.407675 0.18587 0.0829328
0.469291 0.183383 0.0950637
0.534157 0.180392 0.101793
0.640299 0.170184 0.0952621
0.794995 0.148104 0.0725567
0.961257 0.12311 0.0493019
0.999786 0.112184 0.0397498
1 0.112795 0.0378729
1 0.118593 0.0380713
1 0.128985 0.0392309
1 0.141756 0.0401923
1 0.156329 0.0413062
1 0.17174 0.0424811
1 0.189685 0.0430762
1 0.209155 0.043122
1 0.227741 0.0433356
1 0.246754 0.0438697
1 0.251453 0.0440681
1 0.251453 0.0440681
1 0.251453 0.0440681
0.0167239 0.227863 0.0193027
0.0211948 0.233402 0.021561
0.0264744 0.239277 0.0239109
0.0318761 0.244282 0.0260166
0.037644 0.249149 0.0279393
0.0434882 0.252522 0.0291752
0.0498665 0.25565 0.0300908
0.0599832 0.257725 0.0304112
0.0820172 0.258778 0.031342
0.135729 0.259251 0.0391546
0.193469 0.259312 0.052491
0.258381 0.258503 0.0621653
0.330068 0.255985 0.0754253
0.400717 0.252979 0.0912947
0.467048 0.250401 0.105379
0.531029 0.24712 0.114702
0.621973 0.242023 0.113344
0.755444 0.226841 0.0910658
0.915984 0.205982 0.0591745
0.995651 0.194186 0.0424353
0.999985 0.193225 0.0369421
1 0.198474 0.0339513
1 0.207584 0.0324407
1 0.219944 0.0314641
1 0.235416 0.0307469
1 0.254276 0.0311589
1 0.274861 0.0309453
1 0.296162 0.0311742
1 0.318624 0.0352331
1 0.340749 0.0395209
1 0.34609 0.040589
1 0.346532 0.0405737
1 0.346563 0.0406043
0.0341497 0.280613 0.0370642
0.0391394 0.287892 0.0401465
0.0449683 0.294911 0.0432746
0.0509499 0.301732 0.0462806
0.0571298 0.307897 0.0489509
0.0633555 0.312627 0.0510414
0.0700694 0.316823 0.0528573
0.0794842 0.31989 0.0540475
0.0981308 0.322118 0.055314
0.14609 0.324956 0.0610361
0.20177 0.326802 0.0756085
0.262013 0.328466 0.0877089
0.327794 0.329793 0.0993973
0.394659 0.329992 0.111299
0.460105 0.329183 0.122545
0.523278 0.327001 0.130938
0.605585 0.323201 0.13312
0.716854 0.314656 0.115419
0.859709 0.298543 0.0779889
0.965728 0.285664 0.0494087
0.992767 0.283803 0.0400092
0.999557 0.288426 0.0347906
0.999817 0.297795 0.0315099
1 0.31165 0.029572
1 0.328634 0.0284581
1 0.348531 0.0285649
1 0.369635 0.0295415
1 0.392493 0.032517
0.999847 0.414252 0.0393683
0.999039 0.435981 0.047364
0.998795 0.440604 0.0493019
0.998779 0.441062 0.0493935
0.998764 0.441489 0.0494392
0.0533913 0.339635 0.0568856
0.0583047 0.348089 0.0600595
0.0646372 0.35697 0.0637217
0.0708934 0.364752 0.0671702
0.0773938 0.371664 0.0703593
0.0838941 0.377081 0.0729992
0.0907454 0.381552 0.0752117
0.100114 0.385657 0.0773175
0.117144 0.388571 0.07953
0.16228 0.392477 0.0858015
0.217121 0.395239 0.100999
0.275456 0.398398 0.117006
0.336904 0.401999 0.129885
0.398062 0.404334 0.139071
0.458854 0.405859 0.146944
0.517342 0.405554 0.152529
0.591974 0.403876 0.154726
0.685771 0.398764 0.140856
0.806821 0.389013 0.103197
0.920989 0.377371 0.0625925
0.960525 0.376043 0.0486
0.976745 0.381018 0.041825
0.985092 0.39118 0.037644
0.990662 0.405341 0.0359197
0.992248 0.423438 0.0360113
0.993225 0.442618 0.0371252
0.995117 0.463157 0.0398108
0.992386 0.483818 0.0461891
0.985763 0.503044 0.0560006
0.978836 0.521599 0.066743
0.97702 0.52639 0.0696117
0.976852 0.526772 0.0697642
0.976852 0.526772 0.0697642
0.0710918 0.402914 0.0752728
0.0757 0.412375 0.078172
0.0816205 0.421134 0.0813458
0.0877241 0.429541 0.0847028
0.0942702 0.436835 0.0879835
0.101015 0.442664 0.0909438
0.108171 0.44744 0.0935988
0.117144 0.450523 0.0959487
0.132769 0.453086 0.0988479
0.177981 0.457343 0.106874
0.233875 0.460487 0.123064
0.292592 0.463828 0.143008
0.351873 0.467308 0.15874
0.40882 0.470909 0.16817
0.464179 0.473991 0.174121
0.517082 0.475929 0.177539
0.583017 0.476081 0.177966
0.663798 0.474907 0.166979
0.765057 0.470542 0.13254
0.873335 0.463416 0.084123
0.917647 0.463264 0.0644846
0.937789 0.469017 0.0571145
0.951919 0.47953 0.0530251
0.960937 0.494194 0.0523079
0.965103 0.510658 0.0539712
0.968154 0.527871 0.0569772
0.971298 0.546242 0.0615244
0.967117 0.563867 0.070222
0.957153 0.580987 0.0824598
0.947677 0.597375 0.0948196
0.945266 0.601663 0.0981155
0.945098 0.601984 0.0983139
0.944945 0.602319 0.098497
0.0830854 0.468162 0.0878309
0.0865034 0.478599 0.0896162
0.0915236 0.487541 0.0918593
0.0967269 0.495689 0.0942245
0.102327 0.503182 0.0964828
0.108721 0.509285 0.0989853
0.115999 0.513817 0.101701
0.125231 0.516976 0.104738
0.140352 0.518181 0.108736
0.188037 0.520745 0.119951
0.24625 0.52256 0.138018
0.307134 0.52462 0.161212
0.366979 0.527184 0.18143
0.422263 0.530297 0.193835
0.474311 0.534203 0.200427
0.522667 0.537316 0.203326
0.581048 0.539895 0.202976
0.651759 0.541909 0.193759
0.736004 0.542596 0.164431
0.831479 0.541421 0.114199
0.879652 0.542229 0.0881056
0.897963 0.548638 0.0808881
0.911452 0.558877 0.0775921
0.920317 0.573144 0.0777905
0.926696 0.588037 0.0803235
0.931762 0.60412 0.0850385
0.935943 0.620157 0.0904707
0.933822 0.636576 0.0999466
0.927535 0.652445 0.112917
0.922072 0.666896 0.125124
0.920653 0.670848 0.128359
0.920577 0.671168 0.128542
0.920516 0.671473 0.12871
0.0818799 0.534951 0.0873732
0.0825666 0.545769 0.0864118
0.0859083 0.555871 0.0868238
0.0896468 0.565057 0.087541
0.0935378 0.573297 0.0878767
0.0989242 0.580072 0.0890822
0.106355 0.584192 0.0916609
0.116045 0.58735 0.0949111
0.132799 0.586633 0.101198
0.186099 0.584131 0.11928
0.250141 0.582559 0.142657
0.315923 0.582635 0.170031
0.37937 0.583352 0.195987
0.435889 0.585168 0.214115
0.487541 0.589319 0.223926
0.533745 0.593118 0.227985
0.586679 0.596765 0.227832
0.64921 0.600687 0.219745
0.719539 0.605005 0.195727
0.802045 0.607935 0.147677
0.851392 0.61149 0.116426
0.868498 0.61886 0.1093
0.882063 0.629526 0.106508
0.892607 0.642725 0.106889
0.900557 0.657679 0.109819
0.907607 0.673625 0.114092
0.914824 0.689158 0.118776
0.916716 0.704448 0.127077
0.913359 0.718227 0.13872
0.911131 0.730724 0.149432
0.910628 0.734432 0.152361
0.910613 0.734707 0.152499
0.910597 0.734981 0.152621
0.0463264 0.618296 0.0530556
0.0425879 0.632105 0.0475471
0.0439918 0.642649 0.0457465
0.0467079 0.652552 0.0449989
0.0518349 0.659983 0.0460365
0.0585641 0.665827 0.0480964
0.0674296 0.669276 0.0514229
0.0796826 0.670192 0.0565957
0.0996109 0.667521 0.065919
0.163821 0.659693 0.0945754
0.242451 0.652003 0.131609
0.320424 0.646326 0.170657
0.391135 0.643717 0.205646
0.451301 0.644282 0.231113
0.503441 0.646937 0.245563
0.548714 0.650599 0.251835
0.598306 0.655207 0.252415
0.654505 0.660258 0.244862
0.714885 0.666453 0.224109
0.784039 0.672267 0.181537
0.83447 0.67837 0.145663
0.854566 0.686458 0.13576
0.867826 0.697322 0.132906
0.879423 0.709758 0.132525
0.889494 0.723384 0.13431
0.898512 0.73698 0.137118
0.906783 0.751202 0.140887
0.91162 0.764385 0.146792
0.910704 0.776074 0.156466
0.909926 0.787243 0.16582
0.909728 0.790402 0.168399
0.909743 0.790646 0.16849
0.909773 0.791104 0.168597
0.0141451 0.709911 0.0175784
0.0121157 0.723293 0.0141299
0.0119631 0.733425 0.0125734
0.0120089 0.743191 0.0115358
0.013962 0.750134 0.0115816
0.0168612 0.755673 0.0122683
0.0194247 0.759793 0.013077
0.0246433 0.760037 0.0143282
0.0429847 0.757473 0.0155795
0.116747 0.745357 0.041886
0.212222 0.731517 0.090074
0.309178 0.717571 0.146761
0.395178 0.707866 0.199252
0.464454 0.704219 0.238117
0.519219 0.704509 0.260502
0.564279 0.706798 0.270451
0.611841 0.711086 0.272267
0.664393 0.717037 0.265171
0.718288 0.723522 0.245853
0.77673 0.730816 0.209323
0.829648 0.738811 0.168093
0.85214 0.746792 0.15462
0.866346 0.756573 0.150332
0.878218 0.768185 0.149218
0.888655 0.779995 0.149798
0.898405 0.792645 0.151125
0.907546 0.804822 0.152941
0.913725 0.816739 0.156909
0.913603 0.826337 0.164752
0.913756 0.835981 0.171771
0.913832 0.838956 0.173785
0.913848 0.8392 0.173861
0.913863 0.839429 0.173938
6.10361e-05 0.797665 0.000885023
6.10361e-05 0.81062 0.000274662
0 0.82121 0
0 0.829618 0
0.000595102 0.836042 9.15541e-05
0.0016022 0.840818 0.000442512
0.00233463 0.843809 0.000854505
0.00384527 0.844724 0.0010071
0.0130312 0.841611 0.000869764
0.0726024 0.829236 0.0113832
0.171832 0.811795 0.0443427
0.281834 0.79266 0.101061
0.384192 0.776059 0.16788
0.467124 0.765408 0.224521
0.529015 0.761608 0.26038
0.576272 0.7617 0.277928
0.623652 0.764965 0.283757
0.673625 0.769665 0.278019
0.723537 0.776333 0.260258
0.775265 0.783963 0.228138
0.825727 0.793164 0.187671
0.853864 0.801099 0.167163
0.868986 0.8103 0.160952
0.880934 0.820691 0.158434
0.891447 0.831266 0.157687
0.901244 0.842527 0.157794
0.91043 0.853605 0.158404
0.917662 0.8636 0.159808
0.918013 0.872312 0.16582
0.918471 0.880583 0.171252
0.918578 0.88278 0.172824
0.918608 0.882994 0.172869
0.918624 0.883207 0.1729
0 0.876081 0
0 0.887144 0
0 0.896681 0
0 0.904036 0
0 0.910063 0
0 0.914031 0
0 0.917067 0
0.000213626 0.91754 0
0.0016022 0.915694 0
0.0382086 0.905501 0.00015259
0.132433 0.887755 0.0126955
0.247852 0.866926 0.0535134
0.362127 0.845136 0.120241
0.458213 0.827848 0.190036
0.53019 0.818265 0.241917
0.582345 0.815595 0.270527
0.631556 0.815763 0.283742
0.681193 0.819272 0.281926
0.728939 0.825132 0.266407
0.776593 0.832624 0.238117
0.823407 0.841367 0.200641
0.856275 0.850462 0.174609
0.873274 0.859083 0.165301
0.885267 0.867903 0.161425
0.895613 0.87747 0.159594
0.905074 0.88719 0.158572
0.913878 0.896071 0.157946
0.921599 0.904799 0.157534
0.922271 0.912016 0.161868
0.922713 0.918776 0.166079
0.922835 0.920684 0.167376
0.92285 0.920851 0.167391
0.922866 0.921019 0.167422
0 0.937942 0
0 0.946914 0
0 0.953628 0
0 0.959899 0
0 0.96527 0
0 0.96936 0
0 0.971649 0
0 0.971466 0
0 0.970367 0
0.0185397 0.965072 0
0.102968 0.951537 0
0.216861 0.932021 0.0187381
0.335866 0.908949 0.0700084
0.44065 0.887984 0.142138
0.523201 0.873411 0.20763
0.581888 0.86595 0.249302
0.63473 0.863706 0.271733
0.685756 0.865171 0.276432
0.73283 0.869429 0.264683
0.778286 0.87599 0.240208
0.822339 0.884245 0.206394
0.857786 0.892989 0.17763
0.877363 0.900862 0.164843
0.889677 0.909026 0.159777
0.899611 0.917159 0.157229
0.908583 0.92459 0.155322
0.91693 0.931716 0.15349
0.924498 0.938216 0.152224
0.925475 0.943648 0.155291
0.925765 0.948531 0.158572
0.925872 0.950149 0.159609
0.925872 0.95024 0.159609
0.925872 0.950347 0.159564
0 0.978332 0
0 0.983642 0
0 0.988403 0
0 0.991638 0
0 0.993576 0
0 0.994751 0
0 0.99556 0
0 0.995865 0
0 0.995834 0
0.0214694 0.994369 0
0.0927901 0.990616 0
0.195911 0.981445 0.0039826
0.311559 0.964355 0.0311742
0.417868 0.94374 0.088777
0.507134 0.926467 0.158297
0.572839 0.915312 0.211215
0.631525 0.909804 0.24477
0.686 0.908507 0.258717
0.733989 0.910948 0.253178
0.778836 0.916136 0.233875
0.821393 0.923217 0.204898
0.858167 0.931243 0.176486
0.880247 0.938186 0.161105
0.893355 0.944564 0.154391
0.902647 0.949523 0.151095
0.910918 0.95378 0.148745
0.918685 0.958251 0.146715
0.925856 0.96199 0.14522
0.927108 0.965331 0.147265
0.927184 0.968292 0.149905
0.92723 0.969314 0.150744
0.92723 0.969406 0.150759
0.92723 0.969512 0.150759
0 0.996094 0
0 0.997559 0
0 0.999115 0
0 0.999847 0
0 1 0
0 1 0
0 1 0
0 1 0
0 0.999969 0
0.0292515 0.999496 0
0.0978714 0.998642 0
0.194415 0.995804 0.000839246
0.30367 0.987732 0.0176547
0.407095 0.974121 0.0621805
0.495964 0.95816 0.128054
0.564126 0.947204 0.182437
0.625711 0.941131 0.220478
0.68278 0.93901 0.239826
0.73196 0.940337 0.239796
0.776959 0.944213 0.224994
0.818738 0.950042 0.200473
0.855802 0.956283 0.173938
0.880446 0.961563 0.156619
0.894545 0.965057 0.148623
0.903777 0.967498 0.144915
0.911665 0.969802 0.14255
0.919005 0.971954 0.14052
0.925887 0.97409 0.13872
0.92726 0.975662 0.140368
0.927214 0.977081 0.14255
0.927184 0.977569 0.143297
0.927184 0.977615 0.143328
0.927184 0.977615 0.143328
0 1 0
0 1 0
0 1 0
0 1 0
0 1 0
0 1 0
0 1 0
0 1 0
0 1 0
0.0379492 1 0
0.107317 1 0
0.199405 0.999924 9.15541e-05
0.304433 0.997421 0.0128176
0.404532 0.989792 0.050782
0.49099 0.976394 0.113085
0.558968 0.965637 0.166522
0.621683 0.959045 0.206683
0.679652 0.956436 0.228443
0.729366 0.95729 0.231357
0.774273 0.960586 0.219181
0.815305 0.965438 0.19765
0.852445 0.970825 0.17232
0.87921 0.974914 0.153445
0.89456 0.977081 0.14406
0.904204 0.978515 0.139696
0.911818 0.979736 0.137224
0.918929 0.981048 0.135058
0.925612 0.982238 0.133089
0.927092 0.983154 0.134234
0.926986 0.983917 0.13608
0.926955 0.984161 0.136782
0.926955 0.984192 0.136797
0.926955 0.984192 0.136797
0 1 0
0 1 0
0 1 0
0 1 0
0 1 0
0 1 0
0 1 0
0.000106813 1 0
0.00143435 1 0
0.0473793 1 0
0.118257 1 0
0.20798 1 0
0.309514 0.999451 0.0119326
0.406516 0.995911 0.048188
0.490776 0.985809 0.108431
0.557076 0.975402 0.160082
0.619455 0.968185 0.200595
0.677165 0.965225 0.223011
0.726894 0.965896 0.226825
0.771282 0.969024 0.216022
0.811826 0.973342 0.196155
0.848798 0.978012 0.171618
0.877089 0.98175 0.151492
0.894026 0.983886 0.140566
0.904295 0.985229 0.13547
0.911757 0.986343 0.132677
0.9187 0.987411 0.130297
0.925261 0.988449 0.128176
0.926772 0.989227 0.128908
0.926696 0.989822 0.130526
0.926665 0.990066 0.131014
0.926665 0.990066 0.131075
0.92665 0.990097 0.131044
0 1 0
0 1 0
0 1 0
0 1 0
0 1 0
0 1 0
0 1 0
0.000793469 1 0
0.00828565 1 0
0.059205 1 0
0.13022 1 0
0.21735 1 1.5259e-05
0.315343 0.999969 0.0118715
0.409094 0.998672 0.0472419
0.491066 0.993393 0.10486
0.556054 0.984009 0.155337
0.617838 0.976791 0.19498
0.675624 0.973144 0.218616
0.724865 0.973281 0.223011
0.769223 0.975906 0.213519
0.809186 0.979782 0.194873
0.845487 0.984192 0.171099
0.874907 0.987915 0.150225
0.893797 0.990234 0.137484
0.904326 0.991424 0.131853
0.911757 0.992355 0.128756
0.918547 0.99321 0.126192
0.925017 0.994049 0.123796
0.926421 0.994675 0.124392
0.92636 0.995178 0.125551
0.926345 0.995331 0.126024
0.926345 0.995331 0.126024
0.926345 0.995361 0.125994
0 1 0
0 1 0
0 1 0
0 1 0
0 1 0
0 1 0
0 1 0
0.00141909 1 0
0.0141909 1 0
