public/textures/LUTs/TROPIC COLOUR - BEST OF LOOKS (telegram - @creativecashe)-1/TROPIC COLOUR - BEST OF LOOKS/TC - BOLD ABSTRACTION/TC - ABSOLUTE.cube
TITLE "Generated by Resolve"
LUT_3D_SIZE 5
0 0.0184634 0.0267185
0.111528 0.00508125 0.00157168
0.533379 0 0
0.948241 0 0
0.980591 0 0
0 0.114656 0.0016022
0.114946 0.120684 0.0113985
0.593759 0.093019 0
0.988235 0.0933089 0
0.988876 0.0978256 0
0 0.563455 0
0.0222171 0.636896 0
0.803601 0.572946 0
1 0.606226 0
1 0.600855 0
0 1 0
0.0626841 1 0
0.813626 0.994125 0
1 0.951263 0
1 0.943877 0
0 1 0
0.0625772 1 0
0.81001 1 0
1 0.965972 0
1 0.965652 0
0 0.033463 0.149569
0.0911727 0.00352483 0.170855
0.563622 0 0.000839246
0.967529 0 0
0.989639 0 0
0 0.121172 0.113405
0.0845808 0.135485 0.136477
0.6327 0.0948959 0.00502022
0.999985 0.0986496 0
1 0.104494 0
0 0.582162 0.013077
0.0252995 0.657603 0.0545815
0.786908 0.600122 0.0961013
1 0.634897 0.0701457
1 0.628153 0.059205
0 1 0.0327764
0.0666972 1 0.0763714
0.784329 0.999298 0.0225986
1 0.958587 0.0847639
1 0.951019 0.070222
0 1 0.0256962
0.0664988 1 0.0658427
0.784176 1 0.0179751
1 0.970138 0.0854963
1 0.969848 0.0760815
0 0.0588083 0.597787
0 0.0478828 0.637201
0.590219 0 0.587579
1 0 0.411978
1 0 0.396735
0 0.176287 0.518181
0 0.203952 0.595926
0.69958 0.0450446 0.683879
1 0.0445869 0.600046
1 0.0465858 0.660471
0 0.599542 0.49955
0.00758373 0.672557 0.580621
0.639338 0.642329 0.624552
1 0.656962 0.515938
1 0.647929 0.509911
0 1 0.552239
0.0400549 1 0.618555
0.661967 1 0.611261
1 0.967224 0.621881
1 0.957992 0.608896
0 1 0.545357
0.0390021 1 0.603983
0.667338 1 0.606561
1 0.978347 0.621698
1 0.978012 0.610391
0 0.080293 0.920851
0 0.0750286 0.95285
0.411887 0 0.999069
1 0 0.951019
1 0 0.972061
0 0.221393 0.879133
0 0.260761 0.951247
0.515984 0.0964675 1
1 0.0404669 1
1 0.0460365 1
0 0.676997 0.823621
0 0.760922 0.858183
0.357992 0.738659 0.939116
1 0.624933 0.998199
1 0.613001 0.997955
0 1 0.912077
0.0136721 1 0.935714
0.623407 1 0.936416
0.99942 0.983368 0.946548
1 0.973327 0.942275
0 1 0.912276
0.00993362 1 0.93489
0.624781 1 0.938216
1 0.992691 0.957626
1 0.992355 0.952117
0 0.106676 1
0 0.105058 1
0.155459 0.000518807 1
1 0 1
1 0 1
0 0.279942 1
0 0.330877 1
0.246128 0.187716 1
1 0.0513924 1
1 0.0553292 1
0 0.785122 0.954559
0 0.867384 0.94284
0.107973 0.830747 0.992599
0.997116 0.663172 1
1 0.615656 1
0 1 0.91632
3.0518e-05 1 0.92726
0.43328 1 0.94551
0.895476 0.999802 0.960647
1 0.97435 0.977447
0 1 0.915908
0.0205539 1 0.936446
0.640726 1 0.945815
1 0.993393 0.974502
1 0.993332 0.974487
