public/textures/LUTs/TROPIC COLOUR - BEST OF LOOKS (telegram - @creativecashe)-1/TROPIC COLOUR - BEST OF LOOKS/TC - B&W LOOKS/TC - CHARCOAL.cube
TITLE "Generated by Resolve"
LUT_3D_SIZE 5
0.0779278 0.0779278 0.0779278
0.0850538 0.0850538 0.0850538
0.0905623 0.0905623 0.0905623
0.0958877 0.0958877 0.0958877
0.103166 0.103166 0.103166
0.0979324 0.0979324 0.0979324
0.106081 0.106081 0.106081
0.120638 0.120638 0.120638
0.151553 0.151553 0.151553
0.208026 0.208026 0.208026
0.166812 0.166812 0.166812
0.231174 0.231174 0.231174
0.329152 0.329152 0.329152
0.450004 0.450004 0.450004
0.568154 0.568154 0.568154
0.491066 0.491066 0.491066
0.603677 0.603677 0.603677
0.691966 0.691966 0.691966
0.758312 0.758312 0.758312
0.809949 0.809949 0.809949
0.776761 0.776761 0.776761
0.82501 0.82501 0.82501
0.866545 0.866545 0.866545
0.901015 0.901015 0.901015
0.928557 0.928557 0.928557
0.0811627 0.0811627 0.0811627
0.0875563 0.0875563 0.0875563
0.0927443 0.0927443 0.0927443
0.0986191 0.0986191 0.0986191
0.107439 0.107439 0.107439
0.100954 0.100954 0.100954
0.111162 0.111162 0.111162
0.130999 0.130999 0.130999
0.171756 0.171756 0.171756
0.240055 0.240055 0.240055
0.190936 0.190936 0.190936
0.268513 0.268513 0.268513
0.379385 0.379385 0.379385
0.502327 0.502327 0.502327
0.613596 0.613596 0.613596
0.542138 0.542138 0.542138
0.644541 0.644541 0.644541
0.722988 0.722988 0.722988
0.781796 0.781796 0.781796
0.829313 0.829313 0.829313
0.798581 0.798581 0.798581
0.843717 0.843717 0.843717
0.882231 0.882231 0.882231
0.914076 0.914076 0.914076
0.938827 0.938827 0.938827
0.0841688 0.0841688 0.0841688
0.0898146 0.0898146 0.0898146
0.0950942 0.0950942 0.0950942
0.101793 0.101793 0.101793
0.113008 0.113008 0.113008
0.104662 0.104662 0.104662
0.117952 0.117952 0.117952
0.144991 0.144991 0.144991
0.196933 0.196933 0.196933
0.278691 0.278691 0.278691
0.22002 0.22002 0.22002
0.312795 0.312795 0.312795
0.432013 0.432013 0.432013
0.553033 0.553033 0.553033
0.653346 0.653346 0.653346
0.588937 0.588937 0.588937
0.68127 0.68127 0.68127
0.750225 0.750225 0.750225
0.803311 0.803311 0.803311
0.847608 0.847608 0.847608
0.818982 0.818982 0.818982
0.861082 0.861082 0.861082
0.896864 0.896864 0.896864
0.925673 0.925673 0.925673
0.947921 0.947921 0.947921
0.0867781 0.0867781 0.0867781
0.0920119 0.0920119 0.0920119
0.0977035 0.0977035 0.0977035
0.10576 0.10576 0.10576
0.120821 0.120821 0.120821
0.109514 0.109514 0.109514
0.12726 0.12726 0.12726
0.16434 0.16434 0.16434
0.228229 0.228229 0.228229
0.3234 0.3234 0.3234
0.255818 0.255818 0.255818
0.362371 0.362371 0.362371
0.484993 0.484993 0.484993
0.599176 0.599176 0.599176
0.688441 0.688441 0.688441
0.631785 0.631785 0.631785
0.713405 0.713405 0.713405
0.774304 0.774304 0.774304
0.823102 0.823102 0.823102
0.864881 0.864881 0.864881
0.83772 0.83772 0.83772
0.87715 0.87715 0.87715
0.910124 0.910124 0.910124
0.936019 0.936019 0.936019
0.955962 0.955962 0.955962
0.0890974 0.0890974 0.0890974
0.094377 0.094377 0.094377
0.100755 0.100755 0.100755
0.111162 0.111162 0.111162
0.131548 0.131548 0.131548
0.115953 0.115953 0.115953
0.140612 0.140612 0.140612
0.188632 0.188632 0.188632
0.265034 0.265034 0.265034
0.373434 0.373434 0.373434
0.298833 0.298833 0.298833
0.414084 0.414084 0.414084
0.536355 0.536355 0.536355
0.640177 0.640177 0.640177
0.719982 0.719982 0.719982
0.669779 0.669779 0.669779
0.741329 0.741329 0.741329
0.796414 0.796414 0.796414
0.841642 0.841642 0.841642
0.881224 0.881224 0.881224
0.855406 0.855406 0.855406
0.891951 0.891951 0.891951
0.921843 0.921843 0.921843
0.945235 0.945235 0.945235
0.962554 0.962554 0.962554
