public/textures/LUTs/TROPIC COLOUR - BEST OF LOOKS (telegram - @creativecashe)-1/TROPIC COLOUR - BEST OF LOOKS/TC - B&W LOOKS/TC - MATTE BLACK.cube
TITLE "Generated by Resolve"
LUT_3D_SIZE 33
0 0 0
0.00154116 0.00154116 0.00154116
0.00321965 0.00321965 0.00321965
0.00495918 0.00495918 0.00495918
0.00657664 0.00657664 0.00657664
0.00810254 0.00810254 0.00810254
0.00947585 0.00947585 0.00947585
0.0107424 0.0107424 0.0107424
0.0119936 0.0119936 0.0119936
0.0131991 0.0131991 0.0131991
0.0143282 0.0143282 0.0143282
0.0153811 0.0153811 0.0153811
0.0163729 0.0163729 0.0163729
0.0173495 0.0173495 0.0173495
0.0183261 0.0183261 0.0183261
0.0192569 0.0192569 0.0192569
0.0201572 0.0201572 0.0201572
0.0210269 0.0210269 0.0210269
0.0218967 0.0218967 0.0218967
0.022797 0.022797 0.022797
0.0236973 0.0236973 0.0236973
0.0245975 0.0245975 0.0245975
0.0254978 0.0254978 0.0254978
0.0263981 0.0263981 0.0263981
0.0273442 0.0273442 0.0273442
0.0283513 0.0283513 0.0283513
0.0293889 0.0293889 0.0293889
0.030457 0.030457 0.030457
0.0315404 0.0315404 0.0315404
0.0326696 0.0326696 0.0326696
0.0339666 0.0339666 0.0339666
0.0353246 0.0353246 0.0353246
0.0367285 0.0367285 0.0367285
0.00544747 0.00544747 0.00544747
0.00708019 0.00708019 0.00708019
0.00859083 0.00859083 0.00859083
0.00991836 0.00991836 0.00991836
0.0111543 0.0111543 0.0111543
0.0123751 0.0123751 0.0123751
0.01355 0.01355 0.01355
0.0147097 0.0147097 0.0147097
0.0157321 0.0157321 0.0157321
0.0166934 0.0166934 0.0166934
0.0176699 0.0176699 0.0176699
0.018616 0.018616 0.018616
0.0195773 0.0195773 0.0195773
0.0204623 0.0204623 0.0204623
0.0213169 0.0213169 0.0213169
0.0222019 0.0222019 0.0222019
0.0230716 0.0230716 0.0230716
0.0239872 0.0239872 0.0239872
0.0249027 0.0249027 0.0249027
0.0258183 0.0258183 0.0258183
0.0267338 0.0267338 0.0267338
0.0276646 0.0276646 0.0276646
0.0286717 0.0286717 0.0286717
0.0297551 0.0297551 0.0297551
0.0308232 0.0308232 0.0308232
0.0319219 0.0319219 0.0319219
0.0330816 0.0330816 0.0330816
0.0343786 0.0343786 0.0343786
0.0357824 0.0357824 0.0357824
0.037232 0.037232 0.037232
0.0386969 0.0386969 0.0386969
0.0402838 0.0402838 0.0402838
0.0420844 0.0420844 0.0420844
0.0103456 0.0103456 0.0103456
0.0115816 0.0115816 0.0115816
0.0127871 0.0127871 0.0127871
0.0139467 0.0139467 0.0139467
0.0150149 0.0150149 0.0150149
0.0160678 0.0160678 0.0160678
0.0170291 0.0170291 0.0170291
0.0179904 0.0179904 0.0179904
0.0189364 0.0189364 0.0189364
0.0198367 0.0198367 0.0198367
0.020737 0.020737 0.020737
0.0216373 0.0216373 0.0216373
0.0225071 0.0225071 0.0225071
0.0233921 0.0233921 0.0233921
0.0242771 0.0242771 0.0242771
0.0251774 0.0251774 0.0251774
0.0261234 0.0261234 0.0261234
0.027039 0.027039 0.027039
0.0280156 0.0280156 0.0280156
0.0290379 0.0290379 0.0290379
0.0301061 0.0301061 0.0301061
0.0311742 0.0311742 0.0311742
0.0323186 0.0323186 0.0323186
0.0335393 0.0335393 0.0335393
0.0348516 0.0348516 0.0348516
0.0362554 0.0362554 0.0362554
0.0376745 0.0376745 0.0376745
0.0392309 0.0392309 0.0392309
0.0409094 0.0409094 0.0409094
0.0427558 0.0427558 0.0427558
0.0447089 0.0447089 0.0447089
0.0467079 0.0467079 0.0467079
0.0488746 0.0488746 0.0488746
0.0143282 0.0143282 0.0143282
0.0153811 0.0153811 0.0153811
0.0163577 0.0163577 0.0163577
0.0173342 0.0173342 0.0173342
0.0183261 0.0183261 0.0183261
0.0192569 0.0192569 0.0192569
0.0201572 0.0201572 0.0201572
0.0210269 0.0210269 0.0210269
0.0218967 0.0218967 0.0218967
0.022797 0.022797 0.022797
0.023682 0.023682 0.023682
0.0245975 0.0245975 0.0245975
0.0254978 0.0254978 0.0254978
0.0263981 0.0263981 0.0263981
0.0273442 0.0273442 0.0273442
0.0283665 0.0283665 0.0283665
0.0294041 0.0294041 0.0294041
0.0304723 0.0304723 0.0304723
0.0315557 0.0315557 0.0315557
0.0326848 0.0326848 0.0326848
0.0339666 0.0339666 0.0339666
0.0353399 0.0353399 0.0353399
0.0367437 0.0367437 0.0367437
0.0381933 0.0381933 0.0381933
0.0397345 0.0397345 0.0397345
0.0415198 0.0415198 0.0415198
0.0434424 0.0434424 0.0434424
0.0454261 0.0454261 0.0454261
0.0474403 0.0474403 0.0474403
0.0496529 0.0496529 0.0496529
0.0522011 0.0522011 0.0522011
0.0550546 0.0550546 0.0550546
0.0579538 0.0579538 0.0579538
0.0176699 0.0176699 0.0176699
0.018616 0.018616 0.018616
0.0195773 0.0195773 0.0195773
0.0204623 0.0204623 0.0204623
0.0213321 0.0213321 0.0213321
0.0222019 0.0222019 0.0222019
0.0230716 0.0230716 0.0230716
0.0239872 0.0239872 0.0239872
0.0249027 0.0249027 0.0249027
0.0258183 0.0258183 0.0258183
0.0267338 0.0267338 0.0267338
0.0276799 0.0276799 0.0276799
0.0286717 0.0286717 0.0286717
0.0297704 0.0297704 0.0297704
0.0308385 0.0308385 0.0308385
0.0319371 0.0319371 0.0319371
0.0330968 0.0330968 0.0330968
0.0343938 0.0343938 0.0343938
0.0357977 0.0357977 0.0357977
0.0372473 0.0372473 0.0372473
0.0387121 0.0387121 0.0387121
0.0403143 0.0403143 0.0403143
0.0421149 0.0421149 0.0421149
0.0440528 0.0440528 0.0440528
0.046128 0.046128 0.046128
0.0482032 0.0482032 0.0482032
0.0505074 0.0505074 0.0505074
0.0531319 0.0531319 0.0531319
0.0559701 0.0559701 0.0559701
0.0589456 0.0589456 0.0589456
0.0620584 0.0620584 0.0620584
0.065568 0.065568 0.065568
0.0695659 0.0695659 0.0695659
0.020737 0.020737 0.020737
0.0216373 0.0216373 0.0216373
0.0225071 0.0225071 0.0225071
0.0233768 0.0233768 0.0233768
0.0242771 0.0242771 0.0242771
0.0251774 0.0251774 0.0251774
0.0261234 0.0261234 0.0261234
0.0270542 0.0270542 0.0270542
0.0280156 0.0280156 0.0280156
0.0290532 0.0290532 0.0290532
0.0301061 0.0301061 0.0301061
0.0311894 0.0311894 0.0311894
0.0323339 0.0323339 0.0323339
0.0335393 0.0335393 0.0335393
0.0348669 0.0348669 0.0348669
0.0362707 0.0362707 0.0362707
0.0376898 0.0376898 0.0376898
0.0392462 0.0392462 0.0392462
0.0409247 0.0409247 0.0409247
0.0427863 0.0427863 0.0427863
0.0447395 0.0447395 0.0447395
0.0467536 0.0467536 0.0467536
0.0489052 0.0489052 0.0489052
0.0513924 0.0513924 0.0513924
0.0541085 0.0541085 0.0541085
0.0569924 0.0569924 0.0569924
0.0599222 0.0599222 0.0599222
0.0631113 0.0631113 0.0631113
0.0669108 0.0669108 0.0669108
0.0710918 0.0710918 0.0710918
0.0755016 0.0755016 0.0755016
0.0800488 0.0800488 0.0800488
0.0850385 0.0850385 0.0850385
0.0236973 0.0236973 0.0236973
0.0245823 0.0245823 0.0245823
0.0254978 0.0254978 0.0254978
0.0264134 0.0264134 0.0264134
0.0273442 0.0273442 0.0273442
0.0283665 0.0283665 0.0283665
0.0294041 0.0294041 0.0294041
0.0304723 0.0304723 0.0304723
0.0315557 0.0315557 0.0315557
0.0326848 0.0326848 0.0326848
0.0339818 0.0339818 0.0339818
0.0353399 0.0353399 0.0353399
0.036759 0.036759 0.036759
0.0382086 0.0382086 0.0382086
0.0397498 0.0397498 0.0397498
0.0415503 0.0415503 0.0415503
0.0434577 0.0434577 0.0434577
0.0454414 0.0454414 0.0454414
0.0474708 0.0474708 0.0474708
0.0496986 0.0496986 0.0496986
0.0522316 0.0522316 0.0522316
0.0551003 0.0551003 0.0551003
0.0579995 0.0579995 0.0579995
0.0609903 0.0609903 0.0609903
0.064332 0.064332 0.064332
0.0681773 0.0681773 0.0681773
0.0726024 0.0726024 0.0726024
0.0770886 0.0770886 0.0770886
0.0817273 0.0817273 0.0817273
0.0869764 0.0869764 0.0869764
0.0931106 0.0931106 0.0931106
0.0999771 0.0999771 0.0999771
0.107271 0.107271 0.107271
0.0267185 0.0267185 0.0267185
0.0276799 0.0276799 0.0276799
0.0286717 0.0286717 0.0286717
0.0297704 0.0297704 0.0297704
0.0308385 0.0308385 0.0308385
0.0319371 0.0319371 0.0319371
0.0330968 0.0330968 0.0330968
0.0343938 0.0343938 0.0343938
0.0357977 0.0357977 0.0357977
0.0372473 0.0372473 0.0372473
0.0387274 0.0387274 0.0387274
0.0403296 0.0403296 0.0403296
0.0421302 0.0421302 0.0421302
0.0440681 0.0440681 0.0440681
0.0461433 0.0461433 0.0461433
0.0482185 0.0482185 0.0482185
0.0505379 0.0505379 0.0505379
0.0531624 0.0531624 0.0531624
0.0560006 0.0560006 0.0560006
0.0589761 0.0589761 0.0589761
0.0621195 0.0621195 0.0621195
0.0656138 0.0656138 0.0656138
0.0696422 0.0696422 0.0696422
0.0740063 0.0740063 0.0740063
0.0784924 0.0784924 0.0784924
0.0834821 0.0834821 0.0834821
0.0890364 0.0890364 0.0890364
0.0954299 0.0954299 0.0954299
0.102388 0.102388 0.102388
0.109483 0.109483 0.109483
0.116991 0.116991 0.116991
0.125063 0.125063 0.125063
0.133593 0.133593 0.133593
0.0301061 0.0301061 0.0301061
0.0311894 0.0311894 0.0311894
0.0323339 0.0323339 0.0323339
0.0335393 0.0335393 0.0335393
0.0348669 0.0348669 0.0348669
0.0362707 0.0362707 0.0362707
0.0376898 0.0376898 0.0376898
0.0392462 0.0392462 0.0392462
0.04094 0.04094 0.04094
0.0427863 0.0427863 0.0427863
0.0447547 0.0447547 0.0447547
0.0467689 0.0467689 0.0467689
0.0489204 0.0489204 0.0489204
0.0514076 0.0514076 0.0514076
0.054139 0.054139 0.054139
0.0570077 0.0570077 0.0570077
0.0599527 0.0599527 0.0599527
0.0631418 0.0631418 0.0631418
0.0669718 0.0669718 0.0669718
0.0711376 0.0711376 0.0711376
0.0755627 0.0755627 0.0755627
0.0801099 0.0801099 0.0801099
0.0851148 0.0851148 0.0851148
0.0911727 0.0911727 0.0911727
0.0978103 0.0978103 0.0978103
0.10486 0.10486 0.10486
0.112001 0.112001 0.112001
0.119509 0.119509 0.119509
0.127825 0.127825 0.127825
0.136675 0.136675 0.136675
0.145647 0.145647 0.145647
0.154742 0.154742 0.154742
0.164248 0.164248 0.164248
0.0339818 0.0339818 0.0339818
0.0353399 0.0353399 0.0353399
0.036759 0.036759 0.036759
0.0382086 0.0382086 0.0382086
0.039765 0.039765 0.039765
0.0415351 0.0415351 0.0415351
0.0434577 0.0434577 0.0434577
0.0454414 0.0454414 0.0454414
0.0474861 0.0474861 0.0474861
0.0496986 0.0496986 0.0496986
0.0522469 0.0522469 0.0522469
0.0551156 0.0551156 0.0551156
0.0580148 0.0580148 0.0580148
0.0610208 0.0610208 0.0610208
0.0643626 0.0643626 0.0643626
0.0682078 0.0682078 0.0682078
0.0726329 0.0726329 0.0726329
0.0771344 0.0771344 0.0771344
0.0817731 0.0817731 0.0817731
0.0870375 0.0870375 0.0870375
0.0931716 0.0931716 0.0931716
0.100023 0.100023 0.100023
0.107332 0.107332 0.107332
0.114565 0.114565 0.114565
0.122271 0.122271 0.122271
0.130632 0.130632 0.130632
0.139452 0.139452 0.139452
0.148714 0.148714 0.148714
0.157977 0.157977 0.157977
0.167727 0.167727 0.167727
0.178149 0.178149 0.178149
0.189044 0.189044 0.189044
0.200198 0.200198 0.200198
0.0387274 0.0387274 0.0387274
0.0403296 0.0403296 0.0403296
0.0421302 0.0421302 0.0421302
0.0440681 0.0440681 0.0440681
0.0461433 0.0461433 0.0461433
0.0482185 0.0482185 0.0482185
0.0505379 0.0505379 0.0505379
0.0531624 0.0531624 0.0531624
0.0560006 0.0560006 0.0560006
0.0589914 0.0589914 0.0589914
0.0621347 0.0621347 0.0621347
0.0656443 0.0656443 0.0656443
0.0696727 0.0696727 0.0696727
0.0740368 0.0740368 0.0740368
0.0785229 0.0785229 0.0785229
0.0835279 0.0835279 0.0835279
0.0890669 0.0890669 0.0890669
0.0954757 0.0954757 0.0954757
0.102419 0.102419 0.102419
0.109529 0.109529 0.109529
0.117006 0.117006 0.117006
0.125109 0.125109 0.125109
0.133654 0.133654 0.133654
0.142565 0.142565 0.142565
0.151598 0.151598 0.151598
0.160937 0.160937 0.160937
0.171283 0.171283 0.171283
0.181918 0.181918 0.181918
0.192905 0.192905 0.192905
0.204028 0.204028 0.204028
0.215564 0.215564 0.215564
0.228412 0.228412 0.228412
0.241566 0.241566 0.241566
0.0447547 0.0447547 0.0447547
0.0467689 0.0467689 0.0467689
0.0489204 0.0489204 0.0489204
0.0514076 0.0514076 0.0514076
0.054139 0.054139 0.054139
0.0570077 0.0570077 0.0570077
0.0599527 0.0599527 0.0599527
0.0631571 0.0631571 0.0631571
0.0669871 0.0669871 0.0669871
0.0711528 0.0711528 0.0711528
0.0755779 0.0755779 0.0755779
0.0801404 0.0801404 0.0801404
0.0851301 0.0851301 0.0851301
0.0912032 0.0912032 0.0912032
0.0978561 0.0978561 0.0978561
0.104875 0.104875 0.104875
0.112032 0.112032 0.112032
0.11957 0.11957 0.11957
0.12784 0.12784 0.12784
0.136721 0.136721 0.136721
0.145693 0.145693 0.145693
0.154788 0.154788 0.154788
0.164309 0.164309 0.164309
0.174517 0.174517 0.174517
0.185718 0.185718 0.185718
0.196765 0.196765 0.196765
0.20798 0.20798 0.20798
0.21976 0.21976 0.21976
0.23241 0.23241 0.23241
0.245975 0.245975 0.245975
0.259876 0.259876 0.259876
0.273716 0.273716 0.273716
0.288228 0.288228 0.288228
0.0522316 0.0522316 0.0522316
0.0551156 0.0551156 0.0551156
0.0580148 0.0580148 0.0580148
0.0610208 0.0610208 0.0610208
0.0643626 0.0643626 0.0643626
0.0682078 0.0682078 0.0682078
0.0726329 0.0726329 0.0726329
0.0771344 0.0771344 0.0771344
0.0817884 0.0817884 0.0817884
0.0870527 0.0870527 0.0870527
0.0931716 0.0931716 0.0931716
0.100023 0.100023 0.100023
0.107347 0.107347 0.107347
0.11458 0.11458 0.11458
0.122286 0.122286 0.122286
0.130648 0.130648 0.130648
0.139483 0.139483 0.139483
0.14873 0.14873 0.14873
0.158022 0.158022 0.158022
0.167788 0.167788 0.167788
0.178195 0.178195 0.178195
0.189105 0.189105 0.189105
0.200229 0.200229 0.200229
0.211994 0.211994 0.211994
0.224079 0.224079 0.224079
0.236973 0.236973 0.236973
0.250477 0.250477 0.250477
0.264118 0.264118 0.264118
0.278523 0.278523 0.278523
0.293462 0.293462 0.293462
0.309163 0.309163 0.309163
0.325399 0.325399 0.325399
0.341772 0.341772 0.341772
0.0621195 0.0621195 0.0621195
0.0656291 0.0656291 0.0656291
0.0696574 0.0696574 0.0696574
0.0740368 0.0740368 0.0740368
0.0785229 0.0785229 0.0785229
0.0835126 0.0835126 0.0835126
0.0890669 0.0890669 0.0890669
0.0954757 0.0954757 0.0954757
0.102434 0.102434 0.102434
0.109529 0.109529 0.109529
0.117006 0.117006 0.117006
0.125124 0.125124 0.125124
0.133669 0.133669 0.133669
0.142596 0.142596 0.142596
0.151614 0.151614 0.151614
0.160967 0.160967 0.160967
0.171313 0.171313 0.171313
0.181949 0.181949 0.181949
0.19295 0.19295 0.19295
0.204074 0.204074 0.204074
0.215625 0.215625 0.215625
0.228473 0.228473 0.228473
0.241627 0.241627 0.241627
0.255192 0.255192 0.255192
0.26891 0.26891 0.26891
0.283146 0.283146 0.283146
0.29868 0.29868 0.29868
0.314748 0.314748 0.314748
0.331075 0.331075 0.331075
0.347509 0.347509 0.347509
0.364355 0.364355 0.364355
0.381872 0.381872 0.381872
0.400519 0.400519 0.400519
0.0755627 0.0755627 0.0755627
0.0801099 0.0801099 0.0801099
0.0850996 0.0850996 0.0850996
0.0911879 0.0911879 0.0911879
0.0978408 0.0978408 0.0978408
0.104875 0.104875 0.104875
0.112016 0.112016 0.112016
0.119554 0.119554 0.119554
0.127825 0.127825 0.127825
0.136736 0.136736 0.136736
0.145708 0.145708 0.145708
0.154803 0.154803 0.154803
0.164324 0.164324 0.164324
0.174533 0.174533 0.174533
0.185733 0.185733 0.185733
0.19678 0.19678 0.19678
0.208011 0.208011 0.208011
0.219821 0.219821 0.219821
0.232456 0.232456 0.232456
0.245991 0.245991 0.245991
0.259922 0.259922 0.259922
0.273762 0.273762 0.273762
0.288289 0.288289 0.288289
0.30367 0.30367 0.30367
0.319768 0.319768 0.319768
0.336751 0.336751 0.336751
0.353307 0.353307 0.353307
0.370336 0.370336 0.370336
0.388006 0.388006 0.388006
0.406119 0.406119 0.406119
0.424643 0.424643 0.424643
0.443305 0.443305 0.443305
0.461418 0.461418 0.461418
0.0931411 0.0931411 0.0931411
0.0999924 0.0999924 0.0999924
0.107317 0.107317 0.107317
0.114565 0.114565 0.114565
0.122286 0.122286 0.122286
0.130648 0.130648 0.130648
0.139467 0.139467 0.139467
0.148699 0.148699 0.148699
0.158022 0.158022 0.158022
0.167773 0.167773 0.167773
0.17821 0.17821 0.17821
0.18912 0.18912 0.18912
0.200214 0.200214 0.200214
0.212009 0.212009 0.212009
0.224094 0.224094 0.224094
0.237003 0.237003 0.237003
0.250492 0.250492 0.250492
0.264134 0.264134 0.264134
0.278523 0.278523 0.278523
0.293507 0.293507 0.293507
0.309209 0.309209 0.309209
0.325429 0.325429 0.325429
0.341817 0.341817 0.341817
0.358495 0.358495 0.358495
0.376394 0.376394 0.376394
0.394232 0.394232 0.394232
0.412421 0.412421 0.412421
0.430686 0.430686 0.430686
0.44889 0.44889 0.44889
0.467658 0.467658 0.467658
0.485573 0.485573 0.485573
0.503441 0.503441 0.503441
0.521248 0.521248 0.521248
0.11696 0.11696 0.11696
0.125093 0.125093 0.125093
0.133654 0.133654 0.133654
0.14258 0.14258 0.14258
0.151598 0.151598 0.151598
0.160937 0.160937 0.160937
0.171313 0.171313 0.171313
0.181949 0.181949 0.181949
0.19295 0.19295 0.19295
0.204074 0.204074 0.204074
0.215625 0.215625 0.215625
0.228473 0.228473 0.228473
0.241642 0.241642 0.241642
0.255222 0.255222 0.255222
0.26894 0.26894 0.26894
0.283162 0.283162 0.283162
0.298665 0.298665 0.298665
0.314778 0.314778 0.314778
0.33109 0.33109 0.33109
0.347539 0.347539 0.347539
0.364385 0.364385 0.364385
0.381857 0.381857 0.381857
0.400519 0.400519 0.400519
0.418753 0.418753 0.418753
0.437003 0.437003 0.437003
0.455161 0.455161 0.455161
0.473167 0.473167 0.473167
0.491524 0.491524 0.491524
0.509621 0.509621 0.509621
0.527306 0.527306 0.527306
0.544457 0.544457 0.544457
0.560845 0.560845 0.560845
0.576638 0.576638 0.576638
0.145678 0.145678 0.145678
0.154772 0.154772 0.154772
0.164294 0.164294 0.164294
0.174502 0.174502 0.174502
0.185718 0.185718 0.185718
0.196765 0.196765 0.196765
0.20798 0.20798 0.20798
0.219791 0.219791 0.219791
0.232441 0.232441 0.232441
0.24596 0.24596 0.24596
0.259922 0.259922 0.259922
0.273777 0.273777 0.273777
0.288289 0.288289 0.288289
0.303685 0.303685 0.303685
0.319768 0.319768 0.319768
0.336736 0.336736 0.336736
0.353323 0.353323 0.353323
0.370352 0.370352 0.370352
0.388006 0.388006 0.388006
0.406119 0.406119 0.406119
0.424598 0.424598 0.424598
0.443305 0.443305 0.443305
0.461402 0.461402 0.461402
0.479377 0.479377 0.479377
0.497246 0.497246 0.497246
0.515084 0.515084 0.515084
0.533288 0.533288 0.533288
0.550195 0.550195 0.550195
0.566354 0.566354 0.566354
0.581994 0.581994 0.581994
0.597543 0.597543 0.597543
0.612863 0.612863 0.612863
0.627558 0.627558 0.627558
0.178195 0.178195 0.178195
0.189105 0.189105 0.189105
0.200153 0.200153 0.200153
0.211978 0.211978 0.211978
0.224063 0.224063 0.224063
0.236988 0.236988 0.236988
0.250477 0.250477 0.250477
0.264134 0.264134 0.264134
0.278462 0.278462 0.278462
0.293507 0.293507 0.293507
0.309194 0.309194 0.309194
0.325429 0.325429 0.325429
0.341817 0.341817 0.341817
0.35848 0.35848 0.35848
0.376394 0.376394 0.376394
0.394247 0.394247 0.394247
0.412436 0.412436 0.412436
0.430686 0.430686 0.430686
0.448875 0.448875 0.448875
0.467643 0.467643 0.467643
0.485573 0.485573 0.485573
0.503426 0.503426 0.503426
0.521218 0.521218 0.521218
0.538582 0.538582 0.538582
0.555825 0.555825 0.555825
0.571786 0.571786 0.571786
0.587396 0.587396 0.587396
0.602838 0.602838 0.602838
0.617746 0.617746 0.617746
0.631937 0.631937 0.631937
0.645518 0.645518 0.645518
0.658396 0.658396 0.658396
0.671122 0.671122 0.671122
0.215595 0.215595 0.215595
0.228443 0.228443 0.228443
0.241611 0.241611 0.241611
0.255177 0.255177 0.255177
0.268894 0.268894 0.268894
0.283131 0.283131 0.283131
0.298604 0.298604 0.298604
0.314778 0.314778 0.314778
0.33109 0.33109 0.33109
0.347524 0.347524 0.347524
0.36437 0.36437 0.36437
0.381826 0.381826 0.381826
0.400534 0.400534 0.400534
0.418753 0.418753 0.418753
0.437003 0.437003 0.437003
0.455161 0.455161 0.455161
0.473167 0.473167 0.473167
0.491478 0.491478 0.491478
0.509606 0.509606 0.509606
0.527306 0.527306 0.527306
0.544427 0.544427 0.544427
0.560815 0.560815 0.560815
0.576608 0.576608 0.576608
0.592767 0.592767 0.592767
0.608072 0.608072 0.608072
0.62269 0.62269 0.62269
0.636423 0.636423 0.636423
0.649485 0.649485 0.649485
0.662623 0.662623 0.662623
0.67541 0.67541 0.67541
0.687358 0.687358 0.687358
0.698512 0.698512 0.698512
0.709133 0.709133 0.709133
0.259876 0.259876 0.259876
0.273716 0.273716 0.273716
0.288228 0.288228 0.288228
0.303655 0.303655 0.303655
0.319753 0.319753 0.319753
0.336675 0.336675 0.336675
0.353292 0.353292 0.353292
0.370336 0.370336 0.370336
0.387991 0.387991 0.387991
0.406119 0.406119 0.406119
0.424552 0.424552 0.424552
0.443305 0.443305 0.443305
0.461402 0.461402 0.461402
0.479377 0.479377 0.479377
0.497261 0.497261 0.497261
0.515084 0.515084 0.515084
0.533242 0.533242 0.533242
0.550195 0.550195 0.550195
0.566339 0.566339 0.566339
0.581994 0.581994 0.581994
0.597528 0.597528 0.597528
0.612802 0.612802 0.612802
0.627543 0.627543 0.627543
0.640986 0.640986 0.640986
0.653941 0.653941 0.653941
0.666743 0.666743 0.666743
0.679164 0.679164 0.679164
0.691295 0.691295 0.691295
0.70222 0.70222 0.70222
0.712749 0.712749 0.712749
0.723156 0.723156 0.723156
0.733227 0.733227 0.733227
0.742992 0.742992 0.742992
0.309163 0.309163 0.309163
0.325383 0.325383 0.325383
0.341787 0.341787 0.341787
0.358465 0.358465 0.358465
0.376364 0.376364 0.376364
0.394217 0.394217 0.394217
0.412421 0.412421 0.412421
0.430701 0.430701 0.430701
0.44889 0.44889 0.44889
0.467643 0.467643 0.467643
0.485573 0.485573 0.485573
0.503441 0.503441 0.503441
0.521233 0.521233 0.521233
0.538598 0.538598 0.538598
0.55581 0.55581 0.55581
0.571801 0.571801 0.571801
0.587396 0.587396 0.587396
0.602823 0.602823 0.602823
0.617746 0.617746 0.617746
0.631891 0.631891 0.631891
0.645518 0.645518 0.645518
0.658381 0.658381 0.658381
0.671107 0.671107 0.671107
0.683314 0.683314 0.683314
0.694713 0.694713 0.694713
0.705837 0.705837 0.705837
0.716381 0.716381 0.716381
0.726696 0.726696 0.726696
0.736553 0.736553 0.736553
0.745754 0.745754 0.745754
0.754498 0.754498 0.754498
0.76321 0.76321 0.76321
0.771511 0.771511 0.771511
0.364324 0.364324 0.364324
0.381796 0.381796 0.381796
0.400504 0.400504 0.400504
0.418738 0.418738 0.418738
0.437003 0.437003 0.437003
0.455161 0.455161 0.455161
0.473182 0.473182 0.473182
0.491447 0.491447 0.491447
0.509621 0.509621 0.509621
0.527321 0.527321 0.527321
0.544472 0.544472 0.544472
0.56083 0.56083 0.56083
0.576623 0.576623 0.576623
0.592782 0.592782 0.592782
0.608087 0.608087 0.608087
0.622705 0.622705 0.622705
0.636439 0.636439 0.636439
0.6495 0.6495 0.6495
0.662593 0.662593 0.662593
0.675395 0.675395 0.675395
0.687358 0.687358 0.687358
0.698512 0.698512 0.698512
0.709117 0.709117 0.709117
0.71957 0.71957 0.71957
0.730175 0.730175 0.730175
0.739818 0.739818 0.739818
0.748791 0.748791 0.748791
0.757351 0.757351 0.757351
0.765789 0.765789 0.765789
0.774151 0.774151 0.774151
0.781994 0.781994 0.781994
0.789151 0.789151 0.789151
0.795972 0.795972 0.795972
0.424506 0.424506 0.424506
0.443305 0.443305 0.443305
0.461418 0.461418 0.461418
0.479393 0.479393 0.479393
0.497276 0.497276 0.497276
0.515114 0.515114 0.515114
0.533242 0.533242 0.533242
0.55024 0.55024 0.55024
0.566369 0.566369 0.566369
0.582025 0.582025 0.582025
0.597559 0.597559 0.597559
0.612787 0.612787 0.612787
0.627573 0.627573 0.627573
0.641016 0.641016 0.641016
0.653956 0.653956 0.653956
0.666758 0.666758 0.666758
0.679164 0.679164 0.679164
0.691295 0.691295 0.691295
0.702235 0.702235 0.702235
0.712749 0.712749 0.712749
0.723156 0.723156 0.723156
0.733211 0.733211 0.733211
0.742992 0.742992 0.742992
0.751781 0.751781 0.751781
0.760266 0.760266 0.760266
0.768658 0.768658 0.768658
0.77673 0.77673 0.77673
0.78439 0.78439 0.78439
0.791531 0.791531 0.791531
0.798306 0.798306 0.798306
0.80499 0.80499 0.80499
0.811475 0.811475 0.811475
0.817609 0.817609 0.817609
0.485603 0.485603 0.485603
0.503471 0.503471 0.503471
0.521279 0.521279 0.521279
0.538643 0.538643 0.538643
0.55581 0.55581 0.55581
0.571847 0.571847 0.571847
0.587442 0.587442 0.587442
0.602884 0.602884 0.602884
0.617807 0.617807 0.617807
0.631907 0.631907 0.631907
0.645533 0.645533 0.645533
0.658412 0.658412 0.658412
0.671138 0.671138 0.671138
0.68333 0.68333 0.68333
0.694743 0.694743 0.694743
0.705821 0.705821 0.705821
0.716381 0.716381 0.716381
0.726711 0.726711 0.726711
0.736553 0.736553 0.736553
0.745769 0.745769 0.745769
0.754482 0.754482 0.754482
0.763195 0.763195 0.763195
0.771496 0.771496 0.771496
0.7794 0.7794 0.7794
0.786725 0.786725 0.786725
0.793622 0.793622 0.793622
0.80058 0.80058 0.80058
0.807279 0.807279 0.807279
0.813642 0.813642 0.813642
0.819654 0.819654 0.819654
0.825422 0.825422 0.825422
0.831144 0.831144 0.831144
0.836912 0.836912 0.836912
0.544533 0.544533 0.544533
0.560891 0.560891 0.560891
0.576669 0.576669 0.576669
0.592844 0.592844 0.592844
0.608164 0.608164 0.608164
0.622766 0.622766 0.622766
0.636484 0.636484 0.636484
0.649531 0.649531 0.649531
0.662608 0.662608 0.662608
0.675456 0.675456 0.675456
0.687404 0.687404 0.687404
0.698543 0.698543 0.698543
0.709148 0.709148 0.709148
0.7196 0.7196 0.7196
0.730205 0.730205 0.730205
0.739834 0.739834 0.739834
0.748806 0.748806 0.748806
0.757351 0.757351 0.757351
0.765789 0.765789 0.765789
0.774136 0.774136 0.774136
0.781994 0.781994 0.781994
0.789151 0.789151 0.789151
0.795956 0.795956 0.795956
0.802701 0.802701 0.802701
0.809262 0.809262 0.809262
0.815763 0.815763 0.815763
0.821668 0.821668 0.821668
0.82739 0.82739 0.82739
0.833051 0.833051 0.833051
