public/textures/LUTs/TROPIC COLOUR - BEST OF LOOKS (telegram - @creativecashe)-1/TROPIC COLOUR - BEST OF LOOKS/TC - B&W LOOKS/TC - CHARCOAL.cube
TITLE "Generated by Resolve"
LUT_3D_SIZE 33
0.0779278 0.0779278 0.0779278
0.0788128 0.0788128 0.0788128
0.0797742 0.0797742 0.0797742
0.0807813 0.0807813 0.0807813
0.0817273 0.0817273 0.0817273
0.0826429 0.0826429 0.0826429
0.0834821 0.0834821 0.0834821
0.0842603 0.0842603 0.0842603
0.0850538 0.0850538 0.0850538
0.085832 0.085832 0.085832
0.0865644 0.0865644 0.0865644
0.0872663 0.0872663 0.0872663
0.0879225 0.0879225 0.0879225
0.0885939 0.0885939 0.0885939
0.0892805 0.0892805 0.0892805
0.0899214 0.0899214 0.0899214
0.0905623 0.0905623 0.0905623
0.0911879 0.0911879 0.0911879
0.0918288 0.0918288 0.0918288
0.0924849 0.0924849 0.0924849
0.0931411 0.0931411 0.0931411
0.0938277 0.0938277 0.0938277
0.0944991 0.0944991 0.0944991
0.0951858 0.0951858 0.0951858
0.0958877 0.0958877 0.0958877
0.0966812 0.0966812 0.0966812
0.0974594 0.0974594 0.0974594
0.0982834 0.0982834 0.0982834
0.0991073 0.0991073 0.0991073
0.0999924 0.0999924 0.0999924
0.100999 0.100999 0.100999
0.102052 0.102052 0.102052
0.103166 0.103166 0.103166
0.0810712 0.0810712 0.0810712
0.0820172 0.0820172 0.0820172
0.0829328 0.0829328 0.0829328
0.0837568 0.0837568 0.0837568
0.0845197 0.0845197 0.0845197
0.0852979 0.0852979 0.0852979
0.0860456 0.0860456 0.0860456
0.0868086 0.0868086 0.0868086
0.08748 0.08748 0.08748
0.0881514 0.0881514 0.0881514
0.0888075 0.0888075 0.0888075
0.0894636 0.0894636 0.0894636
0.0901503 0.0901503 0.0901503
0.0907759 0.0907759 0.0907759
0.0914015 0.0914015 0.0914015
0.0920424 0.0920424 0.0920424
0.0926833 0.0926833 0.0926833
0.0933547 0.0933547 0.0933547
0.0940414 0.0940414 0.0940414
0.094728 0.094728 0.094728
0.0954147 0.0954147 0.0954147
0.0961318 0.0961318 0.0961318
0.0968948 0.0968948 0.0968948
0.0977188 0.0977188 0.0977188
0.0985275 0.0985275 0.0985275
0.0993668 0.0993668 0.0993668
0.100267 0.100267 0.100267
0.101259 0.101259 0.101259
0.102358 0.102358 0.102358
0.103471 0.103471 0.103471
0.104631 0.104631 0.104631
0.105882 0.105882 0.105882
0.107317 0.107317 0.107317
0.0840162 0.0840162 0.0840162
0.0847944 0.0847944 0.0847944
0.0855726 0.0855726 0.0855726
0.086305 0.086305 0.086305
0.0870222 0.0870222 0.0870222
0.0877089 0.0877089 0.0877089
0.0883803 0.0883803 0.0883803
0.0890364 0.0890364 0.0890364
0.0896925 0.0896925 0.0896925
0.0903334 0.0903334 0.0903334
0.0909743 0.0909743 0.0909743
0.0916152 0.0916152 0.0916152
0.092256 0.092256 0.092256
0.0928969 0.0928969 0.0928969
0.0935683 0.0935683 0.0935683
0.0942397 0.0942397 0.0942397
0.0949569 0.0949569 0.0949569
0.0956436 0.0956436 0.0956436
0.096376 0.096376 0.096376
0.0971389 0.0971389 0.0971389
0.0979477 0.0979477 0.0979477
0.0987869 0.0987869 0.0987869
0.0996567 0.0996567 0.0996567
0.100572 0.100572 0.100572
0.101579 0.101579 0.101579
0.102663 0.102663 0.102663
0.103761 0.103761 0.103761
0.104967 0.104967 0.104967
0.106264 0.106264 0.106264
0.107713 0.107713 0.107713
0.10927 0.10927 0.10927
0.110872 0.110872 0.110872
0.112627 0.112627 0.112627
0.0865644 0.0865644 0.0865644
0.0872511 0.0872511 0.0872511
0.0879225 0.0879225 0.0879225
0.0885939 0.0885939 0.0885939
0.0892653 0.0892653 0.0892653
0.0899214 0.0899214 0.0899214
0.090547 0.090547 0.090547
0.0911879 0.0911879 0.0911879
0.0918135 0.0918135 0.0918135
0.0924697 0.0924697 0.0924697
0.0931258 0.0931258 0.0931258
0.0937972 0.0937972 0.0937972
0.0944686 0.0944686 0.0944686
0.0951553 0.0951553 0.0951553
0.0958572 0.0958572 0.0958572
0.0966201 0.0966201 0.0966201
0.0974136 0.0974136 0.0974136
0.0982223 0.0982223 0.0982223
0.0990463 0.0990463 0.0990463
0.0999161 0.0999161 0.0999161
0.100893 0.100893 0.100893
0.10193 0.10193 0.10193
0.102998 0.102998 0.102998
0.104097 0.104097 0.104097
0.105287 0.105287 0.105287
0.106661 0.106661 0.106661
0.108141 0.108141 0.108141
0.109697 0.109697 0.109697
0.111299 0.111299 0.111299
0.113069 0.113069 0.113069
0.115129 0.115129 0.115129
0.117464 0.117464 0.117464
0.11989 0.11989 0.11989
0.0888075 0.0888075 0.0888075
0.0894789 0.0894789 0.0894789
0.090135 0.090135 0.090135
0.0907759 0.0907759 0.0907759
0.0914015 0.0914015 0.0914015
0.0920272 0.0920272 0.0920272
0.0926833 0.0926833 0.0926833
0.0933547 0.0933547 0.0933547
0.0940261 0.0940261 0.0940261
0.0946975 0.0946975 0.0946975
0.0953994 0.0953994 0.0953994
0.0961166 0.0961166 0.0961166
0.0968643 0.0968643 0.0968643
0.0976883 0.0976883 0.0976883
0.098497 0.098497 0.098497
0.099321 0.099321 0.099321
0.100206 0.100206 0.100206
0.101183 0.101183 0.101183
0.102251 0.102251 0.102251
0.103349 0.103349 0.103349
0.104463 0.104463 0.104463
0.105684 0.105684 0.105684
0.107057 0.107057 0.107057
0.108537 0.108537 0.108537
0.11014 0.11014 0.11014
0.111772 0.111772 0.111772
0.113588 0.113588 0.113588
0.115679 0.115679 0.115679
0.117968 0.117968 0.117968
0.120424 0.120424 0.120424
0.123033 0.123033 0.123033
0.125994 0.125994 0.125994
0.129427 0.129427 0.129427
0.0909743 0.0909743 0.0909743
0.0916152 0.0916152 0.0916152
0.092256 0.092256 0.092256
0.0928969 0.0928969 0.0928969
0.0935531 0.0935531 0.0935531
0.0942397 0.0942397 0.0942397
0.0949416 0.0949416 0.0949416
0.0956436 0.0956436 0.0956436
0.0963607 0.0963607 0.0963607
0.0971237 0.0971237 0.0971237
0.0979171 0.0979171 0.0979171
0.0987411 0.0987411 0.0987411
0.0996109 0.0996109 0.0996109
0.100526 0.100526 0.100526
0.101518 0.101518 0.101518
0.102586 0.102586 0.102586
0.103655 0.103655 0.103655
0.104845 0.104845 0.104845
0.106111 0.106111 0.106111
0.107515 0.107515 0.107515
0.10901 0.10901 0.10901
0.110552 0.110552 0.110552
0.11223 0.11223 0.11223
0.114168 0.114168 0.114168
0.116304 0.116304 0.116304
0.118593 0.118593 0.118593
0.120989 0.120989 0.120989
0.123613 0.123613 0.123613
0.126787 0.126787 0.126787
0.130312 0.130312 0.130312
0.134142 0.134142 0.134142
0.138109 0.138109 0.138109
0.142428 0.142428 0.142428
0.0931258 0.0931258 0.0931258
0.0937972 0.0937972 0.0937972
0.0944686 0.0944686 0.0944686
0.0951553 0.0951553 0.0951553
0.0958572 0.0958572 0.0958572
0.0966201 0.0966201 0.0966201
0.0973983 0.0973983 0.0973983
0.0982071 0.0982071 0.0982071
0.0990311 0.0990311 0.0990311
0.0998856 0.0998856 0.0998856
0.100862 0.100862 0.100862
0.101884 0.101884 0.101884
0.102953 0.102953 0.102953
0.104036 0.104036 0.104036
0.105211 0.105211 0.105211
0.106554 0.106554 0.106554
0.108003 0.108003 0.108003
0.109514 0.109514 0.109514
0.11107 0.11107 0.11107
0.112764 0.112764 0.112764
0.114748 0.114748 0.114748
0.116976 0.116976 0.116976
0.119265 0.119265 0.119265
0.121675 0.121675 0.121675
0.124392 0.124392 0.124392
0.127565 0.127565 0.127565
0.131273 0.131273 0.131273
0.135103 0.135103 0.135103
0.139086 0.139086 0.139086
0.143542 0.143542 0.143542
0.148608 0.148608 0.148608
0.154314 0.154314 0.154314
0.160418 0.160418 0.160418
0.0953994 0.0953994 0.0953994
0.0961013 0.0961013 0.0961013
0.0968643 0.0968643 0.0968643
0.097673 0.097673 0.097673
0.0984817 0.0984817 0.0984817
0.0993057 0.0993057 0.0993057
0.100206 0.100206 0.100206
0.101167 0.101167 0.101167
0.10222 0.10222 0.10222
0.103304 0.103304 0.103304
0.104433 0.104433 0.104433
0.105638 0.105638 0.105638
0.106981 0.106981 0.106981
0.108446 0.108446 0.108446
0.110018 0.110018 0.110018
0.111604 0.111604 0.111604
0.113375 0.113375 0.113375
0.115389 0.115389 0.115389
0.117586 0.117586 0.117586
0.119936 0.119936 0.119936
0.122423 0.122423 0.122423
0.125261 0.125261 0.125261
0.128557 0.128557 0.128557
0.132189 0.132189 0.132189
0.135988 0.135988 0.135988
0.1402 0.1402 0.1402
0.144808 0.144808 0.144808
0.150027 0.150027 0.150027
0.155703 0.155703 0.155703
0.161624 0.161624 0.161624
0.167941 0.167941 0.167941
0.174777 0.174777 0.174777
0.182086 0.182086 0.182086
0.0979324 0.0979324 0.0979324
0.0987564 0.0987564 0.0987564
0.0996109 0.0996109 0.0996109
0.100526 0.100526 0.100526
0.101518 0.101518 0.101518
0.102571 0.102571 0.102571
0.103655 0.103655 0.103655
0.104814 0.104814 0.104814
0.106081 0.106081 0.106081
0.107469 0.107469 0.107469
0.108965 0.108965 0.108965
0.110475 0.110475 0.110475
0.112123 0.112123 0.112123
0.114015 0.114015 0.114015
0.116106 0.116106 0.116106
0.118334 0.118334 0.118334
0.120638 0.120638 0.120638
0.123171 0.123171 0.123171
0.126238 0.126238 0.126238
0.129641 0.129641 0.129641
0.133303 0.133303 0.133303
0.137118 0.137118 0.137118
0.141268 0.141268 0.141268
0.146212 0.146212 0.146212
0.151553 0.151553 0.151553
0.157259 0.157259 0.157259
0.163165 0.163165 0.163165
0.169451 0.169451 0.169451
0.176425 0.176425 0.176425
0.183932 0.183932 0.183932
0.191669 0.191669 0.191669
0.199649 0.199649 0.199649
0.208026 0.208026 0.208026
0.100862 0.100862 0.100862
0.101884 0.101884 0.101884
0.102953 0.102953 0.102953
0.104036 0.104036 0.104036
0.105196 0.105196 0.105196
0.106538 0.106538 0.106538
0.107973 0.107973 0.107973
0.109483 0.109483 0.109483
0.111009 0.111009 0.111009
0.112703 0.112703 0.112703
0.114641 0.114641 0.114641
0.116838 0.116838 0.116838
0.119097 0.119097 0.119097
0.121431 0.121431 0.121431
0.124086 0.124086 0.124086
0.127169 0.127169 0.127169
0.130755 0.130755 0.130755
0.134463 0.134463 0.134463
0.138338 0.138338 0.138338
0.142641 0.142641 0.142641
0.147555 0.147555 0.147555
0.153017 0.153017 0.153017
0.158923 0.158923 0.158923
0.164874 0.164874 0.164874
0.171252 0.171252 0.171252
0.178225 0.178225 0.178225
0.185626 0.185626 0.185626
0.193576 0.193576 0.193576
0.201724 0.201724 0.201724
0.210361 0.210361 0.210361
0.219577 0.219577 0.219577
0.229313 0.229313 0.229313
0.239368 0.239368 0.239368
0.104433 0.104433 0.104433
0.105638 0.105638 0.105638
0.106981 0.106981 0.106981
0.108446 0.108446 0.108446
0.110018 0.110018 0.110018
0.111589 0.111589 0.111589
0.113344 0.113344 0.113344
0.115358 0.115358 0.115358
0.11754 0.11754 0.11754
0.119844 0.119844 0.119844
0.122301 0.122301 0.122301
0.125078 0.125078 0.125078
0.128298 0.128298 0.128298
0.131853 0.131853 0.131853
0.135546 0.135546 0.135546
0.139651 0.139651 0.139651
0.144121 0.144121 0.144121
0.149218 0.149218 0.149218
0.154726 0.154726 0.154726
0.160479 0.160479 0.160479
0.166598 0.166598 0.166598
0.173251 0.173251 0.173251
0.180316 0.180316 0.180316
0.187793 0.187793 0.187793
0.195514 0.195514 0.195514
0.203662 0.203662 0.203662
0.212833 0.212833 0.212833
0.222324 0.222324 0.222324
0.232212 0.232212 0.232212
0.242313 0.242313 0.242313
0.252872 0.252872 0.252872
0.264561 0.264561 0.264561
0.276585 0.276585 0.276585
0.10898 0.10898 0.10898
0.110506 0.110506 0.110506
0.112123 0.112123 0.112123
0.114031 0.114031 0.114031
0.116106 0.116106 0.116106
0.118318 0.118318 0.118318
0.120607 0.120607 0.120607
0.123125 0.123125 0.123125
0.126146 0.126146 0.126146
0.129503 0.129503 0.129503
0.133104 0.133104 0.133104
0.136858 0.136858 0.136858
0.140917 0.140917 0.140917
0.145754 0.145754 0.145754
0.150988 0.150988 0.150988
0.156573 0.156573 0.156573
0.162341 0.162341 0.162341
0.16849 0.16849 0.16849
0.17525 0.17525 0.17525
0.182574 0.182574 0.182574
0.190082 0.190082 0.190082
0.197864 0.197864 0.197864
0.206134 0.206134 0.206134
0.215152 0.215152 0.215152
0.225208 0.225208 0.225208
0.235218 0.235218 0.235218
0.245502 0.245502 0.245502
0.256352 0.256352 0.256352
0.267964 0.267964 0.267964
0.280446 0.280446 0.280446
0.293385 0.293385 0.293385
0.30631 0.30631 0.30631
0.319692 0.319692 0.319692
0.114687 0.114687 0.114687
0.116884 0.116884 0.116884
0.119127 0.119127 0.119127
0.121462 0.121462 0.121462
0.124102 0.124102 0.124102
0.127169 0.127169 0.127169
0.130724 0.130724 0.130724
0.134401 0.134401 0.134401
0.138231 0.138231 0.138231
0.142473 0.142473 0.142473
0.147311 0.147311 0.147311
0.152682 0.152682 0.152682
0.158511 0.158511 0.158511
0.164355 0.164355 0.164355
0.170626 0.170626 0.170626
0.177432 0.177432 0.177432
0.18468 0.18468 0.18468
0.192432 0.192432 0.192432
0.200381 0.200381 0.200381
0.208835 0.208835 0.208835
0.218021 0.218021 0.218021
0.227817 0.227817 0.227817
0.23801 0.23801 0.23801
0.248875 0.248875 0.248875
0.260044 0.260044 0.260044
0.271992 0.271992 0.271992
0.284535 0.284535 0.284535
0.297322 0.297322 0.297322
0.31075 0.31075 0.31075
0.324453 0.324453 0.324453
0.338628 0.338628 0.338628
0.35317 0.35317 0.35317
0.367819 0.367819 0.367819
0.122377 0.122377 0.122377
0.125154 0.125154 0.125154
0.128389 0.128389 0.128389
0.13193 0.13193 0.13193
0.135607 0.135607 0.135607
0.139696 0.139696 0.139696
0.144121 0.144121 0.144121
0.149172 0.149172 0.149172
0.154635 0.154635 0.154635
0.160311 0.160311 0.160311
0.166354 0.166354 0.166354
0.172915 0.172915 0.172915
0.179873 0.179873 0.179873
0.187213 0.187213 0.187213
0.194797 0.194797 0.194797
0.202777 0.202777 0.202777
0.211749 0.211749 0.211749
0.221134 0.221134 0.221134
0.231006 0.231006 0.231006
0.24126 0.24126 0.24126
0.252003 0.252003 0.252003
0.263951 0.263951 0.263951
0.276234 0.276234 0.276234
0.288945 0.288945 0.288945
0.301793 0.301793 0.301793
0.314992 0.314992 0.314992
0.329168 0.329168 0.329168
0.343633 0.343633 0.343633
0.358236 0.358236 0.358236
0.372915 0.372915 0.372915
0.387808 0.387808 0.387808
0.403021 0.403021 0.403021
0.418982 0.418982 0.418982
0.133257 0.133257 0.133257
0.137011 0.137011 0.137011
0.141085 0.141085 0.141085
0.145922 0.145922 0.145922
0.151141 0.151141 0.151141
0.156695 0.156695 0.156695
0.162432 0.162432 0.162432
0.168505 0.168505 0.168505
0.175189 0.175189 0.175189
0.182437 0.182437 0.182437
0.189853 0.189853 0.189853
0.197513 0.197513 0.197513
0.205676 0.205676 0.205676
0.214527 0.214527 0.214527
0.22443 0.22443 0.22443
0.234394 0.234394 0.234394
0.244709 0.244709 0.244709
0.255741 0.255741 0.255741
0.267597 0.267597 0.267597
0.280308 0.280308 0.280308
0.293385 0.293385 0.293385
0.30631 0.30631 0.30631
0.319707 0.319707 0.319707
0.333669 0.333669 0.333669
0.348119 0.348119 0.348119
0.363317 0.363317 0.363317
0.378058 0.378058 0.378058
0.393027 0.393027 0.393027
0.40827 0.40827 0.40827
0.423743 0.423743 0.423743
0.439506 0.439506 0.439506
0.455344 0.455344 0.455344
0.47068 0.47068 0.47068
0.147601 0.147601 0.147601
0.152987 0.152987 0.152987
0.158816 0.158816 0.158816
0.164645 0.164645 0.164645
0.170886 0.170886 0.170886
0.177646 0.177646 0.177646
0.184863 0.184863 0.184863
0.192523 0.192523 0.192523
0.200397 0.200397 0.200397
0.208774 0.208774 0.208774
0.217853 0.217853 0.217853
0.227527 0.227527 0.227527
0.237552 0.237552 0.237552
0.248432 0.248432 0.248432
0.259709 0.259709 0.259709
0.271885 0.271885 0.271885
0.284535 0.284535 0.284535
0.297337 0.297337 0.297337
0.310735 0.310735 0.310735
0.324468 0.324468 0.324468
0.338643 0.338643 0.338643
0.35317 0.35317 0.35317
0.367834 0.367834 0.367834
0.382635 0.382635 0.382635
0.398276 0.398276 0.398276
0.413611 0.413611 0.413611
0.429114 0.429114 0.429114
0.444648 0.444648 0.444648
0.46009 0.46009 0.46009
0.475944 0.475944 0.475944
0.491035 0.491035 0.491035
0.506065 0.506065 0.506065
0.521019 0.521019 0.521019
0.166812 0.166812 0.166812
0.173404 0.173404 0.173404
0.180346 0.180346 0.180346
0.187655 0.187655 0.187655
0.195209 0.195209 0.195209
0.203143 0.203143 0.203143
0.21207 0.21207 0.21207
0.221378 0.221378 0.221378
0.231174 0.231174 0.231174
0.241276 0.241276 0.241276
0.251957 0.251957 0.251957
0.263951 0.263951 0.263951
0.276234 0.276234 0.276234
0.288975 0.288975 0.288975
0.301808 0.301808 0.301808
0.315007 0.315007 0.315007
0.329152 0.329152 0.329152
0.343648 0.343648 0.343648
0.358251 0.358251 0.358251
0.37293 0.37293 0.37293
0.387823 0.387823 0.387823
0.402991 0.402991 0.402991
0.418982 0.418982 0.418982
0.434485 0.434485 0.434485
0.450004 0.450004 0.450004
0.4654 0.4654 0.4654
0.480598 0.480598 0.480598
0.49604 0.49604 0.49604
0.511254 0.511254 0.511254
0.526131 0.526131 0.526131
0.540627 0.540627 0.540627
0.554589 0.554589 0.554589
0.568154 0.568154 0.568154
0.19057 0.19057 0.19057
0.19823 0.19823 0.19823
0.206363 0.206363 0.206363
0.215213 0.215213 0.215213
0.22504 0.22504 0.22504
0.234958 0.234958 0.234958
0.245228 0.245228 0.245228
0.256153 0.256153 0.256153
0.267872 0.267872 0.267872
0.2804 0.2804 0.2804
0.2934 0.2934 0.2934
0.30634 0.30634 0.30634
0.319707 0.319707 0.319707
0.333684 0.333684 0.333684
0.348119 0.348119 0.348119
0.363287 0.363287 0.363287
0.378058 0.378058 0.378058
0.393027 0.393027 0.393027
0.408286 0.408286 0.408286
0.423743 0.423743 0.423743
0.439475 0.439475 0.439475
0.455344 0.455344 0.455344
0.47068 0.47068 0.47068
0.485832 0.485832 0.485832
0.500862 0.500862 0.500862
0.515846 0.515846 0.515846
0.531167 0.531167 0.531167
0.545525 0.545525 0.545525
0.559319 0.559319 0.559319
0.572778 0.572778 0.572778
0.586145 0.586145 0.586145
0.59939 0.59939 0.59939
0.612222 0.612222 0.612222
0.21886 0.21886 0.21886
0.228504 0.228504 0.228504
0.238514 0.238514 0.238514
0.249393 0.249393 0.249393
0.260533 0.260533 0.260533
0.272419 0.272419 0.272419
0.284794 0.284794 0.284794
0.297429 0.297429 0.297429
0.310689 0.310689 0.310689
0.324468 0.324468 0.324468
0.338643 0.338643 0.338643
0.353185 0.353185 0.353185
0.367834 0.367834 0.367834
0.382635 0.382635 0.382635
0.398276 0.398276 0.398276
0.413611 0.413611 0.413611
0.429129 0.429129 0.429129
0.444633 0.444633 0.444633
0.46009 0.46009 0.46009
0.475944 0.475944 0.475944
0.491035 0.491035 0.491035
0.50605 0.50605 0.50605
0.521004 0.521004 0.521004
0.535653 0.535653 0.535653
0.550317 0.550317 0.550317
0.563989 0.563989 0.563989
0.577417 0.577417 0.577417
0.590723 0.590723 0.590723
0.603647 0.603647 0.603647
0.616068 0.616068 0.616068
0.628107 0.628107 0.628107
0.639582 0.639582 0.639582
0.650919 0.650919 0.650919
0.253285 0.253285 0.253285
0.265064 0.265064 0.265064
0.277058 0.277058 0.277058
0.289448 0.289448 0.289448
0.302037 0.302037 0.302037
0.315068 0.315068 0.315068
0.329107 0.329107 0.329107
0.343648 0.343648 0.343648
0.358251 0.358251 0.358251
0.37293 0.37293 0.37293
0.387808 0.387808 0.387808
0.402975 0.402975 0.402975
0.418982 0.418982 0.418982
0.434485 0.434485 0.434485
0.450004 0.450004 0.450004
0.4654 0.4654 0.4654
0.480598 0.480598 0.480598
0.49601 0.49601 0.49601
0.511238 0.511238 0.511238
0.526131 0.526131 0.526131
0.540612 0.540612 0.540612
0.554589 0.554589 0.554589
0.568124 0.568124 0.568124
0.58204 0.58204 0.58204
0.595239 0.595239 0.595239
0.607965 0.607965 0.607965
0.62005 0.62005 0.62005
0.631647 0.631647 0.631647
0.643336 0.643336 0.643336
0.654765 0.654765 0.654765
0.665522 0.665522 0.665522
0.675639 0.675639 0.675639
0.685344 0.685344 0.685344
0.294179 0.294179 0.294179
0.306767 0.306767 0.306767
0.31989 0.31989 0.31989
0.33373 0.33373 0.33373
0.348119 0.348119 0.348119
0.363241 0.363241 0.363241
0.378058 0.378058 0.378058
0.393027 0.393027 0.393027
0.40827 0.40827 0.40827
0.423743 0.423743 0.423743
0.439429 0.439429 0.439429
0.455344 0.455344 0.455344
0.47068 0.47068 0.47068
0.485832 0.485832 0.485832
0.500862 0.500862 0.500862
0.515846 0.515846 0.515846
0.531136 0.531136 0.531136
0.545525 0.545525 0.545525
0.559319 0.559319 0.559319
0.572763 0.572763 0.572763
0.58613 0.58613 0.58613
0.599344 0.599344 0.599344
0.612222 0.612222 0.612222
0.624094 0.624094 0.624094
0.635615 0.635615 0.635615
0.647028 0.647028 0.647028
0.658137 0.658137 0.658137
0.669078 0.669078 0.669078
0.679026 0.679026 0.679026
0.688655 0.688655 0.688655
0.698192 0.698192 0.698192
0.707439 0.707439 0.707439
0.716548 0.716548 0.716548
0.338811 0.338811 0.338811
0.353201 0.353201 0.353201
0.367819 0.367819 0.367819
0.382635 0.382635 0.382635
0.398276 0.398276 0.398276
0.413611 0.413611 0.413611
0.429114 0.429114 0.429114
0.444648 0.444648 0.444648
0.46009 0.46009 0.46009
0.475944 0.475944 0.475944
0.491051 0.491051 0.491051
0.506065 0.506065 0.506065
0.521019 0.521019 0.521019
0.535668 0.535668 0.535668
0.550301 0.550301 0.550301
0.563989 0.563989 0.563989
0.577417 0.577417 0.577417
0.590723 0.590723 0.590723
0.603647 0.603647 0.603647
0.616037 0.616037 0.616037
0.628107 0.628107 0.628107
0.639567 0.639567 0.639567
0.650919 0.650919 0.650919
0.661845 0.661845 0.661845
0.672175 0.672175 0.672175
0.682322 0.682322 0.682322
0.691951 0.691951 0.691951
0.701427 0.701427 0.701427
0.710536 0.710536 0.710536
0.719127 0.719127 0.719127
0.727367 0.727367 0.727367
0.735592 0.735592 0.735592
0.743511 0.743511 0.743511
0.387793 0.387793 0.387793
0.402945 0.402945 0.402945
0.418982 0.418982 0.418982
0.434485 0.434485 0.434485
0.450004 0.450004 0.450004
0.4654 0.4654 0.4654
0.480613 0.480613 0.480613
0.495979 0.495979 0.495979
0.511254 0.511254 0.511254
0.526146 0.526146 0.526146
0.540658 0.540658 0.540658
0.554589 0.554589 0.554589
0.568154 0.568154 0.568154
0.582055 0.582055 0.582055
0.595254 0.595254 0.595254
0.607965 0.607965 0.607965
0.62005 0.62005 0.62005
0.631647 0.631647 0.631647
0.64332 0.64332 0.64332
0.654765 0.654765 0.654765
0.665522 0.665522 0.665522
0.675639 0.675639 0.675639
0.685328 0.685328 0.685328
0.694896 0.694896 0.694896
0.704646 0.704646 0.704646
0.713573 0.713573 0.713573
0.721981 0.721981 0.721981
0.730068 0.730068 0.730068
0.738048 0.738048 0.738048
0.746029 0.746029 0.746029
0.753643 0.753643 0.753643
0.760739 0.760739 0.760739
0.76759 0.76759 0.76759
0.439399 0.439399 0.439399
0.45536 0.45536 0.45536
0.470695 0.470695 0.470695
0.485847 0.485847 0.485847
0.500877 0.500877 0.500877
0.515877 0.515877 0.515877
0.531136 0.531136 0.531136
0.545556 0.545556 0.545556
0.559335 0.559335 0.559335
0.572793 0.572793 0.572793
0.58616 0.58616 0.58616
0.599329 0.599329 0.599329
0.612238 0.612238 0.612238
0.624094 0.624094 0.624094
0.635615 0.635615 0.635615
0.647028 0.647028 0.647028
0.658137 0.658137 0.658137
0.669078 0.669078 0.669078
0.679026 0.679026 0.679026
0.688655 0.688655 0.688655
0.698192 0.698192 0.698192
0.707439 0.707439 0.707439
0.716548 0.716548 0.716548
0.724819 0.724819 0.724819
0.73283 0.73283 0.73283
0.740795 0.740795 0.740795
0.748516 0.748516 0.748516
0.755993 0.755993 0.755993
0.763119 0.763119 0.763119
0.76994 0.76994 0.76994
0.776699 0.776699 0.776699
0.783276 0.783276 0.783276
0.789624 0.789624 0.789624
0.491066 0.491066 0.491066
0.506081 0.506081 0.506081
0.52105 0.52105 0.52105
0.535698 0.535698 0.535698
0.550301 0.550301 0.550301
0.564034 0.564034 0.564034
0.577447 0.577447 0.577447
0.590753 0.590753 0.590753
0.603677 0.603677 0.603677
0.616037 0.616037 0.616037
0.628122 0.628122 0.628122
0.639597 0.639597 0.639597
0.65095 0.65095 0.65095
0.661875 0.661875 0.661875
0.672206 0.672206 0.672206
0.682307 0.682307 0.682307
0.691966 0.691966 0.691966
0.701427 0.701427 0.701427
0.710536 0.710536 0.710536
0.719142 0.719142 0.719142
0.727352 0.727352 0.727352
0.735592 0.735592 0.735592
0.743496 0.743496 0.743496
0.75111 0.75111 0.75111
0.758312 0.758312 0.758312
0.765225 0.765225 0.765225
0.772229 0.772229 0.772229
0.779004 0.779004 0.779004
0.785504 0.785504 0.785504
0.791745 0.791745 0.791745
0.797818 0.797818 0.797818
0.803845 0.803845 0.803845
0.809949 0.809949 0.809949
0.540703 0.540703 0.540703
0.554635 0.554635 0.554635
0.568185 0.568185 0.568185
0.582101 0.582101 0.582101
0.595315 0.595315 0.595315
0.608011 0.608011 0.608011
0.620081 0.620081 0.620081
0.631678 0.631678 0.631678
0.643336 0.643336 0.643336
0.654795 0.654795 0.654795
0.665553 0.665553 0.665553
0.675654 0.675654 0.675654
0.685344 0.685344 0.685344
0.694911 0.694911 0.694911
0.704662 0.704662 0.704662
0.713588 0.713588 0.713588
0.721996 0.721996 0.721996
0.730068 0.730068 0.730068
0.738048 0.738048 0.738048
0.746014 0.746014 0.746014
0.753643 0.753643 0.753643
0.760739 0.760739 0.760739
0.767575 0.767575 0.767575
0.774365 0.774365 0.774365
0.781018 0.781018 0.781018
0.787701 0.787701 0.787701
0.793866 0.793866 0.793866
0.799878 0.799878 0.799878
0.805875 0.805875 0.805875
0.811749 0.811749 0.811749
0.8177 0.8177 0.8177
0.82324 0.82324 0.82324
0.828702 0.828702 0.828702
0.586221 0.586221 0.586221
0.599359 0.599359 0.599359
0.612284 0.612284 0.612284
0.624155 0.624155 0.624155
0.63566 0.63566 0.63566
0.647074 0.647074 0.647074
0.658198 0.658198 0.658198
0.669108 0.669108 0.669108
0.679057 0.679057 0.679057
0.688685 0.688685 0.688685
0.698222 0.698222 0.698222
0.707469 0.707469 0.707469
0.716564 0.716564 0.716564
0.724819 0.724819 0.724819
0.732845 0.732845 0.732845
0.74081 0.74081 0.74081
0.748516 0.748516 0.748516
0.755993 0.755993 0.755993
0.763119 0.763119 0.763119
0.76994 0.76994 0.76994
0.776699 0.776699 0.776699
0.783291 0.783291 0.783291
