public/textures/LUTs/TROPIC COLOUR - BEST OF LOOKS (telegram - @creativecashe)-1/TROPIC COLOUR - BEST OF LOOKS/TC - B&W LOOKS/TC - MATTE BLACK.cube
TITLE "Generated by Resolve"
LUT_3D_SIZE 9
0 0 0
0.00657664 0.00657664 0.00657664
0.0119936 0.0119936 0.0119936
0.0163729 0.0163729 0.0163729
0.0201572 0.0201572 0.0201572
0.0236973 0.0236973 0.0236973
0.0273442 0.0273442 0.0273442
0.0315404 0.0315404 0.0315404
0.0367285 0.0367285 0.0367285
0.0176699 0.0176699 0.0176699
0.0213321 0.0213321 0.0213321
0.0249027 0.0249027 0.0249027
0.0286717 0.0286717 0.0286717
0.0330968 0.0330968 0.0330968
0.0387121 0.0387121 0.0387121
0.046128 0.046128 0.046128
0.0559701 0.0559701 0.0559701
0.0695659 0.0695659 0.0695659
0.0301061 0.0301061 0.0301061
0.0348669 0.0348669 0.0348669
0.04094 0.04094 0.04094
0.0489204 0.0489204 0.0489204
0.0599527 0.0599527 0.0599527
0.0755627 0.0755627 0.0755627
0.0978103 0.0978103 0.0978103
0.127825 0.127825 0.127825
0.164248 0.164248 0.164248
0.0522316 0.0522316 0.0522316
0.0643626 0.0643626 0.0643626
0.0817884 0.0817884 0.0817884
0.107347 0.107347 0.107347
0.139483 0.139483 0.139483
0.178195 0.178195 0.178195
0.224079 0.224079 0.224079
0.278523 0.278523 0.278523
0.341772 0.341772 0.341772
0.11696 0.11696 0.11696
0.151598 0.151598 0.151598
0.19295 0.19295 0.19295
0.241642 0.241642 0.241642
0.298665 0.298665 0.298665
0.364385 0.364385 0.364385
0.437003 0.437003 0.437003
0.509621 0.509621 0.509621
0.576638 0.576638 0.576638
0.259876 0.259876 0.259876
0.319753 0.319753 0.319753
0.387991 0.387991 0.387991
0.461402 0.461402 0.461402
0.533242 0.533242 0.533242
0.597528 0.597528 0.597528
0.653941 0.653941 0.653941
0.70222 0.70222 0.70222
0.742992 0.742992 0.742992
0.485603 0.485603 0.485603
0.55581 0.55581 0.55581
0.617807 0.617807 0.617807
0.671138 0.671138 0.671138
0.716381 0.716381 0.716381
0.754482 0.754482 0.754482
0.786725 0.786725 0.786725
0.813642 0.813642 0.813642
0.836912 0.836912 0.836912
0.68748 0.68748 0.68748
0.730282 0.730282 0.730282
0.765835 0.765835 0.765835
0.795987 0.795987 0.795987
0.821683 0.821683 0.821683
0.844144 0.844144 0.844144
0.864103 0.864103 0.864103
0.882597 0.882597 0.882597
0.899977 0.899977 0.899977
0.805097 0.805097 0.805097
0.829404 0.829404 0.829404
0.850889 0.850889 0.850889
0.870436 0.870436 0.870436
0.888533 0.888533 0.888533
0.905608 0.905608 0.905608
0.921843 0.921843 0.921843
0.93785 0.93785 0.93785
0.953689 0.953689 0.953689
0.00277714 0.00277714 0.00277714
0.00909438 0.00909438 0.00909438
0.0140078 0.0140078 0.0140078
0.0180514 0.0180514 0.0180514
0.0216678 0.0216678 0.0216678
0.0252232 0.0252232 0.0252232
0.0290837 0.0290837 0.0290837
0.0335699 0.0335699 0.0335699
0.0392767 0.0392767 0.0392767
0.0193027 0.0193027 0.0193027
0.0228275 0.0228275 0.0228275
0.0264591 0.0264591 0.0264591
0.030518 0.030518 0.030518
0.0354009 0.0354009 0.0354009
0.0416114 0.0416114 0.0416114
0.0497749 0.0497749 0.0497749
0.0610971 0.0610971 0.0610971
0.0772106 0.0772106 0.0772106
0.0319829 0.0319829 0.0319829
0.0373236 0.0373236 0.0373236
0.0441596 0.0441596 0.0441596
0.0532692 0.0532692 0.0532692
0.0657816 0.0657816 0.0657816
0.0836957 0.0836957 0.0836957
0.109773 0.109773 0.109773
0.142901 0.142901 0.142901
0.18233 0.18233 0.18233
0.0571298 0.0571298 0.0571298
0.0713054 0.0713054 0.0713054
0.0914321 0.0914321 0.0914321
0.11986 0.11986 0.11986
0.155169 0.155169 0.155169
0.197238 0.197238 0.197238
0.246509 0.246509 0.246509
0.30428 0.30428 0.30428
0.371023 0.371023 0.371023
0.130983 0.130983 0.130983
0.168185 0.168185 0.168185
0.212467 0.212467 0.212467
0.264714 0.264714 0.264714
0.326101 0.326101 0.326101
0.394995 0.394995 0.394995
0.468452 0.468452 0.468452
0.539467 0.539467 0.539467
0.603693 0.603693 0.603693
0.283696 0.283696 0.283696
0.348211 0.348211 0.348211
0.419547 0.419547 0.419547
0.492256 0.492256 0.492256
0.561685 0.561685 0.561685
0.623499 0.623499 0.623499
0.676143 0.676143 0.676143
0.720241 0.720241 0.720241
0.757916 0.757916 0.757916
0.516014 0.516014 0.516014
0.582895 0.582895 0.582895
0.641825 0.641825 0.641825
0.692012 0.692012 0.692012
0.733837 0.733837 0.733837
0.769207 0.769207 0.769207
0.798749 0.798749 0.798749
0.824048 0.824048 0.824048
0.846067 0.846067 0.846067
0.706538 0.706538 0.706538
0.746395 0.746395 0.746395
0.779934 0.779934 0.779934
0.807736 0.807736 0.807736
0.831479 0.831479 0.831479
0.852857 0.852857 0.852857
0.872297 0.872297 0.872297
0.890288 0.890288 0.890288
0.907103 0.907103 0.907103
0.816236 0.816236 0.816236
0.839002 0.839002 0.839002
0.859556 0.859556 0.859556
0.878386 0.878386 0.878386
0.89601 0.89601 0.89601
0.912627 0.912627 0.912627
0.928801 0.928801 0.928801
0.944686 0.944686 0.944686
0.960464 0.960464 0.960464
0.00561532 0.00561532 0.00561532
0.0112764 0.0112764 0.0112764
0.0158236 0.0158236 0.0158236
0.0196536 0.0196536 0.0196536
0.0231632 0.0231632 0.0231632
0.0268101 0.0268101 0.0268101
0.03093 0.03093 0.03093
0.0359197 0.0359197 0.0359197
0.042237 0.042237 0.042237
0.0208133 0.0208133 0.0208133
0.0243534 0.0243534 0.0243534
0.0281224 0.0281224 0.0281224
0.0324407 0.0324407 0.0324407
0.0378271 0.0378271 0.0378271
0.0449226 0.0449226 0.0449226
0.0543374 0.0543374 0.0543374
0.0672313 0.0672313 0.0672313
0.085481 0.085481 0.085481
0.0341039 0.0341039 0.0341039
0.0399023 0.0399023 0.0399023
0.0476692 0.0476692 0.0476692
0.0582742 0.0582742 0.0582742
0.0729686 0.0729686 0.0729686
0.0936599 0.0936599 0.0936599
0.122942 0.122942 0.122942
0.158785 0.158785 0.158785
0.201099 0.201099 0.201099
0.0623941 0.0623941 0.0623941
0.0789197 0.0789197 0.0789197
0.102983 0.102983 0.102983
0.134401 0.134401 0.134401
0.172183 0.172183 0.172183
0.216632 0.216632 0.216632
0.270085 0.270085 0.270085
0.332448 0.332448 0.332448
0.402075 0.402075 0.402075
0.146456 0.146456 0.146456
0.186572 0.186572 0.186572
0.233539 0.233539 0.233539
0.28954 0.28954 0.28954
0.354757 0.354757 0.354757
0.426123 0.426123 0.426123
0.498955 0.498955 0.498955
0.568032 0.568032 0.568032
0.62916 0.62916 0.62916
0.310506 0.310506 0.310506
0.37789 0.37789 0.37789
0.450538 0.450538 0.450538
0.522957 0.522957 0.522957
0.589059 0.589059 0.589059
0.647044 0.647044 0.647044
0.696086 0.696086 0.696086
0.737728 0.737728 0.737728
0.772519 0.772519 0.772519
0.546242 0.546242 0.546242
0.609796 0.609796 0.609796
0.664012 0.664012 0.664012
0.71043 0.71043 0.71043
0.749905 0.749905 0.749905
0.78294 0.78294 0.78294
0.810086 0.810086 0.810086
0.833753 0.833753 0.833753
0.854856 0.854856 0.854856
0.724514 0.724514 0.724514
0.761395 0.761395 0.761395
0.792462 0.792462 0.792462
0.818402 0.818402 0.818402
0.841154 0.841154 0.841154
0.861509 0.861509 0.861509
0.880156 0.880156 0.880156
0.897536 0.897536 0.897536
0.914229 0.914229 0.914229
0.82623 0.82623 0.82623
0.848173 0.848173 0.848173
0.867964 0.867964 0.867964
0.886 0.886 0.886
0.903166 0.903166 0.903166
0.919646 0.919646 0.919646
0.935683 0.935683 0.935683
0.951385 0.951385 0.951385
0.967254 0.967254 0.967254
0.00828565 0.00828565 0.00828565
0.0133516 0.0133516 0.0133516
0.0174716 0.0174716 0.0174716
0.0211643 0.0211643 0.0211643
0.0247196 0.0247196 0.0247196
0.0285039 0.0285039 0.0285039
0.0328527 0.0328527 0.0328527
0.038407 0.038407 0.038407
0.0456703 0.0456703 0.0456703
0.0223239 0.0223239 0.0223239
0.0259556 0.0259556 0.0259556
0.0299229 0.0299229 0.0299229
0.0345769 0.0345769 0.0345769
0.0405737 0.0405737 0.0405737
0.0485237 0.0485237 0.0485237
0.0593423 0.0593423 0.0593423
0.0745403 0.0745403 0.0745403
0.0961929 0.0961929 0.0961929
0.0364691 0.0364691 0.0364691
0.043061 0.043061 0.043061
0.0517586 0.0517586 0.0517586
0.0636149 0.0636149 0.0636149
0.0807507 0.0807507 0.0807507
0.105776 0.105776 0.105776
0.137865 0.137865 0.137865
0.175845 0.175845 0.175845
0.221317 0.221317 0.221317
0.0687266 0.0687266 0.0687266
0.0877699 0.0877699 0.0877699
0.115572 0.115572 0.115572
0.149859 0.149859 0.149859
0.19057 0.19057 0.19057
0.238697 0.238697 0.238697
0.29546 0.29546 0.29546
0.360693 0.360693 0.360693
0.433188 0.433188 0.433188
0.162219 0.162219 0.162219
0.20557 0.20557 0.20557
0.256992 0.256992 0.256992
0.316869 0.316869 0.316869
0.384176 0.384176 0.384176
0.457679 0.457679 0.457679
0.5299 0.5299 0.5299
0.595254 0.595254 0.595254
0.651743 0.651743 0.651743
0.338674 0.338674 0.338674
0.40853 0.40853 0.40853
0.481941 0.481941 0.481941
0.552758 0.552758 0.552758
0.615076 0.615076 0.615076
0.668894 0.668894 0.668894
0.714611 0.714611 0.714611
0.753384 0.753384 0.753384
0.785718 0.785718 0.785718
0.57438 0.57438 0.57438
0.63415 0.63415 0.63415
0.685389 0.685389 0.685389
0.728496 0.728496 0.728496
0.764721 0.764721 0.764721
0.794903 0.794903 0.794903
0.820752 0.820752 0.820752
0.843275 0.843275 0.843275
0.863371 0.863371 0.863371
0.741588 0.741588 0.741588
0.77554 0.77554 0.77554
0.803967 0.803967 0.803967
0.828458 0.828458 0.828458
0.850172 0.850172 0.850172
0.869718 0.869718 0.869718
0.887755 0.887755 0.887755
0.904845 0.904845 0.904845
0.921233 0.921233 0.921233
0.836057 0.836057 0.836057
0.856886 0.856886 0.856886
0.875776 0.875776 0.875776
0.893553 0.893553 0.893553
0.910399 0.910399 0.910399
0.926574 0.926574 0.926574
0.942367 0.942367 0.942367
0.95819 0.95819 0.95819
0.974212 0.974212 0.974212
0.0105745 0.0105745 0.0105745
0.0152285 0.0152285 0.0152285
0.0191196 0.0191196 0.0191196
0.0226749 0.0226749 0.0226749
0.0263066 0.0263066 0.0263066
0.0303197 0.0303197 0.0303197
0.0351263 0.0351263 0.0351263
0.0412451 0.0412451 0.0412451
0.0493019 0.0493019 0.0493019
0.0238651 0.0238651 0.0238651
0.0275425 0.0275425 0.0275425
0.0317845 0.0317845 0.0317845
0.0370489 0.0370489 0.0370489
0.0438392 0.0438392 0.0438392
0.0527047 0.0527047 0.0527047
0.0650034 0.0650034 0.0650034
0.0826581 0.0826581 0.0826581
0.108553 0.108553 0.108553
0.0390326 0.0390326 0.0390326
0.04654 0.04654 0.04654
0.0565652 0.0565652 0.0565652
0.0704356 0.0704356 0.0704356
0.0901503 0.0901503 0.0901503
0.118334 0.118334 0.118334
0.153277 0.153277 0.153277
0.194903 0.194903 0.194903
0.243931 0.243931 0.243931
0.0764324 0.0764324 0.0764324
0.0990463 0.0990463 0.0990463
0.129259 0.129259 0.129259
0.16614 0.16614 0.16614
0.210101 0.210101 0.210101
0.262394 0.262394 0.262394
0.322637 0.322637 0.322637
0.391196 0.391196 0.391196
0.464836 0.464836 0.464836
0.180117 0.180117 0.180117
0.226307 0.226307 0.226307
0.280903 0.280903 0.280903
0.344793 0.344793 0.344793
0.415747 0.415747 0.415747
0.489021 0.489021 0.489021
0.55903 0.55903 0.55903
0.620859 0.620859 0.620859
0.673884 0.673884 0.673884
0.367437 0.367437 0.367437
0.440375 0.440375 0.440375
0.513085 0.513085 0.513085
0.579904 0.579904 0.579904
0.639399 0.639399 0.639399
0.689967 0.689967 0.689967
0.732403 0.732403 0.732403
0.767727 0.767727 0.767727
0.79762 0.79762 0.79762
0.600839 0.600839 0.600839
0.65687 0.65687 0.65687
0.704753 0.704753 0.704753
0.745098 0.745098 0.745098
0.778561 0.778561 0.778561
0.806577 0.806577 0.806577
0.830701 0.830701 0.830701
0.852003 0.852003 0.852003
0.871458 0.871458 0.871458
0.756542 0.756542 0.756542
0.78851 0.78851 0.78851
0.815152 0.815152 0.815152
0.838209 0.838209 0.838209
0.85864 0.85864 0.85864
0.877546 0.877546 0.877546
0.895232 0.895232 0.895232
0.912016 0.912016 0.912016
0.928038 0.928038 0.928038
0.845411 0.845411 0.845411
0.865217 0.865217 0.865217
0.883589 0.883589 0.883589
0.900877 0.900877 0.900877
0.917327 0.917327 0.917327
0.933364 0.933364 0.933364
0.949187 0.949187 0.949187
0.965057 0.965057 0.965057
0.981048 0.981048 0.981048
0.0126497 0.0126497 0.0126497
0.0169223 0.0169223 0.0169223
0.020676 0.020676 0.020676
0.0242008 0.0242008 0.0242008
0.0279393 0.0279393 0.0279393
0.0322271 0.0322271 0.0322271
0.0376287 0.0376287 0.0376287
0.0445411 0.0445411 0.0445411
0.0537728 0.0537728 0.0537728
0.0254215 0.0254215 0.0254215
0.0293126 0.0293126 0.0293126
0.033875 0.033875 0.033875
0.0396582 0.0396582 0.0396582
0.0473182 0.0473182 0.0473182
0.0577554 0.0577554 0.0577554
0.0721599 0.0721599 0.0721599
0.092546 0.092546 0.092546
0.121324 0.121324 0.121324
0.0419776 0.0419776 0.0419776
0.0503243 0.0503243 0.0503243
0.0618601 0.0618601 0.0618601
0.078294 0.078294 0.078294
0.101595 0.101595 0.101595
0.132631 0.132631 0.132631
0.170108 0.170108 0.170108
0.214694 0.214694 0.214694
0.267262 0.267262 0.267262
0.0847486 0.0847486 0.0847486
0.111254 0.111254 0.111254
0.144701 0.144701 0.144701
0.184451 0.184451 0.184451
0.231403 0.231403 0.231403
0.286534 0.286534 0.286534
0.351354 0.351354 0.351354
0.422965 0.422965 0.422965
0.495644 0.495644 0.495644
0.19939 0.19939 0.19939
0.248844 0.248844 0.248844
0.30724 0.30724 0.30724
0.374334 0.374334 0.374334
0.447562 0.447562 0.447562
0.519402 0.519402 0.519402
0.586023 0.586023 0.586023
0.644617 0.644617 0.644617
0.694469 0.694469 0.694469
0.398352 0.398352 0.398352
0.471946 0.471946 0.471946
0.54284 0.54284 0.54284
0.606775 0.606775 0.606775
0.66186 0.66186 0.66186
0.708675 0.708675 0.708675
0.748302 0.748302 0.748302
0.781598 0.781598 0.781598
0.809155 0.809155 0.809155
0.626566 0.626566 0.626566
0.678798 0.678798 0.678798
0.722484 0.722484 0.722484
0.759808 0.759808 0.759808
0.791211 0.791211 0.791211
0.817533 0.817533 0.817533
0.840146 0.840146 0.840146
0.860594 0.860594 0.860594
0.879332 0.879332 0.879332
0.771084 0.771084 0.771084
0.80032 0.80032 0.80032
0.825284 0.825284 0.825284
0.847211 0.847211 0.847211
0.867063 0.867063 0.867063
0.885328 0.885328 0.885328
0.902373 0.902373 0.902373
0.918868 0.918868 0.918868
0.934905 0.934905 0.934905
0.853986 0.853986 0.853986
0.873304 0.873304 0.873304
0.891203 0.891203 0.891203
0.907973 0.907973 0.907973
0.924254 0.924254 0.924254
0.940185 0.940185 0.940185
0.956008 0.956008 0.956008
0.971801 0.971801 0.971801
0.988128 0.988128 0.988128
0.0146181 0.0146181 0.0146181
0.0185855 0.0185855 0.0185855
0.0221561 0.0221561 0.0221561
0.025803 0.025803 0.025803
0.0297551 0.0297551 0.0297551
0.0344091 0.0344091 0.0344091
0.0402991 0.0402991 0.0402991
0.0481727 0.0481727 0.0481727
0.0589303 0.0589303 0.0589303
0.027039 0.027039 0.027039
0.0312047 0.0312047 0.0312047
0.0362554 0.0362554 0.0362554
0.0427405 0.0427405 0.0427405
0.0513619 0.0513619 0.0513619
0.0632334 0.0632334 0.0632334
0.0800031 0.0800031 0.0800031
0.104402 0.104402 0.104402
0.136095 0.136095 0.136095
0.0454261 0.0454261 0.0454261
0.0550393 0.0550393 0.0550393
0.0682536 0.0682536 0.0682536
0.0868391 0.0868391 0.0868391
0.114214 0.114214 0.114214
0.148333 0.148333 0.148333
0.188724 0.188724 0.188724
0.236057 0.236057 0.236057
0.292393 0.292393 0.292393
0.095079 0.095079 0.095079
0.124666 0.124666 0.124666
0.160815 0.160815 0.160815
0.203464 0.203464 0.203464
0.254337 0.254337 0.254337
0.313619 0.313619 0.313619
0.381262 0.381262 0.381262
0.454032 0.454032 0.454032
0.526345 0.526345 0.526345
0.219059 0.219059 0.219059
0.272923 0.272923 0.272923
0.335683 0.335683 0.335683
0.405447 0.405447 0.405447
0.478309 0.478309 0.478309
0.549416 0.549416 0.549416
0.612634 0.612634 0.612634
0.666453 0.666453 0.666453
0.712596 0.712596 0.712596
0.429465 0.429465 0.429465
0.502403 0.502403 0.502403
0.571191 0.571191 0.571191
0.631922 0.631922 0.631922
0.682994 0.682994 0.682994
0.726467 0.726467 0.726467
0.763088 0.763088 0.763088
0.793896 0.793896 0.793896
0.819654 0.819654 0.819654
0.64976 0.64976 0.64976
0.698405 0.698405 0.698405
0.739712 0.739712 0.739712
0.774197 0.774197 0.774197
0.802731 0.802731 0.802731
0.827359 0.827359 0.827359
0.84921 0.84921 0.84921
0.86891 0.86891 0.86891
0.8869 0.8869 0.8869
0.784588 0.784588 0.784588
0.811475 0.811475 0.811475
0.834943 0.834943 0.834943
0.855909 0.855909 0.855909
0.875074 0.875074 0.875074
0.892714 0.892714 0.892714
0.90959 0.90959 0.90959
0.925826 0.925826 0.925826
0.941726 0.941726 0.941726
0.862562 0.862562 0.862562
0.881025 0.881025 0.881025
0.89839 0.89839 0.89839
0.915068 0.915068 0.915068
0.931167 0.931167 0.931167
0.946853 0.946853 0.946853
0.962692 0.962692 0.962692
0.978805 0.978805 0.978805
0.995407 0.995407 0.995407
0.0163729 0.0163729 0.0163729
0.0201572 0.0201572 0.0201572
0.0237125 0.0237125 0.0237125
0.0274357 0.0274357 0.0274357
0.031632 0.031632 0.031632
0.0368658 0.0368658 0.0368658
0.0435492 0.0435492 0.0435492
0.05243 0.05243 0.05243
0.0644999 0.0644999 0.0644999
0.0287785 0.0287785 0.0287785
0.0331884 0.0331884 0.0331884
0.0388495 0.0388495 0.0388495
0.0463111 0.0463111 0.0463111
0.0562905 0.0562905 0.0562905
0.06981 0.06981 0.06981
0.0891432 0.0891432 0.0891432
0.11722 0.11722 0.11722
0.151736 0.151736 0.151736
0.0491646 0.0491646 0.0491646
0.0602274 0.0602274 0.0602274
0.0758221 0.0758221 0.0758221
0.0978408 0.0978408 0.0978408
0.128023 0.128023 0.128023
0.164355 0.164355 0.164355
0.208026 0.208026 0.208026
0.2598 0.2598 0.2598
0.320027 0.320027 0.320027
0.107408 0.107408 0.107408
0.139818 0.139818 0.139818
0.17818 0.17818 0.17818
0.224033 0.224033 0.224033
0.278614 0.278614 0.278614
0.341924 0.341924 0.341924
0.412039 0.412039 0.412039
0.485328 0.485328 0.485328
0.555917 0.555917 0.555917
0.241474 0.241474 0.241474
0.298604 0.298604 0.298604
0.364126 0.364126 0.364126
0.436667 0.436667 0.436667
0.509361 0.509361 0.509361
0.577279 0.577279 0.577279
0.636698 0.636698 0.636698
0.687617 0.687617 0.687617
0.730419 0.730419 0.730419
0.461143 0.461143 0.461143
0.533165 0.533165 0.533165
0.597925 0.597925 0.597925
0.6542 0.6542 0.6542
0.702571 0.702571 0.702571
0.743297 0.743297 0.743297
0.776974 0.776974 0.776974
0.805234 0.805234 0.805234
0.829587 0.829587 0.829587
0.671351 0.671351 0.671351
0.716686 0.716686 0.716686
0.755108 0.755108 0.755108
0.78706 0.78706 0.78706
0.813901 0.813901 0.813901
0.837095 0.837095 0.837095
0.857847 0.857847 0.857847
0.876661 0.876661 0.876661
0.894392 0.894392 0.894392
0.796353 0.796353 0.796353
0.821973 0.821973 0.821973
0.844343 0.844343 0.844343
0.864271 0.864271 0.864271
0.882689 0.882689 0.882689
0.900038 0.900038 0.900038
0.91664 0.91664 0.91664
0.932647 0.932647 0.932647
0.948394 0.948394 0.948394
0.870619 0.870619 0.870619
0.88864 0.88864 0.88864
0.905669 0.905669 0.905669
0.922026 0.922026 0.922026
0.937865 0.937865 0.937865
0.953674 0.953674 0.953674
0.969573 0.969573 0.969573
0.985794 0.985794 0.985794
0.999573 0.999573 0.999573
0.0180362 0.0180362 0.0180362
0.0217136 0.0217136 0.0217136
0.02533 0.02533 0.02533
0.0291905 0.0291905 0.0291905
0.0337377 0.0337377 0.0337377
0.0395361 0.0395361 0.0395361
0.0471809 0.0471809 0.0471809
0.0574502 0.0574502 0.0574502
0.0715648 0.0715648 0.0715648
0.0306249 0.0306249 0.0306249
0.0355535 0.0355535 0.0355535
0.0418402 0.0418402 0.0418402
0.0501106 0.0501106 0.0501106
0.0615854 0.0615854 0.0615854
0.0777295 0.0777295 0.0777295
0.100664 0.100664 0.100664
0.131121 0.131121 0.131121
0.168322 0.168322 0.168322
0.0535897 0.0535897 0.0535897
0.0661936 0.0661936 0.0661936
0.0841688 0.0841688 0.0841688
0.110338 0.110338 0.110338
0.143175 0.143175 0.143175
0.182528 0.182528 0.182528
0.229084 0.229084 0.229084
0.283925 0.283925 0.283925
0.348119 0.348119 0.348119
0.12015 0.12015 0.12015
0.155489 0.155489 0.155489
0.197498 0.197498 0.197498
0.246952 0.246952 0.246952
0.304341 0.304341 0.304341
0.370916 0.370916 0.370916
0.443793 0.443793 0.443793
0.516274 0.516274 0.516274
0.582757 0.582757 0.582757
0.265415 0.265415 0.265415
0.325994 0.325994 0.325994
0.394705 0.394705 0.394705
0.468177 0.468177 0.468177
0.539376 0.539376 0.539376
0.603449 0.603449 0.603449
0.659129 0.659129 0.659129
0.706691 0.706691 0.706691
0.746715 0.746715 0.746715
0.492317 0.492317 0.492317
0.561746 0.561746 0.561746
0.623423 0.623423 0.623423
0.676081 0.676081 0.676081
0.720638 0.720638 0.720638
0.758022 0.758022 0.758022
0.789792 0.789792 0.789792
0.816297 0.816297 0.816297
0.839216 0.839216 0.839216
0.692134 0.692134 0.692134
0.734096 0.734096 0.734096
0.769268 0.769268 0.769268
0.798901 0.798901 0.798901
0.824201 0.824201 0.824201
0.846326 0.846326 0.846326
0.866102 0.866102 0.866102
0.884428 0.884428 0.884428
0.901686 0.901686 0.901686
0.807858 0.807858 0.807858
0.831815 0.831815 0.831815
0.852949 0.852949 0.852949
0.872374 0.872374 0.872374
0.890333 0.890333 0.890333
0.907301 0.907301 0.907301
0.923445 0.923445 0.923445
0.939406 0.939406 0.939406
0.95523 0.95523 0.95523
0.878462 0.878462 0.878462
0.896071 0.896071 0.896071
0.91281 0.91281 0.91281
0.928817 0.928817 0.928817
0.944671 0.944671 0.944671
0.96051 0.96051 0.96051
0.976455 0.976455 0.976455
0.992889 0.992889 0.992889
1 1 1
