public/textures/LUTs/TROPIC COLOUR - BEST OF LOOKS (telegram - @creativecashe)-1/TROPIC COLOUR - BEST OF LOOKS/TC - B&W LOOKS/TC - CHARCOAL.cube
TITLE "Generated by Resolve"
LUT_3D_SIZE 9
0.0779278 0.0779278 0.0779278
0.0817273 0.0817273 0.0817273
0.0850538 0.0850538 0.0850538
0.0879225 0.0879225 0.0879225
0.0905623 0.0905623 0.0905623
0.0931411 0.0931411 0.0931411
0.0958877 0.0958877 0.0958877
0.0991073 0.0991073 0.0991073
0.103166 0.103166 0.103166
0.0888075 0.0888075 0.0888075
0.0914015 0.0914015 0.0914015
0.0940261 0.0940261 0.0940261
0.0968643 0.0968643 0.0968643
0.100206 0.100206 0.100206
0.104463 0.104463 0.104463
0.11014 0.11014 0.11014
0.117968 0.117968 0.117968
0.129427 0.129427 0.129427
0.0979324 0.0979324 0.0979324
0.101518 0.101518 0.101518
0.106081 0.106081 0.106081
0.112123 0.112123 0.112123
0.120638 0.120638 0.120638
0.133303 0.133303 0.133303
0.151553 0.151553 0.151553
0.176425 0.176425 0.176425
0.208026 0.208026 0.208026
0.114687 0.114687 0.114687
0.124102 0.124102 0.124102
0.138231 0.138231 0.138231
0.158511 0.158511 0.158511
0.18468 0.18468 0.18468
0.218021 0.218021 0.218021
0.260044 0.260044 0.260044
0.31075 0.31075 0.31075
0.367819 0.367819 0.367819
0.166812 0.166812 0.166812
0.195209 0.195209 0.195209
0.231174 0.231174 0.231174
0.276234 0.276234 0.276234
0.329152 0.329152 0.329152
0.387823 0.387823 0.387823
0.450004 0.450004 0.450004
0.511254 0.511254 0.511254
0.568154 0.568154 0.568154
0.294179 0.294179 0.294179
0.348119 0.348119 0.348119
0.40827 0.40827 0.40827
0.47068 0.47068 0.47068
0.531136 0.531136 0.531136
0.58613 0.58613 0.58613
0.635615 0.635615 0.635615
0.679026 0.679026 0.679026
0.716548 0.716548 0.716548
0.491066 0.491066 0.491066
0.550301 0.550301 0.550301
0.603677 0.603677 0.603677
0.65095 0.65095 0.65095
0.691966 0.691966 0.691966
0.727352 0.727352 0.727352
0.758312 0.758312 0.758312
0.785504 0.785504 0.785504
0.809949 0.809949 0.809949
0.665599 0.665599 0.665599
0.704707 0.704707 0.704707
0.738094 0.738094 0.738094
0.76759 0.76759 0.76759
0.793866 0.793866 0.793866
0.8177 0.8177 0.8177
0.839475 0.839475 0.839475
0.860136 0.860136 0.860136
0.879164 0.879164 0.879164
0.776761 0.776761 0.776761
0.801999 0.801999 0.801999
0.82501 0.82501 0.82501
0.84651 0.84651 0.84651
0.866545 0.866545 0.866545
0.884779 0.884779 0.884779
0.901015 0.901015 0.901015
0.915602 0.915602 0.915602
0.928557 0.928557 0.928557
0.0795148 0.0795148 0.0795148
0.083238 0.083238 0.083238
0.0863508 0.0863508 0.0863508
0.0890822 0.0890822 0.0890822
0.0916609 0.0916609 0.0916609
0.0942855 0.0942855 0.0942855
0.0972152 0.0972152 0.0972152
0.100664 0.100664 0.100664
0.10515 0.10515 0.10515
0.0899519 0.0899519 0.0899519
0.0925002 0.0925002 0.0925002
0.0951705 0.0951705 0.0951705
0.0982528 0.0982528 0.0982528
0.101946 0.101946 0.101946
0.106645 0.106645 0.106645
0.112963 0.112963 0.112963
0.122072 0.122072 0.122072
0.135866 0.135866 0.135866
0.0993515 0.0993515 0.0993515
0.103365 0.103365 0.103365
0.108492 0.108492 0.108492
0.115434 0.115434 0.115434
0.125231 0.125231 0.125231
0.139986 0.139986 0.139986
0.161089 0.161089 0.161089
0.188846 0.188846 0.188846
0.223545 0.223545 0.223545
0.118441 0.118441 0.118441
0.129656 0.129656 0.129656
0.145922 0.145922 0.145922
0.168582 0.168582 0.168582
0.197757 0.197757 0.197757
0.234943 0.234943 0.234943
0.280629 0.280629 0.280629
0.334188 0.334188 0.334188
0.393668 0.393668 0.393668
0.178195 0.178195 0.178195
0.209339 0.209339 0.209339
0.248966 0.248966 0.248966
0.297719 0.297719 0.297719
0.35378 0.35378 0.35378
0.414298 0.414298 0.414298
0.476646 0.476646 0.476646
0.5364 0.5364 0.5364
0.59144 0.59144 0.59144
0.315847 0.315847 0.315847
0.373571 0.373571 0.373571
0.435203 0.435203 0.435203
0.496681 0.496681 0.496681
0.555322 0.555322 0.555322
0.608652 0.608652 0.608652
0.65539 0.65539 0.65539
0.695476 0.695476 0.695476
0.730571 0.730571 0.730571
0.516625 0.516625 0.516625
0.573526 0.573526 0.573526
0.624796 0.624796 0.624796
0.669703 0.669703 0.669703
0.708003 0.708003 0.708003
0.741268 0.741268 0.741268
0.770352 0.770352 0.770352
0.796323 0.796323 0.796323
0.819745 0.819745 0.819745
0.682918 0.682918 0.682918
0.719692 0.719692 0.719692
0.751598 0.751598 0.751598
0.779431 0.779431 0.779431
0.804166 0.804166 0.804166
0.827131 0.827131 0.827131
0.848554 0.848554 0.848554
0.868727 0.868727 0.868727
0.886671 0.886671 0.886671
0.788144 0.788144 0.788144
0.812146 0.812146 0.812146
0.834455 0.834455 0.834455
0.85536 0.85536 0.85536
0.874617 0.874617 0.874617
0.892012 0.892012 0.892012
0.907683 0.907683 0.907683
0.921614 0.921614 0.921614
0.933852 0.933852 0.933852
0.0811627 0.0811627 0.0811627
0.084596 0.084596 0.084596
0.0875563 0.0875563 0.0875563
0.0902113 0.0902113 0.0902113
0.0927443 0.0927443 0.0927443
0.0954757 0.0954757 0.0954757
0.0986191 0.0986191 0.0986191
0.102449 0.102449 0.102449
0.107439 0.107439 0.107439
0.0910353 0.0910353 0.0910353
0.0936294 0.0936294 0.0936294
0.0964218 0.0964218 0.0964218
0.0996872 0.0996872 0.0996872
0.103761 0.103761 0.103761
0.109148 0.109148 0.109148
0.116487 0.116487 0.116487
0.127031 0.127031 0.127031
0.142809 0.142809 0.142809
0.100954 0.100954 0.100954
0.105303 0.105303 0.105303
0.111162 0.111162 0.111162
0.11928 0.11928 0.11928
0.130999 0.130999 0.130999
0.147921 0.147921 0.147921
0.171756 0.171756 0.171756
0.20235 0.20235 0.20235
0.240055 0.240055 0.240055
0.12256 0.12256 0.12256
0.135866 0.135866 0.135866
0.154986 0.154986 0.154986
0.180316 0.180316 0.180316
0.212314 0.212314 0.212314
0.252674 0.252674 0.252674
0.302693 0.302693 0.302693
0.359503 0.359503 0.359503
0.420386 0.420386 0.420386
0.190936 0.190936 0.190936
0.225452 0.225452 0.225452
0.268513 0.268513 0.268513
0.32076 0.32076 0.32076
0.379385 0.379385 0.379385
0.440803 0.440803 0.440803
0.502327 0.502327 0.502327
0.560739 0.560739 0.560739
0.613596 0.613596 0.613596
0.339971 0.339971 0.339971
0.399634 0.399634 0.399634
0.46154 0.46154 0.46154
0.522484 0.522484 0.522484
0.57882 0.57882 0.57882
0.629404 0.629404 0.629404
0.673365 0.673365 0.673365
0.711589 0.711589 0.711589
0.744442 0.744442 0.744442
0.542138 0.542138 0.542138
0.596689 0.596689 0.596689
0.644541 0.644541 0.644541
0.686488 0.686488 0.686488
0.722988 0.722988 0.722988
0.754528 0.754528 0.754528
0.781796 0.781796 0.781796
0.806561 0.806561 0.806561
0.829313 0.829313 0.829313
0.699382 0.699382 0.699382
0.733852 0.733852 0.733852
0.763989 0.763989 0.763989
0.790372 0.790372 0.790372
0.814435 0.814435 0.814435
0.836591 0.836591 0.836591
0.857374 0.857374 0.857374
0.876692 0.876692 0.876692
0.894011 0.894011 0.894011
0.798581 0.798581 0.798581
0.822003 0.822003 0.822003
0.843717 0.843717 0.843717
0.863767 0.863767 0.863767
0.882231 0.882231 0.882231
0.899092 0.899092 0.899092
0.914076 0.914076 0.914076
0.927199 0.927199 0.927199
0.938827 0.938827 0.938827
0.0827649 0.0827649 0.0827649
0.0859388 0.0859388 0.0859388
0.0886854 0.0886854 0.0886854
0.0912795 0.0912795 0.0912795
0.093904 0.093904 0.093904
0.0967575 0.0967575 0.0967575
0.100069 0.100069 0.100069
0.104341 0.104341 0.104341
0.110124 0.110124 0.110124
0.0921187 0.0921187 0.0921187
0.0948043 0.0948043 0.0948043
0.0977951 0.0977951 0.0977951
0.10132 0.10132 0.10132
0.105837 0.105837 0.105837
0.111894 0.111894 0.111894
0.120424 0.120424 0.120424
0.133104 0.133104 0.133104
0.151522 0.151522 0.151522
0.102724 0.102724 0.102724
0.107668 0.107668 0.107668
0.114275 0.114275 0.114275
0.123476 0.123476 0.123476
0.137407 0.137407 0.137407
0.157504 0.157504 0.157504
0.183978 0.183978 0.183978
0.217121 0.217121 0.217121
0.258183 0.258183 0.258183
0.127611 0.127611 0.127611
0.143069 0.143069 0.143069
0.165072 0.165072 0.165072
0.193088 0.193088 0.193088
0.228504 0.228504 0.228504
0.273121 0.273121 0.273121
0.326192 0.326192 0.326192
0.384649 0.384649 0.384649
0.44683 0.44683 0.44683
0.204349 0.204349 0.204349
0.242664 0.242664 0.242664
0.29041 0.29041 0.29041
0.345541 0.345541 0.345541
0.405066 0.405066 0.405066
0.467582 0.467582 0.467582
0.528328 0.528328 0.528328
0.584146 0.584146 0.584146
0.63357 0.63357 0.63357
0.365103 0.365103 0.365103
0.425879 0.425879 0.425879
0.488045 0.488045 0.488045
0.547692 0.547692 0.547692
0.601267 0.601267 0.601267
0.64889 0.64889 0.64889
0.690303 0.690303 0.690303
0.726253 0.726253 0.726253
0.757229 0.757229 0.757229
0.566171 0.566171 0.566171
0.61796 0.61796 0.61796
0.663676 0.663676 0.663676
0.703044 0.703044 0.703044
0.736996 0.736996 0.736996
0.76643 0.76643 0.76643
0.792813 0.792813 0.792813
0.816693 0.816693 0.816693
0.838621 0.838621 0.838621
0.71516 0.71516 0.71516
0.747311 0.747311 0.747311
0.775555 0.775555 0.775555
0.800931 0.800931 0.800931
0.82417 0.82417 0.82417
0.84567 0.84567 0.84567
0.865919 0.865919 0.865919
0.88452 0.88452 0.88452
0.901015 0.901015 0.901015
0.808972 0.808972 0.808972
0.83151 0.83151 0.83151
0.85243 0.85243 0.85243
0.871962 0.871962 0.871962
0.889769 0.889769 0.889769
0.905837 0.905837 0.905837
0.919966 0.919966 0.919966
0.93254 0.93254 0.93254
0.943572 0.943572 0.943572
0.0841688 0.0841688 0.0841688
0.0871443 0.0871443 0.0871443
0.0898146 0.0898146 0.0898146
0.0923934 0.0923934 0.0923934
0.0950942 0.0950942 0.0950942
0.0981155 0.0981155 0.0981155
0.101793 0.101793 0.101793
0.106538 0.106538 0.106538
0.113008 0.113008 0.113008
0.0932631 0.0932631 0.0932631
0.0959945 0.0959945 0.0959945
0.0991989 0.0991989 0.0991989
0.103182 0.103182 0.103182
0.108293 0.108293 0.108293
0.115129 0.115129 0.115129
0.124971 0.124971 0.124971
0.13994 0.13994 0.13994
0.161578 0.161578 0.161578
0.104662 0.104662 0.104662
0.110307 0.110307 0.110307
0.117952 0.117952 0.117952
0.128908 0.128908 0.128908
0.144991 0.144991 0.144991
0.167666 0.167666 0.167666
0.196933 0.196933 0.196933
0.233982 0.233982 0.233982
0.278691 0.278691 0.278691
0.133883 0.133883 0.133883
0.15198 0.15198 0.15198
0.176196 0.176196 0.176196
0.207004 0.207004 0.207004
0.246357 0.246357 0.246357
0.295445 0.295445 0.295445
0.350729 0.350729 0.350729
0.411124 0.411124 0.411124
0.473625 0.473625 0.473625
0.22002 0.22002 0.22002
0.262028 0.262028 0.262028
0.312795 0.312795 0.312795
0.370535 0.370535 0.370535
0.432013 0.432013 0.432013
0.49398 0.49398 0.49398
0.553033 0.553033 0.553033
0.606317 0.606317 0.606317
0.653346 0.653346 0.653346
0.39057 0.39057 0.39057
0.452934 0.452934 0.452934
0.514183 0.514183 0.514183
0.570932 0.570932 0.570932
0.622614 0.622614 0.622614
0.667796 0.667796 0.667796
0.706645 0.706645 0.706645
0.739849 0.739849 0.739849
0.769146 0.769146 0.769146
0.588937 0.588937 0.588937
0.638148 0.638148 0.638148
0.68127 0.68127 0.68127
0.718441 0.718441 0.718441
0.750225 0.750225 0.750225
0.77821 0.77821 0.77821
0.803311 0.803311 0.803311
0.826154 0.826154 0.826154
0.847608 0.847608 0.847608
0.729213 0.729213 0.729213
0.759976 0.759976 0.759976
0.786969 0.786969 0.786969
0.811276 0.811276 0.811276
0.833432 0.833432 0.833432
0.854429 0.854429 0.854429
0.874235 0.874235 0.874235
0.892012 0.892012 0.892012
0.907561 0.907561 0.907561
0.818982 0.818982 0.818982
0.84065 0.84065 0.84065
0.861082 0.861082 0.861082
0.879805 0.879805 0.879805
0.896864 0.896864 0.896864
0.912154 0.912154 0.912154
0.925673 0.925673 0.925673
0.937591 0.937591 0.937591
0.947921 0.947921 0.947921
0.085481 0.085481 0.085481
0.0883192 0.0883192 0.0883192
0.0909438 0.0909438 0.0909438
0.0935225 0.0935225 0.0935225
0.0963149 0.0963149 0.0963149
0.0995956 0.0995956 0.0995956
0.103716 0.103716 0.103716
0.109087 0.109087 0.109087
0.116609 0.116609 0.116609
0.0944076 0.0944076 0.0944076
0.0973373 0.0973373 0.0973373
0.100786 0.100786 0.100786
0.10515 0.10515 0.10515
0.110964 0.110964 0.110964
0.119081 0.119081 0.119081
0.130846 0.130846 0.130846
0.148058 0.148058 0.148058
0.172229 0.172229 0.172229
0.106905 0.106905 0.106905
0.113222 0.113222 0.113222
0.122118 0.122118 0.122118
0.135378 0.135378 0.135378
0.154101 0.154101 0.154101
0.1794 0.1794 0.1794
0.211566 0.211566 0.211566
0.251972 0.251972 0.251972
0.300175 0.300175 0.300175
0.140764 0.140764 0.140764
0.161791 0.161791 0.161791
0.188937 0.188937 0.188937
0.223117 0.223117 0.223117
0.266255 0.266255 0.266255
0.317983 0.317983 0.317983
0.376379 0.376379 0.376379
0.438163 0.438163 0.438163
0.49955 0.49955 0.49955
0.237461 0.237461 0.237461
0.283085 0.283085 0.283085
0.336873 0.336873 0.336873
0.396551 0.396551 0.396551
0.459007 0.459007 0.459007
0.519478 0.519478 0.519478
0.576211 0.576211 0.576211
0.627222 0.627222 0.627222
0.67187 0.67187 0.67187
0.417227 0.417227 0.417227
0.479622 0.479622 0.479622
0.539254 0.539254 0.539254
0.594079 0.594079 0.594079
0.642603 0.642603 0.642603
0.684855 0.684855 0.684855
0.721462 0.721462 0.721462
0.75317 0.75317 0.75317
0.780819 0.780819 0.780819
0.611276 0.611276 0.611276
0.657725 0.657725 0.657725
0.697505 0.697505 0.697505
0.732326 0.732326 0.732326
0.762692 0.762692 0.762692
0.789441 0.789441 0.789441
0.813321 0.813321 0.813321
0.835569 0.835569 0.835569
0.856428 0.856428 0.856428
0.743023 0.743023 0.743023
0.771862 0.771862 0.771862
0.797574 0.797574 0.797574
0.820935 0.820935 0.820935
0.84271 0.84271 0.84271
0.863172 0.863172 0.863172
0.882017 0.882017 0.882017
0.898955 0.898955 0.898955
0.913848 0.913848 0.913848
0.828321 0.828321 0.828321
0.849653 0.849653 0.849653
0.869398 0.869398 0.869398
0.887251 0.887251 0.887251
0.903655 0.903655 0.903655
0.918212 0.918212 0.918212
0.93106 0.93106 0.93106
0.942245 0.942245 0.942245
0.952071 0.952071 0.952071
0.0867781 0.0867781 0.0867781
0.0894636 0.0894636 0.0894636
0.0920119 0.0920119 0.0920119
0.0947127 0.0947127 0.0947127
0.0977035 0.0977035 0.0977035
0.101244 0.101244 0.101244
0.10576 0.10576 0.10576
0.111955 0.111955 0.111955
0.120821 0.120821 0.120821
0.0956436 0.0956436 0.0956436
0.0987869 0.0987869 0.0987869
0.102586 0.102586 0.102586
0.1075 0.1075 0.1075
0.114092 0.114092 0.114092
0.123461 0.123461 0.123461
0.137453 0.137453 0.137453
0.157702 0.157702 0.157702
0.184665 0.184665 0.184665
0.109514 0.109514 0.109514
0.116884 0.116884 0.116884
0.12726 0.12726 0.12726
0.142443 0.142443 0.142443
0.16434 0.16434 0.16434
0.192599 0.192599 0.192599
0.228229 0.228229 0.228229
0.271473 0.271473 0.271473
0.3234 0.3234 0.3234
0.149142 0.149142 0.149142
0.172808 0.172808 0.172808
0.202762 0.202762 0.202762
0.240421 0.240421 0.240421
0.2878 0.2878 0.2878
0.342611 0.342611 0.342611
0.402564 0.402564 0.402564
0.464485 0.464485 0.464485
0.525338 0.525338 0.525338
0.255818 0.255818 0.255818
0.305486 0.305486 0.305486
0.362371 0.362371 0.362371
0.423255 0.423255 0.423255
0.484993 0.484993 0.484993
0.544839 0.544839 0.544839
0.599176 0.599176 0.599176
0.646708 0.646708 0.646708
0.688441 0.688441 0.688441
0.443671 0.443671 0.443671
0.505226 0.505226 0.505226
0.563439 0.563439 0.563439
0.616007 0.616007 0.616007
0.661524 0.661524 0.661524
0.701183 0.701183 0.701183
0.735439 0.735439 0.735439
0.765377 0.765377 0.765377
0.791653 0.791653 0.791653
0.631785 0.631785 0.631785
0.675471 0.675471 0.675471
0.713405 0.713405 0.713405
0.746014 0.746014 0.746014
0.774304 0.774304 0.774304
0.799771 0.799771 0.799771
0.823102 0.823102 0.823102
0.844755 0.844755 0.844755
0.864881 0.864881 0.864881
0.756085 0.756085 0.756085
0.783185 0.783185 0.783185
0.807782 0.807782 0.807782
0.830427 0.830427 0.830427
0.851637 0.851637 0.851637
0.871443 0.871443 0.871443
0.889647 0.889647 0.889647
0.905653 0.905653 0.905653
0.919799 0.919799 0.919799
0.83772 0.83772 0.83772
0.858259 0.858259 0.858259
0.87715 0.87715 0.87715
0.894469 0.894469 0.894469
0.910124 0.910124 0.910124
0.923812 0.923812 0.923812
0.936019 0.936019 0.936019
0.946715 0.946715 0.946715
0.955962 0.955962 0.955962
0.0879377 0.0879377 0.0879377
0.0905776 0.0905776 0.0905776
0.0931716 0.0931716 0.0931716
0.0959487 0.0959487 0.0959487
0.0991379 0.0991379 0.0991379
0.10312 0.10312 0.10312
0.108278 0.108278 0.108278
0.115358 0.115358 0.115358
0.125505 0.125505 0.125505
0.0969558 0.0969558 0.0969558
0.100298 0.100298 0.100298
0.10457 0.10457 0.10457
0.110246 0.110246 0.110246
0.117983 0.117983 0.117983
0.128878 0.128878 0.128878
0.145129 0.145129 0.145129
0.168429 0.168429 0.168429
0.19823 0.19823 0.19823
0.112444 0.112444 0.112444
0.121004 0.121004 0.121004
0.133516 0.133516 0.133516
0.151354 0.151354 0.151354
0.175799 0.175799 0.175799
0.206577 0.206577 0.206577
0.245808 0.245808 0.245808
0.293202 0.293202 0.293202
0.348348 0.348348 0.348348
0.159121 0.159121 0.159121
0.185458 0.185458 0.185458
0.218082 0.218082 0.218082
0.259449 0.259449 0.259449
0.310597 0.310597 0.310597
0.36791 0.36791 0.36791
0.428855 0.428855 0.428855
0.490898 0.490898 0.490898
0.550378 0.550378 0.550378
0.276707 0.276707 0.276707
0.32903 0.32903 0.32903
0.38761 0.38761 0.38761
0.449775 0.449775 0.449775
0.511086 0.511086 0.511086
0.568689 0.568689 0.568689
0.620203 0.620203 0.620203
0.66569 0.66569 0.66569
0.704814 0.704814 0.704814
0.470512 0.470512 0.470512
0.531106 0.531106 0.531106
0.586465 0.586465 0.586465
0.635767 0.635767 0.635767
0.679271 0.679271 0.679271
0.716762 0.716762 0.716762
0.748699 0.748699 0.748699
0.776852 0.776852 0.776852
0.802106 0.802106 0.802106
0.651072 0.651072 0.651072
0.69218 0.69218 0.69218
0.727886 0.727886 0.727886
0.758556 0.758556 0.758556
0.785672 0.785672 0.785672
0.810071 0.810071 0.810071
0.832547 0.832547 0.832547
0.853422 0.853422 0.853422
0.873259 0.873259 0.873259
0.767834 0.767834 0.767834
0.794079 0.794079 0.794079
0.817838 0.817838 0.817838
0.839597 0.839597 0.839597
0.860197 0.860197 0.860197
0.879469 0.879469 0.879469
0.896773 0.896773 0.896773
0.91194 0.91194 0.91194
0.925307 0.925307 0.925307
0.846632 0.846632 0.846632
0.866606 0.866606 0.866606
0.884733 0.884733 0.884733
0.90132 0.90132 0.90132
0.916075 0.916075 0.916075
0.929229 0.929229 0.929229
0.94081 0.94081 0.94081
0.950866 0.950866 0.950866
0.959457 0.959457 0.959457
0.0890974 0.0890974 0.0890974
0.0917067 0.0917067 0.0917067
0.094377 0.094377 0.094377
0.0972763 0.0972763 0.0972763
0.100755 0.100755 0.100755
0.105196 0.105196 0.105196
0.111162 0.111162 0.111162
0.119463 0.119463 0.119463
0.131548 0.131548 0.131548
0.0983749 0.0983749 0.0983749
0.102098 0.102098 0.102098
0.106905 0.106905 0.106905
0.113252 0.113252 0.113252
0.122271 0.122271 0.122271
0.135607 0.135607 0.135607
0.15465 0.15465 0.15465
0.180255 0.180255 0.180255
0.212863 0.212863 0.212863
0.115953 0.115953 0.115953
0.125887 0.125887 0.125887
0.140612 0.140612 0.140612
0.161593 0.161593 0.161593
0.188632 0.188632 0.188632
0.22269 0.22269 0.22269
0.265034 0.265034 0.265034
0.315496 0.315496 0.315496
0.373434 0.373434 0.373434
0.169802 0.169802 0.169802
0.198978 0.198978 0.198978
0.235431 0.235431 0.235431
0.280766 0.280766 0.280766
0.334188 0.334188 0.334188
0.39353 0.39353 0.39353
0.455817 0.455817 0.455817
0.516899 0.516899 0.516899
0.573404 0.573404 0.573404
0.298833 0.298833 0.298833
0.353643 0.353643 0.353643
0.414084 0.414084 0.414084
0.476448 0.476448 0.476448
0.536355 0.536355 0.536355
0.591241 0.591241 0.591241
0.640177 0.640177 0.640177
0.68304 0.68304 0.68304
0.719982 0.719982 0.719982
0.496773 0.496773 0.496773
0.555367 0.555367 0.555367
0.60856 0.60856 0.60856
0.655329 0.655329 0.655329
0.695842 0.695842 0.695842
0.730648 0.730648 0.730648
0.761273 0.761273 0.761273
0.788159 0.788159 0.788159
0.812345 0.812345 0.812345
0.669779 0.669779 0.669779
0.708202 0.708202 0.708202
0.741329 0.741329 0.741329
0.770443 0.770443 0.770443
0.796414 0.796414 0.796414
0.819989 0.819989 0.819989
0.841642 0.841642 0.841642
0.86215 0.86215 0.86215
0.881224 0.881224 0.881224
0.779492 0.779492 0.779492
0.804456 0.804456 0.804456
0.827207 0.827207 0.827207
0.848615 0.848615 0.848615
0.868742 0.868742 0.868742
0.887144 0.887144 0.887144
0.90338 0.90338 0.90338
0.917861 0.917861 0.917861
0.930632 0.930632 0.930632
0.855406 0.855406 0.855406
0.87454 0.87454 0.87454
0.891951 0.891951 0.891951
0.907683 0.907683 0.907683
0.921843 0.921843 0.921843
0.934325 0.934325 0.934325
0.945235 0.945235 0.945235
0.954711 0.954711 0.954711
0.962554 0.962554 0.962554
