public/textures/LUTs/TROPIC COLOUR - BEST OF LOOKS (telegram - @creativecashe)-1/TROPIC COLOUR - BEST OF LOOKS/TC - B&W LOOKS/TC - MATTE BLACK.cube
TITLE "Generated by Resolve"
LUT_3D_SIZE 5
0 0 0
0.0119936 0.0119936 0.0119936
0.0201572 0.0201572 0.0201572
0.0273442 0.0273442 0.0273442
0.0367285 0.0367285 0.0367285
0.0301061 0.0301061 0.0301061
0.04094 0.04094 0.04094
0.0599527 0.0599527 0.0599527
0.0978103 0.0978103 0.0978103
0.164248 0.164248 0.164248
0.11696 0.11696 0.11696
0.19295 0.19295 0.19295
0.298665 0.298665 0.298665
0.437003 0.437003 0.437003
0.576638 0.576638 0.576638
0.485603 0.485603 0.485603
0.617807 0.617807 0.617807
0.716381 0.716381 0.716381
0.786725 0.786725 0.786725
0.836912 0.836912 0.836912
0.805097 0.805097 0.805097
0.850889 0.850889 0.850889
0.888533 0.888533 0.888533
0.921843 0.921843 0.921843
0.953689 0.953689 0.953689
0.00561532 0.00561532 0.00561532
0.0158236 0.0158236 0.0158236
0.0231632 0.0231632 0.0231632
0.03093 0.03093 0.03093
0.042237 0.042237 0.042237
0.0341039 0.0341039 0.0341039
0.0476692 0.0476692 0.0476692
0.0729686 0.0729686 0.0729686
0.122942 0.122942 0.122942
0.201099 0.201099 0.201099
0.146456 0.146456 0.146456
0.233539 0.233539 0.233539
0.354757 0.354757 0.354757
0.498955 0.498955 0.498955
0.62916 0.62916 0.62916
0.546242 0.546242 0.546242
0.664012 0.664012 0.664012
0.749905 0.749905 0.749905
0.810086 0.810086 0.810086
0.854856 0.854856 0.854856
0.82623 0.82623 0.82623
0.867964 0.867964 0.867964
0.903166 0.903166 0.903166
0.935683 0.935683 0.935683
0.967254 0.967254 0.967254
0.0105745 0.0105745 0.0105745
0.0191196 0.0191196 0.0191196
0.0263066 0.0263066 0.0263066
0.0351263 0.0351263 0.0351263
0.0493019 0.0493019 0.0493019
0.0390326 0.0390326 0.0390326
0.0565652 0.0565652 0.0565652
0.0901503 0.0901503 0.0901503
0.153277 0.153277 0.153277
0.243931 0.243931 0.243931
0.180117 0.180117 0.180117
0.280903 0.280903 0.280903
0.415747 0.415747 0.415747
0.55903 0.55903 0.55903
0.673884 0.673884 0.673884
0.600839 0.600839 0.600839
0.704753 0.704753 0.704753
0.778561 0.778561 0.778561
0.830701 0.830701 0.830701
0.871458 0.871458 0.871458
0.845411 0.845411 0.845411
0.883589 0.883589 0.883589
0.917327 0.917327 0.917327
0.949187 0.949187 0.949187
0.981048 0.981048 0.981048
0.0146181 0.0146181 0.0146181
0.0221561 0.0221561 0.0221561
0.0297551 0.0297551 0.0297551
0.0402991 0.0402991 0.0402991
0.0589303 0.0589303 0.0589303
0.0454261 0.0454261 0.0454261
0.0682536 0.0682536 0.0682536
0.114214 0.114214 0.114214
0.188724 0.188724 0.188724
0.292393 0.292393 0.292393
0.219059 0.219059 0.219059
0.335683 0.335683 0.335683
0.478309 0.478309 0.478309
0.612634 0.612634 0.612634
0.712596 0.712596 0.712596
0.64976 0.64976 0.64976
0.739712 0.739712 0.739712
0.802731 0.802731 0.802731
0.84921 0.84921 0.84921
0.8869 0.8869 0.8869
0.862562 0.862562 0.862562
0.89839 0.89839 0.89839
0.931167 0.931167 0.931167
0.962692 0.962692 0.962692
0.995407 0.995407 0.995407
0.0180362 0.0180362 0.0180362
0.02533 0.02533 0.02533
0.0337377 0.0337377 0.0337377
0.0471809 0.0471809 0.0471809
0.0715648 0.0715648 0.0715648
0.0535897 0.0535897 0.0535897
0.0841688 0.0841688 0.0841688
0.143175 0.143175 0.143175
0.229084 0.229084 0.229084
0.348119 0.348119 0.348119
0.265415 0.265415 0.265415
0.394705 0.394705 0.394705
0.539376 0.539376 0.539376
0.659129 0.659129 0.659129
0.746715 0.746715 0.746715
0.692134 0.692134 0.692134
0.769268 0.769268 0.769268
0.824201 0.824201 0.824201
0.866102 0.866102 0.866102
0.901686 0.901686 0.901686
0.878462 0.878462 0.878462
0.91281 0.91281 0.91281
0.944671 0.944671 0.944671
0.976455 0.976455 0.976455
1 1 1
