public/textures/LUTs/TROPIC COLOUR - BEST OF LOOKS (telegram - @creativecashe)-1/TROPIC COLOUR - BEST OF LOOKS/TC - TEAL & ORANGE LOOKS/TC - DELUX .cube
TITLE "Generated by Resolve"
LUT_3D_SIZE 9
0.0231785 0.0517281 0.057557
0.0312657 0.0525063 0.0578012
0.340261 0.069688 0.0485695
0.63032 0.023331 0.0363012
0.758923 0.0448615 0.12462
0.843839 0.171725 0.345434
0.932906 0.48307 0.627039
0.96849 0.706767 0.766323
0.982895 0.81561 0.841199
0.017731 0.0715801 0.0561532
0.0261997 0.0737621 0.0565499
0.370291 0.0862593 0.0388952
0.651362 0.0358282 0.0301976
0.774151 0.0722515 0.139895
0.857847 0.214649 0.377584
0.941451 0.527932 0.640803
0.971481 0.731182 0.772122
0.984115 0.830213 0.84332
0.0101472 0.213962 0.0681468
0.0129549 0.216541 0.0683909
0.171527 0.242435 0.0327764
0.663584 0.200824 0.0159762
0.800229 0.170962 0.1019
0.887404 0.320485 0.399039
0.955322 0.614404 0.673075
0.977646 0.783261 0.795621
0.986313 0.860334 0.856336
0.0153201 0.425071 0.110307
0.0196994 0.426642 0.110628
0.0353246 0.426612 0.110201
0.595605 0.556176 0.00741588
0.823529 0.498299 0.0425574
0.937041 0.517983 0.270985
0.966308 0.689769 0.677897
0.980209 0.817975 0.805097
0.987457 0.883238 0.863096
0.00953689 0.534157 0.132097
0.0141146 0.534997 0.132403
0.0225376 0.534829 0.132357
0.116411 0.579568 0.111727
0.801083 0.728969 0.0515145
0.920867 0.708965 0.116106
0.979934 0.76907 0.618463
0.982864 0.845151 0.800137
0.98822 0.897383 0.863096
0.022858 0.59321 0.172549
0.027863 0.594202 0.174517
0.0366217 0.594293 0.174746
0.061387 0.593591 0.173281
0.611551 0.783658 0.0587472
0.884443 0.811627 0.110323
0.984894 0.829511 0.333486
0.986755 0.877882 0.768368
0.988876 0.90866 0.854337
0.0395666 0.655985 0.349905
0.045594 0.657115 0.353979
0.0545205 0.656947 0.354162
0.0737316 0.6551 0.350362
0.181689 0.75021 0.303593
0.827131 0.871702 0.168872
0.95758 0.881331 0.22858
0.992187 0.915953 0.648096
0.990616 0.930159 0.830564
0.144045 0.746639 0.556146
0.152743 0.756252 0.564111
0.163684 0.767239 0.567971
0.178195 0.787839 0.571756
0.294911 0.858793 0.565347
0.719982 0.919585 0.543755
0.920729 0.937377 0.52961
0.981964 0.942779 0.588785
0.992828 0.956191 0.776135
0.38645 0.905394 0.733776
0.435569 0.91368 0.736202
0.494453 0.921584 0.736706
0.553292 0.929122 0.735759
0.628519 0.938567 0.73547
0.739559 0.951659 0.733074
0.872618 0.964187 0.72726
0.956024 0.969131 0.728573
0.992493 0.971557 0.751415
0.0170901 0.0529183 0.0765698
0.0243076 0.0537728 0.0793317
0.332784 0.0705577 0.0806592
0.631632 0.0150149 0.0646983
0.758755 0.0438392 0.151369
0.844297 0.170794 0.375753
0.932479 0.482811 0.643305
0.967895 0.70634 0.7785
0.9823 0.815656 0.851316
0.0145724 0.0727855 0.0772259
0.0218357 0.074403 0.0794385
0.341176 0.0873884 0.0732891
0.641474 0.0270848 0.0545815
0.766476 0.0644236 0.151354
0.851637 0.199161 0.383047
0.938003 0.512291 0.647044
0.97026 0.725383 0.780056
0.983215 0.828275 0.851606
0.00903334 0.213703 0.0755169
0.0122225 0.216342 0.0757458
0.165362 0.240894 0.044831
0.663447 0.196078 0.0233768
0.797696 0.169558 0.128679
0.882856 0.31017 0.418067
0.951736 0.59588 0.677317
0.975433 0.769879 0.79765
0.98471 0.853971 0.860456
0.0146792 0.426017 0.116655
0.019028 0.427604 0.116976
0.0335851 0.427649 0.116518
0.593149 0.557382 0.0133974
0.826093 0.498283 0.0483101
0.93521 0.516258 0.284199
0.964584 0.684825 0.691234
0.979019 0.814755 0.81622
0.986343 0.881834 0.87361
0.010071 0.534676 0.138201
0.0144808 0.535561 0.138476
0.0230411 0.535515 0.138521
0.113512 0.578439 0.119631
0.800427 0.729763 0.0578927
0.925383 0.709651 0.125154
0.978592 0.770031 0.636591
0.981643 0.843275 0.811048
0.987106 0.896284 0.873777
0.0229648 0.594415 0.180972
0.0276493 0.595102 0.18204
0.0365911 0.5953 0.182498
0.0616922 0.5944 0.181292
0.606226 0.783032 0.0650797
0.884993 0.812833 0.117815
0.985107 0.834241 0.392584
0.985595 0.878813 0.784237
0.987991 0.909361 0.867002
0.0419013 0.659342 0.366827
0.0478523 0.660075 0.369909
0.0572213 0.659968 0.370672
0.0774243 0.658061 0.366857
0.180377 0.748425 0.333211
0.826719 0.874784 0.18262
0.958816 0.884993 0.257649
0.991455 0.919097 0.679454
0.989395 0.930907 0.845945
0.14435 0.75201 0.577722
0.151751 0.760342 0.583642
0.161868 0.771634 0.588403
0.177234 0.791852 0.593729
0.284566 0.860899 0.594476
0.712352 0.923003 0.576959
0.916945 0.941314 0.565515
0.981018 0.947051 0.62179
0.991333 0.957473 0.79559
0.375372 0.905745 0.750744
0.411444 0.911772 0.750439
0.483986 0.92221 0.754314
0.545312 0.930129 0.754452
0.622339 0.939696 0.754726
0.734615 0.953216 0.753628
0.86923 0.966049 0.749065
0.953674 0.970932 0.749935
0.99086 0.973144 0.771145
0.00254826 0.0842451 0.237644
0.0083772 0.0856031 0.244266
0.279072 0.0668193 0.308263
0.626062 0.00947585 0.278553
0.757946 0.0350195 0.297383
0.845365 0.15964 0.476356
0.931029 0.479133 0.670176
0.96733 0.705043 0.793515
0.981537 0.815518 0.863828
0.00209049 0.0945449 0.243107
0.00735485 0.0957046 0.249256
0.286259 0.0767376 0.315923
0.63653 0.0189975 0.283101
0.766476 0.0542153 0.309255
0.853544 0.190433 0.489433
0.936996 0.512886 0.677165
0.969985 0.726513 0.798016
0.982452 0.829282 0.86595
0.00497444 0.205524 0.194842
0.00842298 0.20705 0.198276
0.100938 0.212741 0.211826
0.662593 0.155261 0.199161
0.789502 0.156985 0.264622
0.873869 0.285512 0.479377
0.947829 0.575189 0.686748
0.973739 0.761776 0.805997
0.983612 0.851652 0.87013
0.00296025 0.425925 0.153674
0.00674449 0.427604 0.155489
0.0239719 0.427466 0.154299
0.58143 0.552483 0.0455024
0.837324 0.492592 0.0731365
0.928725 0.511116 0.376593
0.962219 0.675822 0.706981
0.977523 0.80734 0.823072
0.98497 0.877272 0.879576
0.0133669 0.534936 0.154406
0.0178531 0.535897 0.155047
0.026154 0.536461 0.154635
0.105257 0.573968 0.140291
0.798733 0.730465 0.0740826
0.935424 0.711299 0.130861
0.977188 0.769329 0.654414
0.980392 0.840497 0.821729
0.985977 0.894606 0.883726
0.0238651 0.595315 0.196536
0.0286259 0.596002 0.197971
0.0374762 0.596551 0.19852
0.0629282 0.595682 0.198245
0.593301 0.781338 0.0777905
0.886519 0.814878 0.134417
0.985306 0.840818 0.461677
0.984497 0.879042 0.79649
0.986954 0.909117 0.878233
0.0458839 0.663279 0.387839
0.0519722 0.664164 0.391241
0.0620127 0.664607 0.393469
0.0816663 0.662989 0.391043
0.177981 0.744961 0.375128
0.824247 0.879561 0.215915
0.960006 0.890349 0.303883
0.990143 0.921904 0.710079
0.988266 0.931655 0.859556
0.143587 0.754589 0.596017
0.150622 0.7626 0.602487
0.159701 0.773495 0.607721
0.176257 0.796674 0.618753
0.275059 0.863035 0.626841
0.702663 0.92665 0.61445
0.912444 0.945647 0.60502
0.979568 0.951141 0.656001
0.989807 0.958663 0.814893
0.358267 0.904921 0.767208
0.406043 0.913619 0.770779
0.472801 0.922942 0.773388
0.539284 0.931517 0.774624
0.616678 0.940917 0.774929
0.729885 0.954665 0.774685
0.865553 0.967895 0.771374
0.951217 0.972641 0.77203
0.989151 0.974624 0.791485
0.0103304 0.137072 0.432837
0.0154269 0.13753 0.436362
0.148455 0.0468452 0.547753
0.604288 0.00291447 0.584848
0.751842 0.0178225 0.588708
0.840955 0.105379 0.625727
0.924834 0.448875 0.717174
0.965728 0.695277 0.809491
0.980728 0.811978 0.874159
0.00906386 0.14432 0.439109
0.0143893 0.144625 0.441962
0.145312 0.0629129 0.551614
0.614084 0.00843824 0.592798
0.760296 0.0247501 0.598413
0.84773 0.131106 0.63473
0.930648 0.483177 0.723735
0.968307 0.71696 0.813855
0.981537 0.825757 0.876326
0.00285344 0.211185 0.456291
0.00708019 0.211917 0.4589
0.054902 0.204471 0.47567
0.625528 0.0496834 0.612985
0.778012 0.0537423 0.612451
0.864393 0.224338 0.647379
0.941588 0.550927 0.732769
0.972183 0.753902 0.822446
0.982727 0.848737 0.88188
0.00141909 0.462638 0.457282
0.00535592 0.465064 0.462394
0.0188754 0.463233 0.464881
0.438514 0.545556 0.538674
0.834745 0.473945 0.541161
0.911467 0.490974 0.607828
0.956359 0.647196 0.729427
0.975525 0.792569 0.827939
0.983795 0.871214 0.885954
0.0160525 0.549493 0.30808
0.0199893 0.551019 0.312459
0.0273136 0.55169 0.312932
0.0887465 0.560388 0.309453
0.807752 0.745144 0.154116
0.952026 0.72723 0.376394
0.973953 0.763973 0.696803
0.978927 0.832059 0.829938
0.984878 0.88864 0.888975
0.00926223 0.606012 0.28716
0.014847 0.607355 0.2916
0.0242008 0.608148 0.293004
0.0479744 0.607553 0.291646
0.523293 0.78381 0.135607
0.902327 0.828229 0.157809
0.984421 0.850767 0.555978
0.983627 0.877287 0.803372
0.986023 0.905821 0.884978
0.043534 0.67393 0.437064
0.0483253 0.674983 0.440436
0.0575265 0.675532 0.442832
0.0770581 0.674403 0.443259
0.167941 0.742794 0.450568
0.810422 0.890043 0.347356
0.959411 0.900969 0.424384
0.988586 0.92401 0.736751
0.987518 0.931716 0.868879
0.142031 0.756741 0.618265
0.148577 0.764355 0.624491
0.159243 0.777646 0.634195
0.17554 0.801038 0.647776
0.263966 0.865461 0.666407
0.689433 0.930861 0.661814
0.90576 0.951003 0.655009
0.977157 0.955657 0.697002
0.988586 0.959579 0.83061
0.337987 0.903273 0.783246
0.383474 0.912016 0.787549
0.453056 0.92256 0.791959
0.529732 0.932601 0.795651
0.610437 0.942214 0.796658
0.725383 0.955962 0.797208
0.861433 0.969573 0.795346
0.948531 0.974319 0.796109
0.98735 0.976135 0.812406
0.0158083 0.153811 0.534798
0.0201114 0.154086 0.537804
0.061387 0.154253 0.558434
0.591409 0.00738537 0.712367
0.745739 0.00425727 0.712154
0.834653 0.0482948 0.725887
0.907668 0.351461 0.772686
0.960922 0.664027 0.832227
0.979644 0.800885 0.882841
0.0149081 0.160983 0.540291
0.0194553 0.161227 0.543069
0.0629892 0.161303 0.565103
0.600702 0.012192 0.718868
0.753079 0.0101015 0.7187
0.840177 0.070634 0.732937
0.913695 0.386267 0.780545
0.964034 0.687739 0.837018
0.980545 0.815244 0.885191
0.00776684 0.188418 0.552041
0.0120699 0.188525 0.553643
0.0457923 0.184894 0.562051
0.58732 0.0421759 0.728985
0.76289 0.0260319 0.730571
0.850126 0.13193 0.7449
0.926116 0.459709 0.794644
0.967971 0.72694 0.844602
0.981582 0.83859 0.890242
0.00900282 0.433097 0.634653
0.0124208 0.433234 0.636179
0.0239719 0.42356 0.634241
0.283879 0.409949 0.762844
0.789014 0.339895 0.777783
0.880659 0.368399 0.778164
0.9449 0.584772 0.806271
0.972381 0.771054 0.850462
0.982834 0.862058 0.894881
0.00254826 0.614923 0.640879
0.00695811 0.615961 0.643137
0.0147402 0.616495 0.645121
0.0739605 0.612711 0.644373
0.712062 0.769284 0.760845
0.916899 0.738903 0.758236
0.964813 0.746258 0.784863
0.976379 0.815015 0.842832
0.983902 0.879255 0.892927
0.0093843 0.66601 0.574762
0.0138857 0.667567 0.578744
0.022034 0.668544 0.580331
0.0432746 0.668391 0.579858
0.25658 0.792447 0.632898
0.88101 0.87219 0.650355
0.97464 0.863661 0.727413
0.98143 0.872496 0.826276
0.985229 0.899489 0.889784
0.0340429 0.703883 0.566003
0.0397955 0.70518 0.569955
0.0497902 0.706035 0.57261
0.0698405 0.705821 0.573388
0.16025 0.75671 0.602029
0.762936 0.911788 0.617441
0.947753 0.923858 0.64683
0.985153 0.926757 0.777157
0.986908 0.930587 0.872724
0.141985 0.757748 0.653315
0.147356 0.76556 0.6598
0.156497 0.778271 0.669429
0.17348 0.800839 0.685435
0.242588 0.866041 0.720012
0.666819 0.935958 0.730709
0.895491 0.957671 0.730114
0.972137 0.9608 0.754559
0.987518 0.960388 0.84509
0.31162 0.900465 0.801221
0.355932 0.909819 0.806561
0.424628 0.921172 0.811963
0.504707 0.931472 0.815869
0.601038 0.942702 0.819532
0.718822 0.956863 0.821469
0.856825 0.971099 0.821485
0.945434 0.975998 0.822599
0.984939 0.977707 0.836042
0.0166018 0.156863 0.595972
0.020325 0.15671 0.597116
0.0443885 0.156161 0.604318
0.565484 0.0187076 0.771801
0.744152 0.00222782 0.770779
0.814298 0.0187533 0.775982
0.88455 0.20885 0.807019
0.950072 0.590478 0.866926
0.977081 0.779599 0.896986
0.0158083 0.162997 0.599939
0.0197299 0.162737 0.600931
0.0458839 0.162448 0.60882
0.575814 0.0217594 0.776745
0.750057 0.00727855 0.775937
0.818662 0.0267491 0.781415
0.889647 0.237278 0.814374
0.953918 0.618463 0.872175
0.978485 0.796002 0.899718
0.00984207 0.179416 0.608454
0.0138399 0.179187 0.609308
0.0364691 0.17734 0.611948
0.546441 0.0475166 0.783734
0.754177 0.0170596 0.784222
0.826413 0.0405737 0.79118
0.899626 0.299458 0.829602
0.960037 0.668162 0.880674
0.979843 0.821286 0.904479
0.00248722 0.321675 0.660166
0.00648508 0.322744 0.661555
0.0183871 0.313283 0.659022
0.220005 0.265553 0.773938
0.758175 0.178714 0.81561
0.84416 0.194293 0.818982
0.920623 0.433768 0.856321
0.96582 0.722606 0.888106
0.981125 0.84593 0.908644
0.00453193 0.601846 0.736156
0.00901808 0.602518 0.737392
0.0181888 0.601373 0.738384
0.0686503 0.593576 0.73727
0.639094 0.709804 0.887877
0.888426 0.678477 0.887755
0.951904 0.690044 0.88278
0.971725 0.785733 0.889357
0.982391 0.865446 0.908919
0.00741588 0.684535 0.725109
0.0117494 0.685176 0.726558
0.019501 0.685771 0.727916
0.0361028 0.685466 0.728801
0.190295 0.760845 0.794141
0.838743 0.873121 0.867063
0.955444 0.860807 0.86453
0.976898 0.864713 0.875395
0.983581 0.891478 0.90219
0.0306706 0.728359 0.700618
0.0364538 0.728847 0.702464
0.0460517 0.72929 0.703975
0.0649271 0.729213 0.704814
0.150195 0.752834 0.72253
0.697963 0.921248 0.820462
0.926116 0.935332 0.828901
0.978622 0.928328 0.852995
0.984909 0.928679 0.89308
0.138659 0.75613 0.703899
0.148135 0.762112 0.709712
0.155596 0.773129 0.719417
0.168612 0.793439 0.736446
0.212772 0.856764 0.782238
0.623804 0.937819 0.817243
0.879301 0.963394 0.823102
0.96347 0.965286 0.833524
0.985183 0.961486 0.873777
0.277501 0.89604 0.827268
0.313176 0.905638 0.833722
0.373449 0.917952 0.841108
0.45684 0.928847 0.846326
0.57171 0.941482 0.85127
0.705379 0.957473 0.856275
0.848753 0.9729 0.8589
0.940337 0.978241 0.860639
0.981659 0.979644 0.869596
0.0119478 0.155535 0.638025
0.0152132 0.155367 0.638666
0.0290379 0.154788 0.640101
0.481239 0.0361181 0.810101
0.751598 0.00161746 0.812009
0.813916 0.007187 0.81529
0.858061 0.042237 0.823484
0.923095 0.401419 0.880613
0.971374 0.733394 0.923186
0.0111849 0.161517 0.641123
0.0146334 0.161257 0.641642
0.0291905 0.160708 0.643015
0.49131 0.0408942 0.814206
0.757946 0.00654612 0.81622
0.818555 0.0165866 0.819776
0.861524 0.0498054 0.828016
0.928069 0.434638 0.88809
0.973327 0.753079 0.925948
0.00726329 0.172244 0.646799
0.0109255 0.172045 0.647303
0.0241703 0.170809 0.647211
0.434974 0.0656748 0.816083
0.761349 0.0140383 0.822156
0.823682 0.0297551 0.826291
0.867262 0.0671244 0.836133
0.936904 0.498344 0.901869
0.975937 0.785229 0.930861
0.00180056 0.234043 0.667155
0.00570687 0.233783 0.667643
0.0142977 0.228275 0.666194
0.096788 0.200702 0.718914
0.738537 0.0662699 0.833631
0.826078 0.0665904 0.837263
0.877302 0.158618 0.850996
0.948791 0.586419 0.918593
0.977829 0.814206 0.935668
0.0187381 0.560479 0.77351
0.0230716 0.561196 0.774334
0.0288701 0.556497 0.773999
0.0473487 0.530205 0.76759
0.582162 0.56434 0.916365
0.863569 0.504707 0.91342
0.924804 0.529198 0.916335
0.962707 0.710369 0.933318
0.979095 0.837263 0.938231
0.0173342 0.675563 0.781628
0.021973 0.676051 0.782361
0.0296483 0.676036 0.783108
0.0426184 0.674479 0.783536
0.151873 0.696193 0.807675
0.807645 0.846616 0.940444
0.938689 0.83621 0.941161
0.970855 0.840345 0.937713
0.980728 0.876143 0.937148
0.0149386 0.730053 0.775647
0.0201572 0.730404 0.776669
0.0288701 0.730831 0.777707
0.0436408 0.730922 0.778668
0.129076 0.728573 0.77763
0.624872 0.910445 0.922103
0.9075 0.931075 0.927886
0.969253 0.925765 0.926177
0.980926 0.925795 0.929137
0.117876 0.756985 0.764599
0.123278 0.757183 0.765515
0.132387 0.758495 0.767376
0.148882 0.771344 0.7794
0.1991 0.82829 0.828321
0.525734 0.930541 0.901213
0.857206 0.963424 0.9093
0.953628 0.966339 0.913314
0.980407 0.961746 0.92108
0.240208 0.885252 0.861723
0.256413 0.895308 0.870298
0.293873 0.908446 0.880354
0.361303 0.921874 0.889342
0.490593 0.936599 0.896452
0.673198 0.955871 0.903441
0.835294 0.973556 0.907668
0.932555 0.979995 0.91075
0.977462 0.981308 0.914763
0.00491341 0.154894 0.660945
0.00802625 0.154757 0.660929
0.0170291 0.154391 0.6607
0.0819409 0.146944 0.698375
0.770169 0.00125124 0.833692
0.829343 0.00851453 0.839872
0.854795 0.0111849 0.840909
0.880201 0.0848402 0.857618
0.958953 0.616495 0.939406
0.00447089 0.160906 0.662562
0.00772107 0.160693 0.662516
0.0169528 0.160281 0.662242
0.115267 0.137331 0.719615
0.778164 0.00624094 0.836576
0.834195 0.0193484 0.842985
0.857877 0.0221256 0.843458
0.883116 0.108553 0.861997
0.962386 0.642115 0.943328
0.00289921 0.169894 0.664988
0.00646983 0.169802 0.664973
0.0151217 0.169177 0.664591
0.0987411 0.147982 0.719875
0.783795 0.0132753 0.840223
0.840238 0.0339513 0.847013
0.862074 0.0352636 0.847776
0.887816 0.152255 0.869215
0.967498 0.689174 0.949966
0.00135805 0.191028 0.671931
0.0052491 0.190692 0.671794
0.0127871 0.1888 0.671031
0.0486915 0.184649 0.67538
0.755657 0.0231022 0.844785
0.835157 0.041886 0.851408
0.866773 0.0548562 0.856397
0.897169 0.224598 0.882567
0.971649 0.734798 0.956176
0.00221256 0.471901 0.771527
0.00631724 0.473289 0.772091
0.0130617 0.464775 0.769604
0.0230259 0.423758 0.756222
0.406928 0.356817 0.890059
0.832959 0.288289 0.893996
0.893202 0.313481 0.900374
0.932418 0.461112 0.926986
0.975525 0.778607 0.961486
0.0110018 0.666224 0.80647
0.0158236 0.66685 0.806806
0.0228885 0.6663 0.80708
0.0277256 0.660029 0.806851
0.110094 0.648844 0.80827
0.786557 0.803983 0.964675
0.933013 0.787747 0.966033
0.967849 0.794842 0.965682
0.979248 0.845029 0.963531
0.0096437 0.722866 0.80705
0.0145418 0.723156 0.807507
0.0225376 0.723323 0.807996
0.0344091 0.723125 0.808408
0.0898756 0.721248 0.808087
0.497154 0.889235 0.951202
0.899519 0.919402 0.962356
0.965347 0.91632 0.961761
0.97969 0.916335 0.959762
0.0708324 0.757504 0.805631
0.0767987 0.757504 0.805905
0.0849622 0.757122 0.805814
0.103685 0.756436 0.805402
0.160784 0.779385 0.826429
0.437354 0.920089 0.941054
0.846464 0.95903 0.952102
0.948898 0.962676 0.953002
0.978424 0.960052 0.952361
0.22118 0.863828 0.880201
0.228656 0.875532 0.890623
0.242695 0.890501 0.903807
0.274571 0.9066 0.917281
0.37792 0.927047 0.931044
0.630793 0.95201 0.939834
0.822507 0.972808 0.945144
0.928084 0.980453 0.947112
0.975189 0.981842 0.94786
0.00155642 0.154788 0.667338
0.00468452 0.154665 0.667323
0.012192 0.154376 0.667079
0.0248569 0.153872 0.666911
0.733028 0.00137331 0.838544
0.847837 0.00798047 0.848005
0.857435 0.00724804 0.847959
0.865019 0.0138399 0.849287
0.89395 0.156466 0.879057
0.00148013 0.160845 0.66894
0.00476081 0.160647 0.668894
0.0123903 0.160342 0.668635
0.0258793 0.15993 0.668528
0.730541 0.0062562 0.840864
0.851423 0.0186923 0.850416
0.859739 0.0182345 0.850355
0.867475 0.0256962 0.85185
0.898939 0.19649 0.885603
0.00134279 0.16965 0.671214
0.00492866 0.169558 0.671183
0.0123598 0.1691 0.670909
0.0244907 0.168673 0.670558
0.704463 0.0136873 0.844694
0.855772 0.0327459 0.853727
0.86276 0.0323644 0.853681
0.870893 0.0375525 0.856153
0.906264 0.246464 0.894987
0.00122072 0.179934 0.674693
0.00511177 0.179828 0.674617
0.0124971 0.179431 0.674342
0.0211337 0.178897 0.673884
0.621286 0.0360266 0.849577
0.857862 0.0414893 0.85832
0.866133 0.041474 0.858213
0.876005 0.0539101 0.863081
0.916457 0.314626 0.908431
0.00122072 0.325567 0.727092
0.00540169 0.330953 0.729351
0.0127871 0.329519 0.729168
0.0202945 0.308858 0.720653
0.177462 0.228534 0.773663
0.823102 0.102571 0.867933
0.871397 0.117739 0.874937
0.89427 0.204715 0.887785
0.942794 0.487266 0.940078
0.0136263 0.670634 0.81532
0.0184939 0.671534 0.815518
0.0254978 0.671183 0.81561
0.0284428 0.66424 0.815244
0.0549935 0.624277 0.811688
0.744259 0.712306 0.966659
0.923461 0.672496 0.96527
0.960189 0.698405 0.968048
0.975174 0.770886 0.973907
0.00512703 0.720485 0.818998
0.00972 0.72108 0.819165
0.0171664 0.721309 0.819303
0.0263981 0.719585 0.819287
0.0537728 0.713344 0.818967
0.234699 0.826978 0.926635
0.891691 0.904906 0.97583
0.962798 0.90135 0.97557
0.979873 0.902388 0.975219
0.0332647 0.753155 0.822828
0.0387884 0.753338 0.822965
0.0471351 0.753475 0.823087
0.059144 0.753399 0.823117
0.0945296 0.751629 0.821653
0.232776 0.86453 0.921035
0.829679 0.951751 0.968582
0.945617 0.956863 0.970321
0.97818 0.955734 0.970397
0.19086 0.82385 0.86807
0.197986 0.833005 0.876051
0.209659 0.849424 0.890257
0.225757 0.869963 0.908003
0.264439 0.902571 0.935561
0.549081 0.943511 0.958328
0.809415 0.971572 0.965881
0.926452 0.980346 0.967971
0.975326 0.981811 0.967742
