public/textures/LUTs/TROPIC COLOUR - BEST OF LOOKS (telegram - @creativecashe)-1/TROPIC COLOUR - BEST OF LOOKS/TC - TEAL & ORANGE LOOKS/TC - DELUX .cube
TITLE "Generated by Resolve"
LUT_3D_SIZE 33
0.0231785 0.0517281 0.057557
0.0231785 0.0517281 0.057557
0.0231785 0.0517281 0.057557
0.0264439 0.0520485 0.0576486
0.0312657 0.0525063 0.0578012
0.0745556 0.0571908 0.0592355
0.144045 0.0656748 0.0603494
0.239811 0.0724041 0.0583047
0.340261 0.069688 0.0485695
0.443046 0.0527352 0.037644
0.523812 0.0284428 0.0321508
0.583337 0.0244144 0.0343938
0.63032 0.023331 0.0363012
0.671183 0.0215305 0.0445106
0.704219 0.0249943 0.0644541
0.732479 0.0319524 0.092256
0.758923 0.0448615 0.12462
0.780591 0.0643473 0.163836
0.801175 0.0865797 0.201801
0.821881 0.125277 0.264164
0.843839 0.171725 0.345434
0.867613 0.23653 0.432578
0.893263 0.320287 0.512322
0.916243 0.403937 0.577356
0.932906 0.48307 0.627039
0.946471 0.556756 0.671748
0.955535 0.612924 0.706096
0.963195 0.666728 0.740047
0.96849 0.706767 0.766323
0.973602 0.743114 0.790433
0.977691 0.771786 0.809598
0.980575 0.796216 0.826795
0.982895 0.81561 0.841199
0.0231785 0.0517281 0.057557
0.0231785 0.0517281 0.057557
0.0231785 0.0517281 0.057557
0.0268864 0.0520943 0.0576638
0.0323949 0.0526284 0.057847
0.0805066 0.057969 0.0592966
0.150546 0.0663005 0.060502
0.245396 0.0726329 0.0580758
0.344808 0.0693828 0.0479438
0.446387 0.0515755 0.0373999
0.525826 0.0281376 0.0320745
0.584619 0.0243839 0.0345006
0.631266 0.0233158 0.036347
0.671778 0.0216068 0.044831
0.704677 0.0250553 0.0648661
0.732815 0.032105 0.0926528
0.759136 0.0449836 0.124895
0.780682 0.0644388 0.163989
0.801221 0.0866255 0.201892
0.821927 0.125368 0.264317
0.843793 0.171633 0.345266
0.867506 0.236194 0.432242
0.893095 0.319783 0.511894
0.916106 0.403311 0.576944
0.932723 0.482139 0.626474
0.946349 0.556054 0.671321
0.955413 0.61207 0.705547
0.963088 0.665949 0.739544
0.968399 0.70602 0.765835
0.97348 0.742321 0.789899
0.9776 0.77116 0.809186
0.980499 0.795544 0.826337
0.982834 0.815167 0.840848
0.022797 0.0530404 0.0574197
0.0227817 0.0530709 0.0574044
0.0227817 0.0531014 0.0574044
0.0263371 0.0534829 0.0575113
0.0341344 0.0542611 0.057847
0.0843671 0.060029 0.059205
0.158419 0.0687572 0.0607004
0.25861 0.0750286 0.0569314
0.361425 0.0704051 0.045182
0.459983 0.0510872 0.0354162
0.53579 0.0308232 0.0305486
0.591562 0.0274968 0.033463
0.63679 0.026154 0.0353094
0.6766 0.0242618 0.0441749
0.708721 0.0279393 0.0650339
0.736355 0.0374151 0.0938277
0.762234 0.0507362 0.12723
0.783566 0.0712902 0.166232
0.803937 0.0937057 0.204288
0.824704 0.134371 0.269245
0.846571 0.180697 0.350378
0.870405 0.247532 0.43653
0.895994 0.330968 0.51548
0.918303 0.414191 0.579355
0.934707 0.492485 0.628733
0.947829 0.564843 0.672908
0.956619 0.620371 0.70721
0.964096 0.673335 0.740856
0.969192 0.712505 0.766827
0.974243 0.748501 0.790921
0.978225 0.776852 0.809949
0.980972 0.800687 0.827054
0.9832 0.819471 0.84123
0.0220951 0.0554208 0.057145
0.0220798 0.055436 0.057145
0.0220798 0.0554665 0.057145
0.0256199 0.0558633 0.0572976
0.0311589 0.0564889 0.0575113
0.0849317 0.0628367 0.0589914
0.158267 0.0717632 0.0607462
0.261509 0.0784466 0.0556497
0.368231 0.074403 0.0429541
0.469001 0.0554208 0.0331121
0.544991 0.0360113 0.0285191
0.6 0.0330968 0.0312505
0.645731 0.0297398 0.0337835
0.685054 0.0279698 0.0443122
0.715679 0.0342565 0.0680095
0.743053 0.0453346 0.0980087
0.767773 0.0601053 0.133547
0.788663 0.0816663 0.172107
0.808682 0.105089 0.21088
0.829374 0.147936 0.279515
0.851118 0.194018 0.360479
0.87509 0.26508 0.445838
0.900587 0.348089 0.523049
0.921569 0.429999 0.584192
0.937499 0.507073 0.632898
0.949783 0.576623 0.675898
0.958144 0.63122 0.710094
0.965347 0.682582 0.743023
0.97023 0.720714 0.768643
0.975158 0.75581 0.792477
0.978821 0.783001 0.811124
0.98146 0.806424 0.828092
0.983612 0.824353 0.841917
0.017731 0.0715801 0.0561532
0.0176394 0.0719615 0.0561379
0.0175479 0.0722667 0.0561379
0.0206912 0.0728771 0.0562905
0.0261997 0.0737621 0.0565499
0.0690166 0.0783551 0.057557
0.144427 0.0850996 0.0589456
0.25713 0.0907607 0.0533608
0.370291 0.0862593 0.0388952
0.472801 0.0690929 0.0293889
0.548058 0.0502174 0.0244144
0.60412 0.0423743 0.027512
0.651362 0.0358282 0.0301976
0.691218 0.0347906 0.0428168
0.721935 0.0433967 0.0691997
0.750042 0.0548409 0.101167
0.774151 0.0722515 0.139895
0.795087 0.0948348 0.179126
0.815183 0.123201 0.224567
0.835981 0.166491 0.296086
0.857847 0.214649 0.377584
0.882078 0.290654 0.461936
0.907591 0.373419 0.536965
0.926421 0.45304 0.593576
0.941451 0.527932 0.640803
0.952438 0.592996 0.681651
0.96022 0.646281 0.71577
0.966857 0.694621 0.747204
0.971481 0.731182 0.772122
0.976318 0.765179 0.795453
0.979538 0.790692 0.813565
0.981979 0.812863 0.829938
0.984115 0.830213 0.84332
0.0120699 0.0997787 0.0552529
0.0120394 0.100084 0.0552377
0.0120089 0.10042 0.0552377
0.0139315 0.10074 0.0552529
0.0176242 0.101259 0.055314
0.0516823 0.104265 0.055436
0.110964 0.108019 0.0555276
0.237491 0.110582 0.0509346
0.3691 0.103243 0.0315404
0.475257 0.0876478 0.0243992
0.550866 0.0681773 0.0191501
0.607569 0.0542153 0.0231785
0.655009 0.0458228 0.0273747
0.694896 0.0449378 0.04065
0.726101 0.0532235 0.0671244
0.754635 0.0647288 0.100267
0.77882 0.0840925 0.142138
0.800061 0.107454 0.182345
0.820768 0.139376 0.234043
0.841947 0.184115 0.309377
0.864515 0.23711 0.393088
0.889433 0.316899 0.476936
0.914015 0.400412 0.549798
0.93167 0.478447 0.603952
0.945602 0.551888 0.651072
0.955322 0.611841 0.689326
0.962692 0.66424 0.723445
0.96849 0.708522 0.753002
0.973037 0.743862 0.777157
0.977615 0.776028 0.79968
0.980407 0.79968 0.81706
0.98262 0.820462 0.832837
0.984665 0.836805 0.84535
0.00967422 0.130709 0.0562753
0.00965896 0.131167 0.0562905
0.0096437 0.131548 0.0563211
0.0110781 0.131899 0.05626
0.0135958 0.132387 0.0561532
0.0272526 0.13434 0.0555734
0.0656138 0.137102 0.0544289
0.180392 0.14313 0.049836
0.335561 0.141176 0.0278019
0.470192 0.125734 0.0144503
0.552987 0.11046 0.0131075
0.611444 0.0907912 0.0158846
0.658732 0.0760052 0.0234684
0.69984 0.0688182 0.0340581
0.731563 0.0734875 0.0586709
0.760342 0.083238 0.0927443
0.783993 0.102907 0.136873
0.805097 0.126223 0.17998
0.826383 0.159121 0.236164
0.847898 0.205112 0.314122
0.871397 0.261265 0.400885
0.896696 0.343481 0.48574
0.920226 0.427222 0.559457
0.936736 0.503807 0.612787
0.949416 0.575647 0.660594
0.958175 0.632059 0.697856
0.965179 0.683345 0.732006
0.970184 0.723629 0.759838
0.974914 0.758373 0.784024
0.978729 0.787579 0.804868
0.981231 0.809873 0.821805
0.983352 0.829465 0.837034
0.985306 0.844785 0.848508
0.00767529 0.167834 0.0606851
0.00764477 0.168261 0.0607462
0.00761425 0.16875 0.0608072
0.00907912 0.169024 0.0607309
0.0110018 0.169329 0.0606394
0.0152132 0.169497 0.0603342
0.0276646 0.171389 0.0586862
0.122942 0.18349 0.0486458
0.273793 0.191745 0.029221
0.44123 0.185122 0.0047303
0.549859 0.170108 0.00851453
0.615839 0.147921 0.0119326
0.663111 0.123522 0.0187533
0.704814 0.104738 0.0277562
0.737865 0.101884 0.0473182
0.766995 0.107256 0.0794842
0.790234 0.126802 0.126802
0.81146 0.148379 0.174228
0.832731 0.182528 0.235264
0.854383 0.228412 0.314336
0.878309 0.286625 0.404181
0.903304 0.369085 0.49015
0.92575 0.451728 0.565881
0.941024 0.526162 0.619379
0.95259 0.596033 0.668101
0.960555 0.649912 0.704936
0.967086 0.69984 0.739651
0.971633 0.737499 0.766247
0.976547 0.771893 0.79086
0.979644 0.798306 0.810437
0.981872 0.819425 0.826856
0.983932 0.837674 0.841215
0.985855 0.852903 0.852781
0.0101472 0.213962 0.0681468
0.0101167 0.214664 0.0682689
0.0101167 0.215259 0.0683909
0.01149 0.21593 0.0684062
0.0129549 0.216541 0.0683909
0.0148165 0.216739 0.0682689
0.0208286 0.217594 0.0676585
0.0528115 0.226078 0.0593881
0.171527 0.242435 0.0327764
0.370016 0.251972 0.00486763
0.519265 0.243992 0.0087892
0.610483 0.2215 0.0130159
0.663584 0.200824 0.0159762
0.709026 0.179644 0.022446
0.744991 0.165087 0.0341802
0.77557 0.158984 0.0558328
0.800229 0.170962 0.1019
0.821302 0.186862 0.155077
0.842191 0.21973 0.223926
0.864012 0.263676 0.306935
0.887404 0.320485 0.399039
0.910796 0.400015 0.489387
0.931365 0.477562 0.567742
0.944976 0.548394 0.62356
0.955322 0.614404 0.673075
0.962676 0.666224 0.709941
0.968597 0.714092 0.744945
0.973037 0.750072 0.770947
0.977646 0.783261 0.795621
0.980316 0.807736 0.814847
0.982437 0.828244 0.831006
0.984466 0.845518 0.844633
0.986313 0.860334 0.856336
0.00463874 0.271443 0.0789044
0.00456245 0.272175 0.079057
0.00459297 0.272908 0.0791943
0.00637827 0.273411 0.0792859
0.00820935 0.27393 0.0793622
0.0102235 0.274052 0.0793622
0.0153964 0.27396 0.0791943
0.028748 0.275181 0.0780499
0.0625925 0.287678 0.0623026
0.286046 0.321843 0.00390631
0.476478 0.326085 0.00593576
0.594446 0.311315 0.0147402
0.662623 0.28632 0.0133364
0.71017 0.26537 0.0193179
0.748272 0.248631 0.0281071
0.78352 0.233616 0.0382849
0.812131 0.233387 0.0677348
0.834073 0.238224 0.120027
0.855116 0.267079 0.201144
0.875944 0.306966 0.292134
0.897978 0.361654 0.389105
0.918868 0.434211 0.48571
0.93698 0.505165 0.568643
0.948837 0.571847 0.627573
0.957977 0.632731 0.677333
0.964721 0.682445 0.714687
0.96997 0.726802 0.748714
0.974441 0.761715 0.774746
0.978424 0.793149 0.799008
0.980804 0.816083 0.817929
0.98294 0.836286 0.834195
0.984894 0.852888 0.847333
0.986725 0.867369 0.859022
0.00239567 0.328908 0.0916762
0.00238041 0.329488 0.0918135
0.00254826 0.33019 0.0919509
0.0043183 0.330831 0.0920272
0.00607309 0.331304 0.0920577
0.00787366 0.331579 0.0920577
0.0113222 0.331548 0.0919203
0.0194705 0.331456 0.0914626
0.0471962 0.33695 0.0893416
0.131075 0.371847 0.034638
0.384802 0.402609 0.00361639
0.560235 0.403464 0.0135042
0.658427 0.384604 0.0130007
0.712627 0.358572 0.0216526
0.750256 0.339254 0.0247501
0.785016 0.323735 0.0335851
0.818204 0.317647 0.0476387
0.847333 0.312459 0.0752728
0.871534 0.332647 0.155062
0.891264 0.362844 0.258518
0.909926 0.409873 0.364355
0.927932 0.472923 0.471992
0.943008 0.535515 0.563928
0.952895 0.596399 0.627939
0.960739 0.651789 0.679896
0.966628 0.697963 0.717906
0.971344 0.739315 0.75169
0.975753 0.772885 0.777829
0.979095 0.802182 0.801648
0.981277 0.823728 0.820035
0.983352 0.843397 0.836332
0.985245 0.859251 0.849042
0.987045 0.873487 0.860822
0.00366217 0.381292 0.101442
0.00373846 0.381826 0.101534
0.00407416 0.382437 0.101625
0.0059205 0.382956 0.101686
0.00773632 0.383444 0.101717
0.00953689 0.383764 0.101717
0.0117342 0.383688 0.101625
0.0147707 0.383093 0.101381
0.0331731 0.385611 0.101335
0.0671244 0.401923 0.0944991
0.225742 0.454612 0.0167239
0.512108 0.486503 0.00489815
0.647044 0.48249 0.0155489
0.716548 0.462181 0.0229343
0.757168 0.439628 0.0251316
0.79057 0.42089 0.0317693
0.82034 0.412009 0.0440681
0.852522 0.403311 0.0575418
0.885649 0.411048 0.10428
0.908034 0.426429 0.209995
0.923033 0.461158 0.329686
0.937224 0.512947 0.453025
0.949187 0.566781 0.556558
0.956939 0.620768 0.626505
0.963409 0.670542 0.681132
0.968429 0.712734 0.720043
0.972732 0.751629 0.754147
0.976883 0.783429 0.780453
0.97969 0.810575 0.803937
0.981735 0.831098 0.821927
0.983749 0.850233 0.838193
0.985565 0.865324 0.850568
0.987289 0.878843 0.862226
0.0153201 0.425071 0.110307
0.0153964 0.425498 0.110399
0.0158236 0.425956 0.110491
0.0177615 0.426337 0.110567
0.0196994 0.426642 0.110628
0.0216983 0.426734 0.110643
0.0239109 0.426596 0.110628
0.0262608 0.425986 0.110521
0.0353246 0.426612 0.110201
0.0506447 0.432944 0.109361
0.108522 0.471595 0.0747997
0.394812 0.537011 0.00679026
0.595605 0.556176 0.00741588
0.704921 0.548562 0.012726
0.757 0.531579 0.0195926
0.795102 0.512505 0.0228122
0.823529 0.498299 0.0425574
0.850507 0.48838 0.0552834
0.884062 0.490089 0.0758068
0.918593 0.493843 0.139498
0.937041 0.517983 0.270985
0.947845 0.55642 0.418784
0.955795 0.600443 0.537499
0.961624 0.647486 0.618082
0.966308 0.689769 0.677897
0.970443 0.727901 0.719387
0.974258 0.763653 0.754818
0.977859 0.792844 0.781247
0.980209 0.817975 0.805097
0.982238 0.837736 0.822797
0.984131 0.856275 0.839139
0.985901 0.870756 0.851362
0.987457 0.883238 0.863096
0.00598154 0.463081 0.11577
0.00578317 0.463554 0.115816
0.00601205 0.463935 0.115862
0.00787366 0.464225 0.115923
0.00978103 0.464454 0.115984
0.0117342 0.464591 0.11603
0.0138552 0.464485 0.11603
0.0162203 0.464073 0.115969
0.021973 0.463539 0.11577
0.0304417 0.46331 0.11548
0.0644236 0.481041 0.112047
0.217517 0.548562 0.0294347
0.507225 0.603876 0.00796521
0.677073 0.615335 0.00854505
0.749905 0.606104 0.024567
0.796155 0.592569 0.0227512
0.827924 0.57908 0.0290684
0.854078 0.566018 0.0535134
0.879469 0.5617 0.0740673
0.915618 0.559884 0.0948348
0.947707 0.571084 0.191608
0.95761 0.597238 0.376013
0.962783 0.633646 0.512291
0.966262 0.673259 0.606714
0.969131 0.707912 0.673075
0.972534 0.742519 0.717281
0.975769 0.77499 0.754589
0.978729 0.801633 0.781384
0.980743 0.824918 0.805707
0.982742 0.843946 0.82327
0.984497 0.861708 0.839673
0.986191 0.875517 0.851942
0.987625 0.887282 0.863737
0.00427253 0.49102 0.122011
0.00427253 0.49131 0.122087
0.00474556 0.491615 0.122164
0.00657664 0.491875 0.12221
0.00842298 0.492103 0.122255
0.0102693 0.492271 0.122301
0.012192 0.49221 0.122271
0.0142061 0.491997 0.12221
0.0178225 0.4916 0.122026
0.0226139 0.491066 0.121736
0.0495918 0.497673 0.120943
0.0939956 0.528588 0.109606
0.3579 0.612665 0.0155642
0.614649 0.656504 0.0090486
0.7243 0.659449 0.0203861
0.786313 0.651133 0.0328527
0.824033 0.641047 0.0345617
0.854368 0.630442 0.0446021
0.87892 0.623224 0.0696574
0.904982 0.618662 0.0893721
0.944228 0.622934 0.124163
0.967071 0.637491 0.295964
0.970642 0.667613 0.468589
0.97084 0.698177 0.584314
0.972366 0.728023 0.661906
0.97499 0.758526 0.711452
0.977371 0.786236 0.751369
0.979629 0.810132 0.779614
0.981369 0.83154 0.804746
0.983276 0.84976 0.822736
0.984863 0.866621 0.839414
0.986435 0.879515 0.851881
0.987839 0.890852 0.863813
0.00411994 0.515099 0.127413
0.00419623 0.515389 0.127459
0.00480659 0.515648 0.127504
0.00669871 0.515846 0.127535
0.00860609 0.51606 0.12755
0.0105287 0.516213 0.127581
0.0125277 0.516228 0.127565
0.0145724 0.516136 0.127504
0.0175021 0.515785 0.127352
0.0209812 0.515297 0.127138
0.036286 0.515923 0.126726
0.0605783 0.523934 0.126009
0.186755 0.594858 0.0626688
0.518257 0.675715 0.011902
0.679789 0.697841 0.0201114
0.769177 0.698772 0.0349279
0.816464 0.692424 0.0431525
0.851484 0.683894 0.0514687
0.878401 0.677073 0.0660105
0.901106 0.670329 0.090898
0.930098 0.66865 0.11191
0.967926 0.675517 0.18967
0.975723 0.695521 0.405173
0.975708 0.721736 0.552575
0.975662 0.748028 0.646708
0.977462 0.774792 0.704005
0.978912 0.797162 0.747005
0.980499 0.818357 0.77705
0.98204 0.837995 0.803235
0.983764 0.855207 0.82182
0.985245 0.871321 0.839033
0.986648 0.88307 0.851545
0.988037 0.894255 0.863783
0.00953689 0.534157 0.132097
0.00961318 0.534371 0.132174
0.0102998 0.5346 0.132265
0.0122072 0.534813 0.132326
0.0141146 0.534997 0.132403
0.016022 0.535119 0.132448
0.0180056 0.535149 0.132479
0.0200198 0.535088 0.132464
0.0225376 0.534829 0.132357
0.0253605 0.534447 0.132189
0.035172 0.534081 0.131945
0.0484016 0.536171 0.131975
0.116411 0.579568 0.111727
0.367361 0.666972 0.0212558
0.595163 0.713649 0.0184024
0.735653 0.730602 0.0393683
0.801083 0.728969 0.0515145
0.840757 0.722805 0.056733
0.870375 0.717113 0.068986
0.895415 0.712337 0.0877241
0.920867 0.708965 0.116106
0.955871 0.711803 0.133303
0.978958 0.723613 0.290959
0.980972 0.745525 0.496559
0.979934 0.76907 0.618463
0.979706 0.790372 0.690425
0.980575 0.809308 0.739147
0.981598 0.827787 0.772473
0.982864 0.845151 0.800137
0.984329 0.860975 0.819715
0.985641 0.875929 0.837858
0.986908 0.886641 0.850599
0.98822 0.897383 0.863096
0.0148318 0.551797 0.13875
0.0148928 0.552026 0.138827
0.0156405 0.552254 0.138918
0.0175631 0.552483 0.138994
0.0194705 0.552682 0.139071
0.0214084 0.552834 0.139132
0.0233921 0.552865 0.139132
0.025452 0.552865 0.139116
0.0280003 0.552682 0.138979
0.0307774 0.552422 0.138781
0.0378119 0.551904 0.138415
0.0475624 0.552087 0.138109
0.0859541 0.574304 0.13521
0.184787 0.635676 0.0704967
0.477714 0.711284 0.0265049
0.685832 0.749554 0.035996
0.777234 0.757183 0.05626
0.826978 0.755688 0.0614786
0.861341 0.751278 0.0695354
0.887785 0.745846 0.086183
0.914534 0.742046 0.108965
0.941085 0.741939 0.141405
0.974258 0.749325 0.184558
0.983398 0.765499 0.412467
0.983703 0.786816 0.575677
0.982147 0.805386 0.669322
0.982208 0.821332 0.727489
0.982834 0.837354 0.765988
0.983764 0.852583 0.795926
0.984924 0.86685 0.817044
0.985931 0.879805 0.83595
0.987167 0.89012 0.849332
0.988342 0.899809 0.86157
0.0179141 0.567239 0.147341
0.0179294 0.567407 0.147478
0.0187076 0.56759 0.147646
0.0206149 0.567758 0.147768
0.0225376 0.56791 0.147906
0.0244755 0.568032 0.148028
0.0265049 0.568063 0.148058
0.0286412 0.568048 0.148074
0.03122 0.56791 0.147997
0.0340276 0.567742 0.147875
0.0394598 0.56733 0.147539
0.0470436 0.566979 0.147127
0.0758373 0.576349 0.145892
0.103243 0.61091 0.132387
0.348775 0.697108 0.0395514
0.617823 0.757122 0.0355688
0.739391 0.774716 0.0565347
0.80766 0.778454 0.0678569
0.848829 0.775937 0.0747692
0.878767 0.772381 0.0869917
0.906218 0.76939 0.106737
0.931243 0.768048 0.141787
0.962386 0.770397 0.151324
0.98172 0.782727 0.297276
0.98587 0.801602 0.514656
0.984894 0.819471 0.635798
0.984039 0.833463 0.710765
0.984237 0.847333 0.756268
0.984649 0.860227 0.790219
0.98558 0.873075 0.813565
0.986282 0.884031 0.833539
0.987472 0.893797 0.847669
0.988479 0.902403 0.859663
0.020264 0.580118 0.158892
0.0202945 0.580301 0.159045
0.021149 0.580468 0.159197
0.0230716 0.580606 0.159319
0.0249943 0.580758 0.159442
0.0269474 0.58088 0.159548
0.0289921 0.580926 0.159594
0.0311437 0.580941 0.159579
0.0337072 0.58085 0.159472
0.0364538 0.580728 0.159304
0.0413825 0.580453 0.158984
0.0479896 0.580118 0.158602
0.0666209 0.582742 0.157443
0.0858015 0.601648 0.154696
0.222751 0.675975 0.0764935
0.523339 0.751461 0.0410773
0.685954 0.78381 0.0562753
0.780987 0.795193 0.0744793
0.832532 0.796201 0.083299
0.866255 0.793927 0.0903487
0.895567 0.79147 0.104646
0.921508 0.791028 0.136736
0.950423 0.791653 0.159686
0.975586 0.800687 0.204761
0.986297 0.816083 0.432944
0.987381 0.833783 0.581582
0.986465 0.84712 0.683848
0.985901 0.858442 0.740627
0.985748 0.869169 0.781155
0.986191 0.879667 0.807782
0.986694 0.889006 0.829938
0.987793 0.897978 0.845197
0.988663 0.905318 0.857221
0.022858 0.59321 0.172549
0.0228885 0.593362 0.172778
0.0238651 0.593606 0.173236
0.0258793 0.593973 0.174044
0.027863 0.594202 0.174517
0.0298314 0.594308 0.174716
0.0319066 0.594369 0.174807
0.0340734 0.594385 0.174853
0.0366217 0.594293 0.174746
0.0393225 0.594217 0.17464
0.0437781 0.593988 0.17435
0.0493324 0.593698 0.173983
0.061387 0.593591 0.173281
0.0764935 0.600946 0.172107
0.129152 0.655711 0.139834
0.40557 0.737057 0.0569467
0.611551 0.783658 0.0587472
0.742901 0.806668 0.0810407
0.810925 0.812711 0.094728
0.851453 0.813397 0.100389
0.884443 0.811627 0.110323
0.912276 0.810605 0.136095
0.939269 0.81088 0.163912
0.966949 0.816663 0.16672
0.984894 0.829511 0.333486
0.98761 0.845335 0.510521
0.988602 0.85977 0.642435
0.987762 0.869688 0.717525
0.986755 0.877882 0.768368
0.986786 0.88632 0.799527
0.987152 0.894347 0.824781
0.988128 0.902495 0.841886
0.988876 0.90866 0.854337
0.0254826 0.604074 0.194797
0.0255131 0.604227 0.195117
0.026627 0.60502 0.197208
0.0288853 0.606439 0.201022
0.0310979 0.607111 0.202731
0.033051 0.607217 0.203006
0.035111 0.607248 0.203098
0.037232 0.607263 0.203113
0.0397955 0.607156 0.20296
0.0424811 0.607004 0.202701
0.0469368 0.60679 0.202335
0.0523995 0.606485 0.201831
0.0632334 0.605982 0.200977
0.0768749 0.60885 0.199588
0.106188 0.645365 0.189563
0.253407 0.712032 0.0985428
0.514443 0.774273 0.0730907
0.688914 0.81033 0.0908522
0.779843 0.823575 0.110262
0.833616 0.828107 0.120607
0.87335 0.828611 0.129244
0.901946 0.828626 0.145998
0.928725 0.829084 0.16556
0.95697 0.833143 0.166232
0.980758 0.84184 0.256046
0.985809 0.85481 0.433585
0.989593 0.870115 0.584848
0.989425 0.880903 0.682261
0.988006 0.887709 0.747005
0.98761 0.894636 0.785748
0.987762 0.901122 0.816251
0.988586 0.90811 0.836271
0.989181 0.913085 0.850217
0.0296635 0.616571 0.223697
0.0297551 0.61677 0.22417
0.0316777 0.618265 0.228199
0.0353552 0.620905 0.235309
0.0378424 0.621912 0.238056
0.0399786 0.622019 0.238346
0.0422675 0.622003 0.23827
0.0444648 0.621988 0.238209
0.047013 0.621881 0.237949
0.0496681 0.621775 0.237629
0.0538033 0.621515 0.236988
0.0588083 0.621164 0.236194
0.0677195 0.620539 0.234943
0.0802014 0.620356 0.233539
0.0994125 0.64065 0.229374
0.140063 0.684092 0.199298
0.391394 0.761791 0.099855
0.625711 0.811048 0.103685
0.739513 0.83093 0.124636
0.810925 0.839673 0.139727
0.859724 0.843427 0.149874
0.891524 0.844511 0.160052
0.920119 0.845487 0.171771
0.948623 0.849104 0.172183
0.974472 0.855421 0.223117
0.98291 0.865538 0.369238
0.989105 0.87895 0.525322
0.990799 0.890593 0.636439
0.989654 0.897597 0.719265
0.988617 0.90312 0.767529
0.988403 0.90808 0.805203
0.989075 0.913725 0.828992
0.989517 0.917739 0.84535
0.0301061 0.634363 0.277836
0.0299535 0.634653 0.278676
0.0309911 0.635904 0.282445
0.0328527 0.637842 0.288304
0.034699 0.638468 0.290257
0.0365454 0.63859 0.2907
0.0384985 0.638605 0.290822
0.0404974 0.63856 0.29073
0.0428626 0.638407 0.290349
0.0453498 0.638224 0.289906
0.0491188 0.637903 0.289082
0.053727 0.637461 0.28809
0.0618753 0.636713 0.286671
0.0738994 0.635752 0.284779
0.114046 0.647913 0.284291
0.144045 0.678141 0.2757
0.279942 0.760357 0.15967
0.558755 0.813474 0.128206
0.693812 0.836973 0.14107
0.783139 0.849775 0.160388
0.844266 0.856092 0.172702
0.883741 0.859052 0.177096
0.916426 0.860807 0.176928
0.943481 0.8645 0.175219
0.965652 0.868711 0.219013
0.977676 0.876814 0.33724
0.987655 0.887266 0.473503
0.990646 0.898741 0.586618
0.991379 0.907439 0.685161
0.990127 0.912474 0.74313
0.989136 0.916472 0.789364
0.989746 0.920653 0.817761
0.990036 0.923827 0.838254
0.0395666 0.655985 0.349905
0.0397803 0.656291 0.350912
0.0412299 0.656611 0.351995
0.0434577 0.656962 0.353307
0.045594 0.657115 0.353979
0.0476997 0.657191 0.354437
0.0498512 0.657191 0.354589
0.0520333 0.65713 0.354589
0.0545205 0.656947 0.354162
0.0571756 0.656748 0.35375
0.0610513 0.656413 0.353033
0.0658579 0.655955 0.352087
0.0737316 0.6551 0.350362
0.0843824 0.654108 0.34815
0.104692 0.660807 0.34551
0.127642 0.682841 0.344442
0.181689 0.75021 0.303593
0.457664 0.819013 0.194263
0.635447 0.848264 0.164385
0.749645 0.863371 0.165682
0.827131 0.871702 0.168872
0.876616 0.875425 0.171801
0.913069 0.877363 0.17525
0.936996 0.879149 0.191196
0.95758 0.881331 0.22858
0.972641 0.887877 0.323735
0.985183 0.895735 0.434455
0.98941 0.906371 0.544427
0.992187 0.915953 0.648096
0.991836 0.921431 0.717281
0.990265 0.92488 0.768872
0.990372 0.927825 0.803647
0.990616 0.930159 0.830564
0.0630503 0.670939 0.398444
0.0633402 0.671107 0.398962
0.0654917 0.671763 0.401312
0.0685893 0.672694 0.404578
0.0710155 0.672923 0.40557
0.0732128 0.672862 0.405676
0.0755169 0.672755 0.40557
0.0778821 0.672602 0.405341
0.0806439 0.672343 0.404852
0.0836194 0.672023 0.404257
0.0879072 0.671504 0.403296
0.0930953 0.670878 0.402121
0.101076 0.670161 0.400351
0.110521 0.671397 0.398627
0.121721 0.688121 0.399939
0.148989 0.710597 0.400778
0.196246 0.768963 0.377508
0.406027 0.828382 0.311528
0.591592 0.85716 0.27599
0.715984 0.874891 0.253773
0.803891 0.885435 0.237385
0.865278 0.890684 0.224735
0.907774 0.893248 0.220386
0.934447 0.895155 0.239139
0.954131 0.896544 0.280247
0.967071 0.900649 0.358618
0.978912 0.905089 0.429129
0.985443 0.913375 0.52221
0.991424 0.922255 0.614588
0.992782 0.928725 0.689281
0.991669 0.93254 0.74667
0.990936 0.935195 0.786603
0.991043 0.936996 0.820737
0.0788739 0.686702 0.444755
0.079057 0.686915 0.445396
0.0814527 0.688289 0.450065
0.0846723 0.690166 0.456443
0.0869306 0.690532 0.457893
0.0889448 0.690517 0.458137
0.0910048 0.69041 0.458015
0.0930953 0.690227 0.457816
0.095552 0.68986 0.457176
0.0982834 0.689479 0.45655
0.102388 0.68896 0.455543
0.107439 0.690013 0.455268
0.114824 0.694255 0.456123
0.124285 0.703014 0.458442
0.143282 0.720668 0.462165
