public/textures/LUTs/TROPIC COLOUR - BEST OF LOOKS (telegram - @creativecashe)-1/TROPIC COLOUR - BEST OF LOOKS/TC - TEAL & ORANGE LOOKS/TC - PRISMA.cube
TITLE "Generated by Resolve"
LUT_3D_SIZE 33
0.0141909 0.0531014 0.0678111
0.0151064 0.0530861 0.0677958
0.016022 0.0530861 0.0677958
0.0237736 0.0534371 0.0681163
0.0336004 0.0539559 0.0686351
0.0542611 0.0558633 0.0716564
0.103792 0.062211 0.0753185
0.190524 0.0732738 0.0774853
0.317449 0.0793164 0.0745403
0.426902 0.0628977 0.0627909
0.504082 0.02916 0.0547036
0.563668 0.0115206 0.0536965
0.60972 0.0113527 0.0585489
0.645304 0.0112764 0.0656443
0.671794 0.0120394 0.0779583
0.694804 0.0137636 0.0984817
0.717601 0.0163424 0.121859
0.741207 0.0222477 0.159594
0.764721 0.0336004 0.199756
0.78703 0.0696422 0.254505
0.804013 0.107713 0.306645
0.818036 0.145052 0.34992
0.833219 0.196017 0.396353
0.848783 0.248295 0.443122
0.863645 0.297978 0.487587
0.876799 0.345006 0.523537
0.887953 0.389105 0.550576
0.898756 0.431388 0.574731
0.908278 0.471321 0.597574
0.916411 0.508278 0.620111
0.922515 0.538506 0.638254
0.927764 0.565408 0.655009
0.932586 0.59057 0.671489
0.0143435 0.0543984 0.0675822
0.0152132 0.0543832 0.0675822
0.0160983 0.0543832 0.0675975
0.0237125 0.0547951 0.0679026
0.0333257 0.0553902 0.0683757
0.0529183 0.0573129 0.0711833
0.10251 0.0638437 0.0748302
0.190066 0.0752575 0.0770275
0.318166 0.0814221 0.0738079
0.428061 0.0658122 0.0616465
0.505882 0.0323491 0.053315
0.565621 0.0136568 0.052079
0.611811 0.0131075 0.0568246
0.647425 0.0127108 0.0640269
0.673976 0.0132906 0.0765393
0.697124 0.0148623 0.0965591
0.71989 0.0173648 0.120729
0.743557 0.0240482 0.159091
0.766857 0.0381933 0.199756
0.78909 0.0758831 0.254627
0.805905 0.114061 0.306477
0.819867 0.152117 0.349584
0.835096 0.203738 0.395499
0.850675 0.255604 0.442283
0.865507 0.305211 0.486473
0.878676 0.352392 0.52224
0.889845 0.396384 0.549187
0.900526 0.438117 0.573541
0.909804 0.477867 0.596414
0.917937 0.514885 0.619196
0.923949 0.544854 0.637522
0.929122 0.571618 0.654475
0.933867 0.596735 0.671016
0.0144961 0.0557259 0.0673381
0.0153201 0.0557107 0.0673686
0.0161746 0.0556954 0.0673686
0.0236362 0.0561837 0.0676738
0.03299 0.0568551 0.068101
0.0516213 0.0588083 0.070634
0.100908 0.0654917 0.0743114
0.189044 0.0771954 0.076524
0.317861 0.0836347 0.073106
0.429023 0.068864 0.0604562
0.507134 0.0363317 0.0518807
0.56733 0.0160372 0.05037
0.613657 0.0149538 0.0549477
0.649516 0.0142061 0.0622721
0.676097 0.0146334 0.0744335
0.699321 0.0159762 0.0943008
0.722148 0.0184329 0.119402
0.745815 0.0258793 0.158267
0.768948 0.0429847 0.199313
0.791058 0.0821088 0.254078
0.807797 0.120607 0.305699
0.821729 0.159396 0.34902
0.836942 0.211505 0.3944
0.852583 0.263035 0.440955
0.867399 0.312551 0.484886
0.880613 0.359945 0.520409
0.891737 0.403708 0.547448
0.902403 0.445258 0.571939
0.911391 0.484764 0.59498
0.919509 0.521691 0.618006
0.925444 0.5514 0.636698
0.93048 0.578012 0.653712
0.935073 0.603067 0.670039
0.0161288 0.0669871 0.0659037
0.0169223 0.0669566 0.0659342
0.0177157 0.0668498 0.0659648
0.0244297 0.0669108 0.0662394
0.0327306 0.0670024 0.0665293
0.048249 0.0676432 0.0684672
0.094789 0.0726329 0.0727398
0.184863 0.0836957 0.0753643
0.315816 0.0896468 0.0715496
0.42916 0.0753796 0.057969
0.508751 0.0441901 0.0490883
0.569421 0.0203861 0.0472267
0.616251 0.0180514 0.051606
0.652293 0.0167391 0.0589456
0.67895 0.0166629 0.0703136
0.702327 0.0175326 0.0906539
0.725063 0.0204471 0.116213
0.748684 0.0285191 0.156649
0.771588 0.0491798 0.198306
0.793561 0.0899977 0.253346
0.810269 0.129046 0.305089
0.824094 0.168719 0.34847
0.839277 0.221225 0.393362
0.854948 0.272221 0.439689
0.869734 0.32163 0.48365
0.882948 0.369116 0.518914
0.894072 0.412802 0.546014
0.904646 0.453803 0.570687
0.913298 0.493065 0.593896
0.92134 0.529809 0.617319
0.927199 0.559289 0.636316
0.932052 0.58555 0.6533
0.936461 0.610513 0.669596
0.0190738 0.081239 0.0643626
0.019852 0.0809949 0.0643931
0.0206302 0.0807507 0.0644083
0.0264439 0.0801404 0.0645609
0.0335088 0.079469 0.064744
0.0456092 0.0785229 0.065919
0.0872969 0.0819104 0.0706798
0.17937 0.0918441 0.0738231
0.313115 0.09691 0.0696574
0.429328 0.0827649 0.0550546
0.510277 0.0534371 0.0459907
0.571603 0.0258335 0.0436713
0.618906 0.0221561 0.0475929
0.655283 0.019913 0.054612
0.682078 0.0189212 0.0656138
0.705577 0.0192874 0.0864118
0.728344 0.0229038 0.112398
0.751583 0.0322728 0.15462
0.774304 0.055848 0.196933
0.796201 0.0984054 0.252461
0.81294 0.138582 0.304341
0.826612 0.178637 0.347585
0.841871 0.231113 0.392203
0.85745 0.28159 0.438102
0.872328 0.331197 0.481895
0.885496 0.378592 0.517296
0.896498 0.421805 0.544488
0.906783 0.462623 0.569421
0.915312 0.501808 0.593088
0.923186 0.53814 0.616846
0.928985 0.567376 0.636133
0.93373 0.593606 0.653208
0.937911 0.618326 0.66923
0.0168612 0.0985733 0.0630503
0.0176852 0.0983444 0.0630655
0.0185245 0.0980697 0.0630808
0.0230259 0.0972915 0.0631266
0.0285649 0.0963302 0.0632029
0.0393683 0.0940414 0.0635691
0.0682231 0.0968948 0.0670634
0.157549 0.106661 0.0704051
0.299992 0.1149 0.0652934
0.427604 0.104753 0.0472267
0.513344 0.0817426 0.0378576
0.576104 0.0505074 0.0347906
0.624979 0.0377508 0.0368963
0.661875 0.0297093 0.0436408
0.68867 0.0252232 0.0540475
0.712215 0.0247349 0.0744945
0.734264 0.0276036 0.1037
0.756359 0.0423743 0.14902
0.778866 0.0677348 0.193606
0.800549 0.112627 0.249561
0.817304 0.154345 0.302327
0.830808 0.195102 0.345556
0.846067 0.246128 0.390463
0.861372 0.295842 0.436164
0.876158 0.34522 0.479835
0.889128 0.392096 0.515694
0.899931 0.434577 0.543465
0.909606 0.474739 0.568734
0.917983 0.513283 0.593103
0.92546 0.54902 0.617136
0.931151 0.577935 0.636881
0.935744 0.603922 0.654124
0.939712 0.628321 0.670024
0.012604 0.119753 0.063508
0.0133822 0.119585 0.0634775
0.0141909 0.119417 0.0634775
0.0165408 0.118776 0.0634318
0.0193484 0.118059 0.0633707
0.029099 0.115984 0.0632181
0.0446326 0.117678 0.06421
0.122637 0.129702 0.0659495
0.275181 0.142016 0.0589456
0.420111 0.138125 0.03093
0.515953 0.123659 0.0233158
0.580697 0.10219 0.021973
0.630869 0.0760662 0.0204166
0.669032 0.05243 0.0275731
0.697002 0.0378882 0.0376898
0.720577 0.0352178 0.0583352
0.741314 0.0390021 0.0910506
0.762554 0.0562753 0.140475
0.784512 0.0840925 0.187762
0.80621 0.131579 0.245365
0.822934 0.175326 0.29897
0.836179 0.216114 0.34258
0.851408 0.265354 0.38819
0.86627 0.313787 0.433768
0.880919 0.36286 0.477623
0.893629 0.408988 0.514321
0.904097 0.450202 0.542687
0.913008 0.489586 0.568383
0.921233 0.527367 0.593851
0.928191 0.562158 0.618357
0.933486 0.590509 0.638193
0.937926 0.616098 0.655528
0.941817 0.640192 0.671626
0.0108034 0.148791 0.0689097
0.0115816 0.14873 0.0688945
0.0123598 0.148608 0.068864
0.013489 0.148013 0.0687114
0.0146944 0.147387 0.0685588
0.022858 0.145525 0.0680858
0.0350042 0.143954 0.0676127
0.0681773 0.153933 0.0661326
0.220523 0.173449 0.0549325
0.394095 0.178866 0.0204318
0.509972 0.17026 0.00714122
0.581415 0.158404 0.0100862
0.635416 0.137346 0.00898756
0.675517 0.105257 0.012253
0.705699 0.075639 0.0191958
0.730617 0.0635843 0.0369268
0.751888 0.0630503 0.0689555
0.772107 0.0816052 0.121752
0.792889 0.109895 0.175174
0.814115 0.160739 0.235904
0.830198 0.204044 0.290562
0.843366 0.242618 0.335134
0.858015 0.289265 0.381537
0.872496 0.335897 0.427695
0.886656 0.383352 0.473274
0.89868 0.427512 0.511284
0.908492 0.467704 0.541024
0.916838 0.506249 0.567712
0.924666 0.542489 0.594247
0.931182 0.576394 0.619593
0.936019 0.604135 0.639307
0.94023 0.629206 0.656672
0.94403 0.652781 0.673121
0.0105898 0.187839 0.0794842
0.011368 0.187854 0.0794995
0.0121309 0.187701 0.0794537
0.0130312 0.187198 0.0793317
0.0139467 0.186603 0.0791485
0.0189822 0.184787 0.078645
0.0268254 0.182254 0.0779278
0.0380255 0.182681 0.0769207
0.127169 0.20766 0.057435
0.340917 0.229801 0.0178378
0.484688 0.230411 0.00256352
0.57232 0.225925 0.00602731
0.634775 0.213947 0.00970474
0.679454 0.19556 0.00891127
0.710826 0.172702 0.0107576
0.739513 0.14435 0.0187076
0.764691 0.120897 0.0382239
0.786404 0.129397 0.0868849
0.80528 0.153948 0.149813
0.825345 0.204273 0.217243
0.840879 0.242924 0.274922
0.853483 0.277592 0.321202
0.866926 0.3205 0.368719
0.880507 0.364019 0.417273
0.893553 0.408103 0.465812
0.904524 0.449104 0.506355
0.91339 0.488106 0.537713
0.921263 0.52517 0.566186
0.928389 0.559762 0.594186
0.934234 0.592172 0.619974
0.93875 0.619074 0.639841
0.942763 0.643427 0.657526
0.946395 0.666392 0.674525
0.00939956 0.230289 0.0914778
0.0101625 0.230381 0.0915084
0.010956 0.230259 0.0914778
0.0118257 0.229816 0.0913558
0.0126955 0.229297 0.0912032
0.0157015 0.227588 0.0907301
0.0201572 0.22536 0.0900893
0.0316472 0.222232 0.0891127
0.0551919 0.239521 0.0757763
0.253422 0.279438 0.0172732
0.445869 0.292256 0.00210575
0.558526 0.292683 0.00637827
0.628611 0.284657 0.017731
0.678508 0.271077 0.0139773
0.712215 0.254124 0.00988785
0.740749 0.232609 0.01355
0.771008 0.204318 0.0205081
0.798566 0.195712 0.0505226
0.818128 0.2065 0.113756
0.837674 0.248096 0.191699
0.852384 0.280888 0.254871
0.864027 0.312184 0.303334
0.87631 0.351461 0.35256
0.88864 0.39147 0.404791
0.900023 0.431281 0.456947
0.909926 0.470222 0.500359
0.91809 0.507759 0.533379
0.925505 0.543313 0.564034
0.931868 0.576043 0.593362
0.936996 0.606867 0.619501
0.941375 0.63299 0.639582
0.945251 0.656779 0.657862
0.948547 0.679103 0.675578
0.00489815 0.273747 0.104524
0.0056611 0.273869 0.104555
0.00643931 0.273716 0.104494
0.00721752 0.273259 0.104341
0.00801099 0.272953 0.10425
0.00991836 0.27155 0.103761
0.012604 0.269688 0.10312
0.02121 0.26685 0.102144
0.0405432 0.270924 0.100862
0.0948806 0.305592 0.0585336
0.351186 0.34905 0.00201419
0.525902 0.358663 0.00820935
0.620127 0.354833 0.0140383
0.679988 0.343908 0.0143282
0.717845 0.329076 0.0105898
0.74345 0.313222 0.0124666
0.772381 0.295552 0.0165866
0.805432 0.282322 0.0266117
0.834424 0.276249 0.0572671
0.854383 0.303853 0.143938
0.867277 0.328878 0.217258
0.87715 0.354482 0.271077
0.8878 0.388663 0.325429
0.897978 0.422843 0.382528
0.907668 0.458442 0.44065
0.916091 0.494102 0.488289
0.923339 0.529213 0.523796
0.929915 0.562341 0.557168
0.935409 0.592676 0.588266
0.939925 0.621836 0.616159
0.944167 0.646983 0.636881
0.947738 0.669627 0.655711
0.950607 0.690822 0.674189
0.00489815 0.316243 0.117647
0.0056611 0.316365 0.117693
0.00646983 0.316396 0.117693
0.00727855 0.316121 0.117617
0.00810254 0.315831 0.11754
0.00939956 0.314748 0.11722
0.0109865 0.313329 0.116823
0.0175784 0.311254 0.116213
0.0311742 0.309667 0.115343
0.0492103 0.325429 0.108125
0.20441 0.389303 0.0166323
0.486152 0.423682 0.00610361
0.608911 0.425574 0.017792
0.684718 0.419074 0.0106813
0.730068 0.405112 0.014847
0.755611 0.388907 0.0195315
0.779187 0.374334 0.0210117
0.806943 0.36286 0.0243381
0.839994 0.351049 0.0346075
0.868376 0.361883 0.0908217
0.881636 0.37705 0.172702
0.89012 0.395941 0.235767
0.899062 0.42388 0.297368
0.907347 0.454154 0.360983
0.915236 0.48539 0.424842
0.922118 0.517296 0.476783
0.928435 0.550088 0.514794
0.934173 0.58088 0.550652
0.938796 0.608988 0.583078
0.943023 0.636301 0.612222
0.946929 0.660365 0.633997
0.950118 0.682139 0.653605
0.95256 0.702281 0.672602
0.00660716 0.353124 0.128542
0.00740063 0.353246 0.128588
0.00817884 0.353216 0.128573
0.00891127 0.353033 0.128511
0.0096437 0.35285 0.128466
0.0103151 0.352193 0.128252
0.0109865 0.35111 0.127932
0.0152438 0.349569 0.127459
0.0245823 0.347082 0.126696
0.0394598 0.35111 0.125948
0.0873884 0.399176 0.086244
0.381842 0.467781 0.00531014
0.564569 0.485267 0.0074464
0.669444 0.485191 0.0175479
0.737179 0.476326 0.012665
0.766903 0.460441 0.027863
0.791699 0.44509 0.0284276
0.812634 0.434653 0.0299229
0.839506 0.424262 0.0307622
0.872984 0.425315 0.0530861
0.892866 0.430518 0.111543
0.903487 0.443 0.178683
0.911803 0.46569 0.252979
0.918624 0.490959 0.326131
0.924422 0.517159 0.398718
0.92958 0.544839 0.456123
0.934615 0.573953 0.497459
0.939269 0.601221 0.535683
0.943038 0.627253 0.571405
0.946746 0.652445 0.603418
0.950195 0.674739 0.626368
0.952895 0.695033 0.647105
0.954818 0.713924 0.667445
0.0198215 0.384176 0.138155
0.0205844 0.384237 0.13817
0.0213626 0.384298 0.138186
0.0220798 0.384161 0.138155
0.022797 0.384009 0.138094
0.0234226 0.383505 0.137926
0.0239872 0.382773 0.137697
0.0264134 0.381613 0.137316
0.0314031 0.37998 0.136782
0.038941 0.379324 0.136278
0.0531624 0.401297 0.129854
0.207904 0.480476 0.0301671
0.481956 0.530343 0.00512703
0.637781 0.544076 0.00830091
0.734188 0.541085 0.0128176
0.776989 0.527962 0.0168307
0.803967 0.512474 0.0283513
0.823758 0.501076 0.0301061
0.843381 0.491737 0.031693
0.871504 0.490944 0.0395361
0.897429 0.489219 0.0612955
0.913405 0.495232 0.112398
0.924773 0.510628 0.193118
0.930694 0.530205 0.279759
0.934676 0.551369 0.364324
0.938079 0.574655 0.429801
0.941772 0.599496 0.474678
0.945266 0.623636 0.516121
0.948272 0.647181 0.555245
0.950957 0.669291 0.590829
0.953811 0.689616 0.615763
0.955856 0.708217 0.638086
0.957107 0.725307 0.659693
0.0165103 0.412558 0.145937
0.0172427 0.412665 0.145968
0.0180056 0.412726 0.145983
0.0188602 0.41265 0.145968
0.0196994 0.412573 0.145953
0.020737 0.412222 0.145846
0.0218967 0.411734 0.145708
0.0239109 0.410971 0.145495
0.0270848 0.409812 0.145174
0.0333257 0.408591 0.144823
0.0488594 0.412451 0.144183
0.066392 0.459968 0.12253
0.323339 0.547295 0.0108034
0.583169 0.590677 0.00325017
0.717983 0.599725 0.00849927
0.780941 0.590295 0.0164492
0.815198 0.577401 0.0163577
0.835538 0.565621 0.0222171
0.854337 0.555261 0.029221
0.873289 0.553048 0.0415961
0.89514 0.54934 0.0472267
0.914961 0.551003 0.0673838
0.933761 0.559396 0.120409
0.943191 0.571893 0.211643
0.945602 0.587808 0.318166
0.947906 0.606622 0.395285
0.950393 0.628489 0.445716
0.952697 0.649546 0.491524
0.954314 0.669215 0.534569
0.955825 0.6878 0.574197
0.957855 0.705745 0.601587
0.959167 0.722362 0.625772
0.959777 0.737774 0.649195
0.00366217 0.436332 0.152499
0.00434882 0.436454 0.152529
0.00512703 0.4365 0.152544
0.00590524 0.4365 0.152529
0.00671397 0.436454 0.152514
0.00759899 0.436255 0.152438
0.00854505 0.435935 0.152316
0.00996414 0.435477 0.152132
0.0120546 0.434775 0.151858
0.016144 0.433997 0.151583
0.0281987 0.433188 0.151202
0.0397803 0.441413 0.150301
0.121431 0.50985 0.0914778
0.455558 0.60798 0.0135042
0.665141 0.643458 0.00706493
0.762768 0.644617 0.0127108
0.815976 0.635889 0.029633
0.842847 0.625849 0.0244602
0.865034 0.616754 0.0229648
0.880201 0.613947 0.0370642
0.894499 0.611078 0.0497749
0.91046 0.611414 0.0553445
0.932967 0.615427 0.064683
0.952163 0.622629 0.116579
0.959716 0.633234 0.224582
0.961379 0.647669 0.328176
0.962112 0.665232 0.393942
0.962432 0.681743 0.447898
0.962631 0.696971 0.497642
0.962356 0.711269 0.544335
0.963348 0.726009 0.575418
0.963928 0.740368 0.602426
0.963882 0.754101 0.628794
0.000854505 0.45626 0.159609
0.00163272 0.456336 0.15964
0.00242618 0.456382 0.159655
0.00325017 0.456382 0.159655
0.0040589 0.456367 0.159655
0.00491341 0.456275 0.159609
0.00579843 0.456046 0.159518
0.00688182 0.455772 0.159396
0.00823987 0.45536 0.159213
0.0104829 0.454887 0.159014
0.0161898 0.454246 0.158724
0.0218509 0.45359 0.158404
0.0457618 0.474739 0.153414
0.237903 0.58764 0.0367132
0.57908 0.668391 0.00628672
0.725734 0.688914 0.0144198
0.812451 0.690211 0.027863
0.846433 0.68098 0.0383764
0.872328 0.673304 0.0367742
0.888106 0.669322 0.0431525
0.900252 0.66601 0.0524147
0.910552 0.665675 0.0659495
0.926329 0.667536 0.0695354
0.948089 0.670527 0.0714885
0.966766 0.676066 0.123369
0.972839 0.685878 0.231662
0.972686 0.698405 0.326863
0.971511 0.710719 0.398428
0.970443 0.722774 0.457328
0.968963 0.734112 0.510781
0.969024 0.7467 0.545861
0.968933 0.759182 0.576074
0.968368 0.770993 0.605417
0.00360113 0.469993 0.165026
0.00442512 0.470085 0.165057
0.00526436 0.470115 0.165057
0.00610361 0.470115 0.165057
0.0069276 0.4701 0.165042
0.0077821 0.470024 0.165011
0.00865187 0.469886 0.164965
0.00965896 0.469703 0.164889
0.0108644 0.469444 0.164767
0.0125887 0.469139 0.164645
0.016434 0.468711 0.164462
0.0202182 0.468299 0.164279
0.0364996 0.473701 0.163958
0.0862593 0.528939 0.13753
0.369177 0.641855 0.0238193
0.635615 0.704189 0.00874342
0.786526 0.724422 0.0336767
0.838148 0.721218 0.0455634
0.869642 0.716686 0.0495613
0.888823 0.713283 0.0552377
0.903044 0.711955 0.0622263
0.913344 0.711742 0.0722667
0.924208 0.712673 0.0852827
0.939712 0.714977 0.0782635
0.960052 0.718334 0.071809
0.977798 0.724743 0.10695
0.983139 0.733974 0.201434
0.982879 0.743664 0.310811
0.981125 0.752926 0.391531
0.978958 0.762249 0.454566
0.977508 0.771832 0.496452
0.97615 0.781216 0.531441
0.974701 0.790173 0.564187
0.0115206 0.48159 0.169024
0.0123293 0.481636 0.169055
0.0131838 0.481682 0.169085
0.0139925 0.481666 0.169085
0.0148318 0.481666 0.1691
0.0156558 0.481605 0.169055
0.0165255 0.481498 0.169009
0.0174716 0.481361 0.168933
0.0185702 0.481147 0.168811
0.019852 0.480919 0.168673
0.0220951 0.480613 0.168475
0.0242924 0.480308 0.168307
0.0338598 0.479973 0.168109
0.052018 0.496315 0.16846
0.086244 0.569604 0.119524
0.512627 0.696635 0.018677
0.739193 0.744152 0.0294957
0.820966 0.752712 0.0545663
0.863966 0.751217 0.0599222
0.885847 0.746731 0.0654154
0.90219 0.744381 0.0700694
0.913161 0.744381 0.0769818
0.923125 0.74548 0.0890669
0.93434 0.746929 0.0972763
0.949523 0.749935 0.0847944
0.96701 0.754559 0.0749218
0.981491 0.761715 0.105119
0.987716 0.769207 0.194644
0.98764 0.776699 0.313054
0.986572 0.78407 0.393668
0.984726 0.791501 0.443854
0.98262 0.798718 0.484276
0.980468 0.805753 0.521721
0.0181125 0.491066 0.175967
0.0189212 0.491096 0.175998
0.0197452 0.491142 0.176028
0.0205692 0.491142 0.176043
0.0214084 0.491127 0.176028
0.0222629 0.491081 0.175982
0.0231327 0.491005 0.175921
0.0241245 0.490883 0.17583
0.0252384 0.490715 0.175677
0.0264897 0.490547 0.17554
0.0284733 0.490288 0.175311
0.0304112 0.490059 0.175128
0.0373693 0.489693 0.174838
0.0475929 0.491569 0.17464
0.0609598 0.526711 0.170306
0.368643 0.670863 0.0313115
0.6654 0.744579 0.0259098
0.788754 0.766491 0.0536355
0.852155 0.771008 0.0682994
0.879194 0.769589 0.0741741
0.896941 0.768124 0.0773022
0.908537 0.767926 0.0827802
0.919112 0.768582 0.092256
0.9299 0.76965 0.102449
0.941848 0.771374 0.103716
0.95581 0.774975 0.0849165
0.970581 0.780697 0.0771038
0.984314 0.7879 0.109804
0.98909 0.795071 0.212604
0.990021 0.801297 0.320363
0.989258 0.807584 0.382422
0.987716 0.813703 0.429694
0.985809 0.819654 0.472541
0.0219577 0.498253 0.181888
0.0227512 0.498283 0.181903
0.0235599 0.498283 0.181918
0.0243839 0.498253 0.181888
0.0252232 0.498268 0.181888
0.0260929 0.498222 0.181842
0.0269932 0.498161 0.18175
0.0280003 0.498054 0.181643
0.0291295 0.497932 0.181491
0.0303655 0.497795 0.181323
0.0321813 0.497597 0.181094
0.0339208 0.497414 0.180896
0.038819 0.497124 0.180591
0.0455177 0.49688 0.180179
0.0586709 0.508232 0.179294
0.21912 0.636057 0.0534981
0.590875 0.737621 0.0278019
0.751812 0.77113 0.048249
0.839109 0.782406 0.071458
0.870726 0.783001 0.0777752
0.890822 0.7823 0.0804761
0.90309 0.782101 0.0849775
0.914443 0.783185 0.0938888
0.926238 0.784726 0.103014
0.937865 0.786389 0.110277
0.949752 0.789242 0.103624
0.962982 0.794308 0.0822919
0.977462 0.800839 0.08748
0.988266 0.808194 0.141878
0.99089 0.814145 0.252583
0.990906 0.81944 0.327092
0.990066 0.824598 0.383841
0.988876 0.829831 0.432532
0.0237736 0.502632 0.187182
0.0246433 0.5028 0.187503
0.0255589 0.502968 0.187854
0.0264134 0.502998 0.18793
0.0272374 0.502983 0.1879
0.0281224 0.502937 0.187839
0.0290074 0.502861 0.187716
0.0300145 0.502785 0.18761
0.0311437 0.502647 0.187427
0.0323491 0.502525 0.187243
0.0340429 0.502342 0.186984
0.0356909 0.502159 0.186725
0.0396429 0.501915 0.186404
0.044831 0.501595 0.185992
0.0558785 0.505714 0.185168
0.12987 0.609903 0.101976
0.525567 0.72665 0.0363928
0.718334 0.771618 0.0467079
0.826032 0.78909 0.0736553
0.863157 0.791165 0.0817884
0.886076 0.791592 0.0847486
0.899351 0.791318 0.088838
0.910887 0.791959 0.0964828
0.922744 0.793362 0.104433
0.934615 0.795193 0.112291
0.945998 0.798123 0.112474
0.958495 0.803006 0.0937362
0.972457 0.809262 0.0861219
0.985733 0.816876 0.111437
0.990753 0.822934 0.20354
0.991424 0.82771 0.281468
0.990951 0.832212 0.346441
0.990188 0.83682 0.401389
0.0254215 0.5066 0.194003
0.0264286 0.507042 0.194995
0.0277409 0.50753 0.196185
0.028687 0.507637 0.19646
0.0295109 0.507622 0.196445
0.0303502 0.507591 0.196353
0.03122 0.5075 0.196201
0.0321965 0.507424 0.196033
0.0332647 0.507301 0.195773
0.0343938 0.507195 0.19556
0.0359808 0.507027 0.195224
0.0375372 0.506874 0.194919
0.0411231 0.506661 0.194568
0.0458228 0.506401 0.194171
0.0530709 0.508919 0.193469
0.0830243 0.588403 0.158694
0.448966 0.710857 0.0400549
0.675608 0.768292 0.0457008
0.80975 0.794079 0.0763104
0.854154 0.798123 0.0873579
0.880232 0.799435 0.0915084
0.895476 0.800015 0.0953078
0.907561 0.800473 0.101534
0.919036 0.801266 0.108095
0.930785 0.802701 0.114382
0.942092 0.8056 0.11635
0.954284 0.810208 0.101808
0.967453 0.815763 0.0909743
0.980621 0.822614 0.109087
0.989319 0.828992 0.165652
0.991211 0.833814 0.237751
0.991058 0.838117 0.308095
0.990539 0.842359 0.370138
0.027985 0.510384 0.201724
0.0294194 0.511193 0.203632
0.030869 0.512062 0.205722
0.0318456 0.512276 0.206241
0.0326696 0.512261 0.20621
0.0335241 0.5122 0.206058
0.0343938 0.512123 0.20589
0.0353704 0.512047 0.205676
0.0364385 0.511925 0.205386
0.0375525 0.511788 0.205081
0.0391089 0.511635 0.20473
0.0406348 0.511482 0.20441
0.0438087 0.511269 0.203952
0.0479744 0.510994 0.203433
0.0545663 0.512322 0.202747
0.0665904 0.573678 0.186542
0.345785 0.688869 0.0421607
0.628489 0.762478 0.0448463
0.78761 0.796918 0.0771649
0.84329 0.804532 0.0916152
0.873854 0.807294 0.0974899
0.890959 0.808179 0.101335
0.904082 0.808637 0.106615
0.915602 0.809216 0.111818
0.926955 0.810285 0.116808
0.93817 0.81265 0.119493
0.950134 0.816922 0.108598
0.963088 0.821698 0.0945449
0.975296 0.827619 0.112322
0.986358 0.833707 0.145632
0.990082 0.838621 0.202213
0.990845 0.842985 0.269856
0.990616 0.847089 0.337026
0.0302281 0.514336 0.210163
0.0317388 0.515526 0.213199
0.0333257 0.516762 0.216403
0.034226 0.517082 0.217197
0.0350805 0.517052 0.217151
0.0359655 0.517006 0.217014
0.0368505 0.516915 0.21677
0.0378119 0.516823 0.21651
0.0388495 0.516701 0.216144
0.0399481 0.516594 0.215824
0.0414588 0.516442 0.215381
0.0429236 0.516274 0.214939
0.0457923 0.516075 0.214389
0.0495003 0.515816 0.213764
0.0555581 0.516381 0.213092
0.0627909 0.561746 0.205264
0.216587 0.664179 0.0616465
0.578805 0.755383 0.049012
0.763317 0.797818 0.0771954
0.830549 0.809018 0.0944533
0.866239 0.81355 0.102358
0.885435 0.815137 0.106691
0.899641 0.8159 0.111238
0.912062 0.816556 0.115526
0.923445 0.817578 0.119539
0.934524 0.819516 0.122286
0.94638 0.823301 0.113802
0.959579 0.827543 0.0950027
0.971466 0.832471 0.104051
0.982635 0.83827 0.135164
0.988296 0.843214 0.177096
0.990478 0.847547 0.234791
0.990845 0.851545 0.300237
0.0319829 0.518944 0.22179
0.0329595 0.520348 0.225391
0.0340887 0.521828 0.229175
0.0348363 0.522225 0.230152
0.0356909 0.522225 0.230106
0.0366217 0.522148 0.229938
0.0375525 0.522057 0.229633
0.038529 0.52195 0.229328
0.0396429 0.521813 0.228901
0.0408026 0.521691 0.228519
0.0423285 0.521508 0.228
0.0438087 0.521324 0.227481
0.0464942 0.521126 0.226917
0.0499275 0.520851 0.226246
0.0551461 0.521248 0.225559
0.0594339 0.556573 0.221012
0.131746 0.642817 0.125841
0.533944 0.749523 0.0576791
0.738048 0.797742 0.07776
0.81706 0.81207 0.0975814
0.857588 0.818051 0.107103
0.879606 0.820493 0.112261
0.895003 0.821775 0.116472
0.908751 0.822919 0.120226
0.92076 0.82414 0.123156
0.932204 0.826154 0.123278
0.944427 0.82977 0.112169
0.957137 0.833616 0.0945754
0.968627 0.837873 0.0991989
0.979019 0.843076 0.130449
0.986099 0.847944 0.162402
0.989563 0.85211 0.210788
0.990616 0.855802 0.271443
0.03093 0.525292 0.239261
0.0310826 0.526665 0.242557
0.0304112 0.528191 0.246418
0.0307469 0.528542 0.247364
0.0316625 0.528496 0.247242
0.0326543 0.528435 0.247044
0.0337682 0.528298 0.246632
0.0349889 0.528176 0.24625
0.036408 0.528008 0.245731
0.0378729 0.527825 0.245151
0.0397345 0.527626 0.244572
