public/textures/LUTs/TROPIC COLOUR - BEST OF LOOKS (telegram - @creativecashe)-1/TROPIC COLOUR - BEST OF LOOKS/TC - TEAL & ORANGE LOOKS/TC - PRISMA.cube
TITLE "Generated by Resolve"
LUT_3D_SIZE 5
0.0141909 0.0531014 0.0678111
0.317449 0.0793164 0.0745403
0.717601 0.0163424 0.121859
0.863645 0.297978 0.487587
0.932586 0.59057 0.671489
0.0105898 0.187839 0.0794842
0.127169 0.20766 0.057435
0.764691 0.120897 0.0382239
0.893553 0.408103 0.465812
0.946395 0.666392 0.674525
0.000854505 0.45626 0.159609
0.00823987 0.45536 0.159213
0.812451 0.690211 0.027863
0.966766 0.676066 0.123369
0.968368 0.770993 0.605417
0.0302281 0.514336 0.210163
0.0388495 0.516701 0.216144
0.216587 0.664179 0.0616465
0.923445 0.817578 0.119539
0.990845 0.851545 0.300237
0.0451972 0.56405 0.361593
0.0557412 0.564034 0.364324
0.0942092 0.661875 0.359213
0.912276 0.868315 0.13228
0.981918 0.881422 0.243702
0.00265507 0.0886549 0.217334
0.244221 0.0710155 0.284688
0.714748 0.0137331 0.288197
0.861875 0.291066 0.580804
0.929412 0.593378 0.71989
0.00671397 0.178561 0.172885
0.0694133 0.181979 0.187198
0.758892 0.0870375 0.232975
0.889555 0.404211 0.561334
0.942184 0.668009 0.727489
0.00608835 0.455207 0.172091
0.0122835 0.455161 0.171084
0.810849 0.690776 0.0396887
0.968856 0.68275 0.261234
0.962707 0.777417 0.673198
0.0269169 0.520668 0.235035
0.0347295 0.520287 0.233692
0.144152 0.655024 0.102296
0.929351 0.823407 0.120073
0.988952 0.858549 0.387381
0.0488899 0.572259 0.393194
0.0562295 0.571496 0.392874
0.0847791 0.659068 0.397574
0.908766 0.875639 0.192721
0.979339 0.887633 0.349462
0.00798047 0.180453 0.466575
0.0531472 0.175586 0.48368
0.680125 0.00927749 0.663859
0.830213 0.0912947 0.730907
0.911498 0.529335 0.797436
0.00303655 0.208209 0.479683
0.0356756 0.202853 0.477226
0.699763 0.0142061 0.686091
0.852522 0.250172 0.751415
0.92517 0.613184 0.807904
0.000686656 0.545357 0.556252
0.00714122 0.545571 0.556878
0.712627 0.740902 0.685969
0.934203 0.691173 0.711727
0.949264 0.759869 0.78677
0.0104067 0.566064 0.426001
0.0177462 0.565698 0.424216
0.0699321 0.614618 0.432563
0.939284 0.866072 0.403128
0.976425 0.879774 0.57792
0.0275425 0.595178 0.474418
0.0348821 0.594659 0.474189
0.0787823 0.6598 0.496803
0.878843 0.895277 0.469886
0.961791 0.907012 0.533455
0.00698863 0.202106 0.537026
0.0284123 0.201633 0.536812
0.691447 0.00123598 0.761028
0.791089 0.00772107 0.766781
0.859556 0.263981 0.832715
0.00384527 0.215213 0.54287
0.0193942 0.214145 0.542519
0.695369 0.00943008 0.771282
0.80267 0.0215763 0.780713
0.871962 0.346929 0.85243
0.00759899 0.538705 0.701549
0.0166781 0.532769 0.699321
0.528725 0.571054 0.889464
0.867994 0.51014 0.88954
0.913436 0.629465 0.905318
0.0153506 0.644495 0.706142
0.0219272 0.644663 0.706432
0.0581979 0.64358 0.70663
0.833936 0.903883 0.894987
0.923613 0.902235 0.896376
0.0268864 0.661936 0.693568
0.034226 0.662028 0.693629
0.067277 0.666468 0.696147
0.764309 0.92903 0.861204
0.901671 0.9402 0.867781
0.00381476 0.201511 0.550683
0.0149844 0.201465 0.55079
0.707454 0.000717174 0.77467
0.785245 0.00143435 0.774502
0.818692 0.0255283 0.795895
0.00216678 0.212009 0.555169
0.0115663 0.211658 0.555077
0.714488 0.00714122 0.783413
0.794476 0.00834669 0.784878
0.828687 0.0781872 0.809918
0.00114443 0.461769 0.684474
0.00698863 0.444297 0.675685
0.459922 0.319799 0.842008
0.82916 0.243778 0.847074
0.87248 0.368887 0.876692
0.00572213 0.643275 0.734737
0.0123598 0.643153 0.734798
0.0406195 0.641382 0.734325
0.808164 0.889342 0.937346
0.909377 0.890562 0.940185
0.0164187 0.666072 0.732418
0.0233768 0.666163 0.732494
0.0437018 0.664851 0.732235
0.715419 0.923049 0.927138
0.877699 0.93785 0.931044
