public/textures/LUTs/TROPIC COLOUR - BEST OF LOOKS (telegram - @creativecashe)-1/TROPIC COLOUR - BEST OF LOOKS/TC - TEAL & ORANGE LOOKS/TC - DELUX .cube
TITLE "Generated by Resolve"
LUT_3D_SIZE 5
0.0231785 0.0517281 0.057557
0.340261 0.069688 0.0485695
0.758923 0.0448615 0.12462
0.932906 0.48307 0.627039
0.982895 0.81561 0.841199
0.0101472 0.213962 0.0681468
0.171527 0.242435 0.0327764
0.800229 0.170962 0.1019
0.955322 0.614404 0.673075
0.986313 0.860334 0.856336
0.00953689 0.534157 0.132097
0.0225376 0.534829 0.132357
0.801083 0.728969 0.0515145
0.979934 0.76907 0.618463
0.98822 0.897383 0.863096
0.0395666 0.655985 0.349905
0.0545205 0.656947 0.354162
0.181689 0.75021 0.303593
0.95758 0.881331 0.22858
0.990616 0.930159 0.830564
0.38645 0.905394 0.733776
0.494453 0.921584 0.736706
0.628519 0.938567 0.73547
0.872618 0.964187 0.72726
0.992493 0.971557 0.751415
0.00254826 0.0842451 0.237644
0.279072 0.0668193 0.308263
0.757946 0.0350195 0.297383
0.931029 0.479133 0.670176
0.981537 0.815518 0.863828
0.00497444 0.205524 0.194842
0.100938 0.212741 0.211826
0.789502 0.156985 0.264622
0.947829 0.575189 0.686748
0.983612 0.851652 0.87013
0.0133669 0.534936 0.154406
0.026154 0.536461 0.154635
0.798733 0.730465 0.0740826
0.977188 0.769329 0.654414
0.985977 0.894606 0.883726
0.0458839 0.663279 0.387839
0.0620127 0.664607 0.393469
0.177981 0.744961 0.375128
0.960006 0.890349 0.303883
0.988266 0.931655 0.859556
0.358267 0.904921 0.767208
0.472801 0.922942 0.773388
0.616678 0.940917 0.774929
0.865553 0.967895 0.771374
0.989151 0.974624 0.791485
0.0158083 0.153811 0.534798
0.061387 0.154253 0.558434
0.745739 0.00425727 0.712154
0.907668 0.351461 0.772686
0.979644 0.800885 0.882841
0.00776684 0.188418 0.552041
0.0457923 0.184894 0.562051
0.76289 0.0260319 0.730571
0.926116 0.459709 0.794644
0.981582 0.83859 0.890242
0.00254826 0.614923 0.640879
0.0147402 0.616495 0.645121
0.712062 0.769284 0.760845
0.964813 0.746258 0.784863
0.983902 0.879255 0.892927
0.0340429 0.703883 0.566003
0.0497902 0.706035 0.57261
0.16025 0.75671 0.602029
0.947753 0.923858 0.64683
0.986908 0.930587 0.872724
0.31162 0.900465 0.801221
0.424628 0.921172 0.811963
0.601038 0.942702 0.819532
0.856825 0.971099 0.821485
0.984939 0.977707 0.836042
0.0119478 0.155535 0.638025
0.0290379 0.154788 0.640101
0.751598 0.00161746 0.812009
0.858061 0.042237 0.823484
0.971374 0.733394 0.923186
0.00726329 0.172244 0.646799
0.0241703 0.170809 0.647211
0.761349 0.0140383 0.822156
0.867262 0.0671244 0.836133
0.975937 0.785229 0.930861
0.0187381 0.560479 0.77351
0.0288701 0.556497 0.773999
0.582162 0.56434 0.916365
0.924804 0.529198 0.916335
0.979095 0.837263 0.938231
0.0149386 0.730053 0.775647
0.0288701 0.730831 0.777707
0.129076 0.728573 0.77763
0.9075 0.931075 0.927886
0.980926 0.925795 0.929137
0.240208 0.885252 0.861723
0.293873 0.908446 0.880354
0.490593 0.936599 0.896452
0.835294 0.973556 0.907668
0.977462 0.981308 0.914763
0.00155642 0.154788 0.667338
0.012192 0.154376 0.667079
0.733028 0.00137331 0.838544
0.857435 0.00724804 0.847959
0.89395 0.156466 0.879057
0.00134279 0.16965 0.671214
0.0123598 0.1691 0.670909
0.704463 0.0136873 0.844694
0.86276 0.0323644 0.853681
0.906264 0.246464 0.894987
0.00122072 0.325567 0.727092
0.0127871 0.329519 0.729168
0.177462 0.228534 0.773663
0.871397 0.117739 0.874937
0.942794 0.487266 0.940078
0.00512703 0.720485 0.818998
0.0171664 0.721309 0.819303
0.0537728 0.713344 0.818967
0.891691 0.904906 0.97583
0.979873 0.902388 0.975219
0.19086 0.82385 0.86807
0.209659 0.849424 0.890257
0.264439 0.902571 0.935561
0.809415 0.971572 0.965881
0.975326 0.981811 0.967742
