public/textures/LUTs/TROPIC COLOUR - BEST OF LOOKS (telegram - @creativecashe)-1/TROPIC COLOUR - BEST OF LOOKS/TC - TEAL & ORANGE LOOKS/TC - PRISMA.cube
TITLE "Generated by Resolve"
LUT_3D_SIZE 9
0.0141909 0.0531014 0.0678111
0.0336004 0.0539559 0.0686351
0.317449 0.0793164 0.0745403
0.60972 0.0113527 0.0585489
0.717601 0.0163424 0.121859
0.804013 0.107713 0.306645
0.863645 0.297978 0.487587
0.908278 0.471321 0.597574
0.932586 0.59057 0.671489
0.0190738 0.081239 0.0643626
0.0335088 0.079469 0.064744
0.313115 0.09691 0.0696574
0.618906 0.0221561 0.0475929
0.728344 0.0229038 0.112398
0.81294 0.138582 0.304341
0.872328 0.331197 0.481895
0.915312 0.501808 0.593088
0.937911 0.618326 0.66923
0.0105898 0.187839 0.0794842
0.0139467 0.186603 0.0791485
0.127169 0.20766 0.057435
0.634775 0.213947 0.00970474
0.764691 0.120897 0.0382239
0.840879 0.242924 0.274922
0.893553 0.408103 0.465812
0.928389 0.559762 0.594186
0.946395 0.666392 0.674525
0.00660716 0.353124 0.128542
0.0096437 0.35285 0.128466
0.0245823 0.347082 0.126696
0.564569 0.485267 0.0074464
0.791699 0.44509 0.0284276
0.892866 0.430518 0.111543
0.924422 0.517159 0.398718
0.943038 0.627253 0.571405
0.954818 0.713924 0.667445
0.000854505 0.45626 0.159609
0.0040589 0.456367 0.159655
0.00823987 0.45536 0.159213
0.0457618 0.474739 0.153414
0.812451 0.690211 0.027863
0.900252 0.66601 0.0524147
0.966766 0.676066 0.123369
0.970443 0.722774 0.457328
0.968368 0.770993 0.605417
0.0219577 0.498253 0.181888
0.0252232 0.498268 0.181888
0.0291295 0.497932 0.181491
0.038819 0.497124 0.180591
0.590875 0.737621 0.0278019
0.890822 0.7823 0.0804761
0.937865 0.786389 0.110277
0.988266 0.808194 0.141878
0.988876 0.829831 0.432532
0.0302281 0.514336 0.210163
0.0350805 0.517052 0.217151
0.0388495 0.516701 0.216144
0.0457923 0.516075 0.214389
0.216587 0.664179 0.0616465
0.866239 0.81355 0.102358
0.923445 0.817578 0.119539
0.971466 0.832471 0.104051
0.990845 0.851545 0.300237
0.0176852 0.541146 0.285405
0.0210117 0.542626 0.28957
0.0246281 0.542 0.287541
0.0309606 0.540871 0.284504
0.0736248 0.621378 0.266575
0.829252 0.832242 0.10222
0.918517 0.844312 0.0990768
0.963684 0.855039 0.0974899
0.988128 0.867658 0.217456
0.0451972 0.56405 0.361593
0.0514076 0.565194 0.366583
0.0557412 0.564034 0.364324
0.0617075 0.563806 0.360937
0.0942092 0.661875 0.359213
0.7879 0.853193 0.169314
0.912276 0.868315 0.13228
0.960876 0.874861 0.145754
0.981918 0.881422 0.243702
0.00880446 0.0580606 0.101854
0.0273899 0.0581979 0.101701
0.307286 0.0786755 0.107225
0.608957 0.00758373 0.0913405
0.716777 0.0159609 0.150942
0.80415 0.106401 0.339834
0.863767 0.298939 0.52166
0.90782 0.473274 0.62327
0.931487 0.593072 0.694224
0.0149081 0.0813916 0.0919509
0.0286107 0.0793011 0.091249
0.304585 0.0930343 0.0964828
0.618204 0.0144198 0.0791791
0.726986 0.0218509 0.143709
0.812375 0.135409 0.336355
0.871809 0.330831 0.515221
0.914443 0.502129 0.619043
0.936645 0.619333 0.692409
0.0087892 0.185763 0.084184
0.0120851 0.185122 0.0836347
0.123812 0.204807 0.0660716
0.639704 0.20209 0.0135653
0.766384 0.109194 0.0668803
0.839872 0.241154 0.307469
0.892836 0.409705 0.499962
0.927428 0.561227 0.620462
0.944823 0.668666 0.69926
0.00488289 0.352468 0.132418
0.00808728 0.352819 0.132372
0.0231785 0.347127 0.130678
0.562203 0.485084 0.0106508
0.793698 0.443076 0.0303349
0.894621 0.428717 0.148104
0.92311 0.519539 0.433051
0.941817 0.629847 0.599771
0.952911 0.71725 0.694392
0.000961318 0.456214 0.163104
0.00404364 0.456535 0.163073
0.00827039 0.455512 0.162631
0.0451972 0.473365 0.15761
0.812207 0.690791 0.0312047
0.90248 0.667079 0.0584268
0.969665 0.678691 0.161578
0.968429 0.726192 0.489219
0.965789 0.774578 0.636484
0.0225071 0.498558 0.185595
0.0256504 0.49865 0.185519
0.0295872 0.498314 0.185138
0.0392615 0.497475 0.184222
0.585855 0.736446 0.0312047
0.891463 0.782971 0.0842298
0.940246 0.788144 0.110262
0.989151 0.811566 0.186023
0.987198 0.833661 0.465339
0.0313115 0.518273 0.223407
0.0344244 0.518364 0.223514
0.038468 0.517968 0.222431
0.0459297 0.517235 0.220554
0.192844 0.662028 0.06981
0.865995 0.814374 0.105852
0.925139 0.819333 0.122805
0.974731 0.836347 0.120241
0.990082 0.854627 0.343862
0.018265 0.545342 0.301534
0.0213779 0.545403 0.301579
0.0251164 0.544823 0.299626
0.0316625 0.543709 0.296696
0.076051 0.619028 0.284459
0.828946 0.834989 0.0950027
0.921202 0.84741 0.087892
0.967987 0.858717 0.104402
0.9879 0.870512 0.260929
0.0504158 0.568551 0.379278
0.0538186 0.568261 0.379065
0.0577249 0.567193 0.376974
0.0637675 0.566567 0.373465
0.0906233 0.660868 0.375891
0.783139 0.85597 0.200778
0.911437 0.87155 0.155032
0.96144 0.878111 0.174899
0.981018 0.88426 0.289754
0.00265507 0.0886549 0.217334
0.0153964 0.0885634 0.217151
0.244221 0.0710155 0.284688
0.592004 0.004654 0.273442
0.714748 0.0137331 0.288197
0.803021 0.0895552 0.448585
0.861875 0.291066 0.580804
0.905791 0.471534 0.656962
0.929412 0.593378 0.71989
0.00209049 0.0949722 0.214405
0.0110475 0.0940414 0.214527
0.235416 0.0802625 0.28069
0.600351 0.00959792 0.269245
0.723781 0.0181735 0.284688
0.810758 0.117464 0.446601
0.869612 0.3243 0.576745
0.912032 0.50106 0.654154
0.934386 0.619989 0.719997
0.00671397 0.178561 0.172885
0.00988785 0.17789 0.172641
0.0694133 0.181979 0.187198
0.631464 0.157076 0.195041
0.758892 0.0870375 0.232975
0.835019 0.225605 0.41561
0.889555 0.404211 0.561334
0.924727 0.558511 0.654932
0.942184 0.668009 0.727489
0.0151217 0.352361 0.165454
0.0177615 0.352544 0.164904
0.0309606 0.347906 0.16112
0.543801 0.477455 0.0289616
0.81178 0.423346 0.0373999
0.891127 0.420493 0.265278
0.919676 0.518349 0.495995
0.939574 0.629313 0.637324
0.950195 0.718029 0.724941
0.00608835 0.455207 0.172091
0.00889601 0.455528 0.171923
0.0122835 0.455161 0.171084
0.045243 0.468452 0.168032
0.810849 0.690776 0.0396887
0.909758 0.667292 0.0712139
0.968856 0.68275 0.261234
0.96524 0.728969 0.533089
0.962707 0.777417 0.673198
0.0252232 0.499687 0.193545
0.028336 0.499779 0.1935
0.0320897 0.499702 0.193011
0.041474 0.498894 0.192218
0.57116 0.73315 0.0382086
0.892576 0.784955 0.092546
0.946227 0.792203 0.0995041
0.988632 0.815686 0.260914
0.98468 0.838178 0.504997
0.0269169 0.520668 0.235035
0.0300603 0.520775 0.235187
0.0347295 0.520287 0.233692
0.0422522 0.519982 0.233051
0.144152 0.655024 0.102296
0.865614 0.816114 0.112688
0.929351 0.823407 0.120073
0.981125 0.841917 0.139864
0.988952 0.858549 0.387381
0.0217899 0.548577 0.318013
0.0250248 0.548714 0.318379
0.0287938 0.548577 0.317678
0.0354009 0.54789 0.315831
0.0766461 0.615106 0.310506
0.827207 0.839719 0.0910201
0.92607 0.853193 0.0906081
0.973114 0.863706 0.121859
0.987366 0.87422 0.316335
0.0488899 0.572259 0.393194
0.052079 0.572106 0.393301
0.0562295 0.571496 0.392874
0.0632029 0.570611 0.390021
0.0847791 0.659068 0.397574
0.774624 0.859312 0.245609
0.908766 0.875639 0.192721
0.959289 0.881621 0.23386
0.979339 0.887633 0.349462
0.00546273 0.155398 0.38265
0.0130617 0.155383 0.382742
0.122225 0.0491798 0.499153
0.547021 0.00170901 0.555917
0.703593 0.00909438 0.554955
0.796063 0.0348669 0.603677
0.853239 0.248814 0.654826
0.89958 0.450752 0.70042
0.924773 0.581292 0.74847
0.00419623 0.160616 0.384207
0.0107881 0.160327 0.384222
0.108446 0.0699016 0.488289
0.552865 0.0052491 0.561074
0.711879 0.0130159 0.560861
0.80383 0.0435187 0.608286
0.860563 0.284962 0.656321
0.905867 0.481575 0.700236
0.929732 0.608499 0.750317
0.00112917 0.214954 0.389914
0.00482185 0.213535 0.390051
0.0429847 0.208011 0.402502
0.562448 0.0778363 0.57557
0.740948 0.0288396 0.569528
0.825132 0.142321 0.610437
0.879332 0.371664 0.652827
0.918227 0.542657 0.70248
0.937362 0.657374 0.757137
0.00106813 0.375845 0.351186
0.00418097 0.375738 0.351064
0.0163424 0.369345 0.346487
0.386496 0.460594 0.416617
0.811749 0.391897 0.433188
0.876265 0.403311 0.522332
0.911162 0.503334 0.608988
0.934218 0.61738 0.690044
0.945556 0.70901 0.755459
0.0134585 0.46772 0.256504
0.0166476 0.467857 0.255482
0.0205386 0.466667 0.250523
0.0483253 0.468467 0.24686
0.815961 0.705455 0.0646372
0.947402 0.674372 0.163073
0.959884 0.690013 0.430976
0.96022 0.729229 0.599298
0.958694 0.775677 0.71342
0.0113069 0.506508 0.233524
0.0148013 0.506539 0.23328
0.0201419 0.506127 0.23122
0.0311742 0.50515 0.228412
0.521263 0.72871 0.0587625
0.899794 0.794934 0.111345
0.965682 0.80557 0.0917983
0.986007 0.822309 0.368246
0.980804 0.843229 0.55314
0.0099794 0.529641 0.277623
0.0132448 0.529778 0.277775
0.017258 0.529564 0.276432
0.0243229 0.528984 0.27425
0.0814984 0.636637 0.224674
0.867338 0.825437 0.0972763
0.943664 0.835828 0.0818952
0.984436 0.849836 0.224552
0.986435 0.863996 0.441749
0.0336156 0.555962 0.353017
0.0368658 0.55613 0.353445
0.0406348 0.556085 0.352956
0.0475013 0.555703 0.351934
0.0722972 0.611872 0.355825
0.819791 0.85005 0.147875
0.932311 0.863859 0.125353
0.972961 0.870939 0.212558
0.985412 0.879713 0.387594
0.0417029 0.578317 0.414527
0.0445411 0.578256 0.414878
0.0481575 0.577737 0.41474
0.0541238 0.577173 0.413626
0.0765545 0.658534 0.428214
0.759487 0.863737 0.317357
0.900877 0.881346 0.283162
0.954437 0.886931 0.329259
0.975341 0.892851 0.40882
0.00798047 0.180453 0.466575
0.0134279 0.180438 0.466743
0.0531472 0.175586 0.48368
0.498863 0.00114443 0.669093
0.680125 0.00927749 0.663859
0.775891 0.0191501 0.688945
0.830213 0.0912947 0.730907
0.879515 0.368872 0.769696
0.911498 0.529335 0.797436
0.00709545 0.185946 0.469291
0.0122225 0.185702 0.469352
0.0507973 0.182864 0.482261
0.50071 0.0043946 0.674891
0.687129 0.00836194 0.670924
0.783047 0.0228885 0.697261
0.836484 0.135073 0.737301
0.885832 0.401419 0.773449
0.916487 0.558648 0.800549
0.00303655 0.208209 0.479683
0.00700389 0.207233 0.479469
0.0356756 0.202853 0.477226
0.464424 0.0166781 0.686198
0.699763 0.0142061 0.686091
0.799023 0.0350042 0.715419
0.852522 0.250172 0.751415
0.899367 0.471519 0.781079
0.92517 0.613184 0.807904
0.00920119 0.379767 0.553414
0.0120241 0.377844 0.55314
0.0194247 0.363989 0.547478
0.169955 0.343084 0.684977
0.747356 0.262348 0.751781
0.840177 0.28455 0.748241
0.88571 0.423667 0.761273
0.917052 0.567498 0.782956
0.934325 0.67335 0.809537
0.000686656 0.545357 0.556252
0.00375372 0.546044 0.557229
0.00714122 0.545571 0.556878
0.0323491 0.542367 0.555245
0.712627 0.740902 0.685969
0.906004 0.698268 0.689311
0.934203 0.691173 0.711727
0.944259 0.720562 0.749599
0.949264 0.759869 0.78677
0.0043946 0.55613 0.444007
0.00750744 0.556313 0.444282
0.0115511 0.555703 0.441978
0.0207218 0.554116 0.437552
0.145373 0.730648 0.443275
0.893599 0.839292 0.448112
0.954787 0.837354 0.490227
0.971038 0.843107 0.576944
0.968856 0.854353 0.676143
0.0104067 0.566064 0.426001
0.013489 0.56614 0.426062
0.0177462 0.565698 0.424216
0.0251774 0.564736 0.420996
0.0699321 0.614618 0.432563
0.842786 0.859403 0.37406
0.939284 0.866072 0.403128
0.970687 0.869505 0.475685
0.976425 0.879774 0.57792
0.0169528 0.579751 0.443046
0.0201267 0.579858 0.443214
0.0243534 0.579614 0.442084
0.0309758 0.57911 0.440467
0.0646525 0.613718 0.450828
0.776181 0.867063 0.407843
0.911635 0.883085 0.41268
0.95639 0.887938 0.449638
0.973831 0.894347 0.524651
0.0275425 0.595178 0.474418
0.0307317 0.595209 0.474891
0.0348821 0.594659 0.474189
0.0415808 0.593561 0.472709
0.0787823 0.6598 0.496803
0.722499 0.874556 0.470451
0.878843 0.895277 0.469886
0.938033 0.901396 0.487129
0.961791 0.907012 0.533455
0.00820935 0.200595 0.521157
0.0125887 0.20061 0.521324
0.0399329 0.199084 0.52105
0.450156 0.0271 0.739803
0.692409 0.0011902 0.747066
0.769299 0.00531014 0.749523
0.810727 0.0290837 0.768368
0.845335 0.185748 0.800534
0.879011 0.37612 0.836545
0.00762951 0.205814 0.523369
0.011841 0.2056 0.523323
0.0381323 0.204395 0.523186
0.448692 0.0432441 0.743008
0.697826 0.00437934 0.751553
0.773861 0.00859083 0.754498
0.814878 0.0468605 0.773861
0.849821 0.215763 0.80676
0.884489 0.406775 0.842893
0.00418097 0.216571 0.527916
0.00790417 0.216266 0.527916
0.0257877 0.214801 0.527321
0.363317 0.0797742 0.73959
0.698329 0.00981155 0.758724
0.781491 0.016083 0.7635
0.82266 0.0982986 0.784985
0.859739 0.283207 0.821118
0.895781 0.471946 0.856153
0.00132753 0.286015 0.5617
0.00457771 0.285039 0.561242
0.0127108 0.276555 0.556466
0.075761 0.253971 0.613397
0.699397 0.121798 0.786908
0.8 0.115923 0.790326
0.841276 0.215045 0.81059
0.878218 0.394705 0.844251
0.908492 0.557214 0.869718
0.0182498 0.559106 0.683894
0.0214237 0.559319 0.684077
0.0251621 0.556527 0.683452
0.0446021 0.550164 0.68188
0.581155 0.661158 0.87715
0.848295 0.622934 0.880079
0.89424 0.612329 0.875608
0.916609 0.646387 0.876783
0.929015 0.701854 0.881102
0.0199588 0.623453 0.674403
0.0231022 0.623606 0.674678
0.0265049 0.623575 0.674723
0.0325017 0.62298 0.674189
0.0868696 0.701488 0.741756
0.796201 0.867475 0.850858
0.893309 0.86424 0.850233
0.929641 0.857588 0.851682
0.942367 0.856992 0.85594
0.017319 0.635782 0.654002
0.0204776 0.635935 0.654276
0.0240635 0.63592 0.653986
0.0298161 0.635584 0.653101
0.0740978 0.641199 0.658244
0.723171 0.895857 0.804868
0.866941 0.905425 0.810498
0.921035 0.905013 0.814176
0.940902 0.90312 0.821942
0.0172274 0.642267 0.639582
0.0203861 0.642405 0.63978
0.0243381 0.642283 0.639139
0.0305638 0.641932 0.638041
0.0613107 0.644343 0.639399
0.652934 0.899855 0.771069
0.835996 0.919829 0.778607
0.904845 0.924544 0.785946
0.934295 0.924575 0.795834
0.0296483 0.647898 0.634791
0.0327916 0.648005 0.63505
0.0368658 0.647898 0.634791
0.0433509 0.647349 0.634302
0.0658274 0.675029 0.653635
0.603738 0.900038 0.759152
0.807141 0.925261 0.766583
0.887648 0.932677 0.77351
0.92459 0.93521 0.782055
0.00698863 0.202106 0.537026
0.0109407 0.20209 0.537118
0.0284123 0.201633 0.536812
0.407752 0.0339361 0.749584
0.691447 0.00123598 0.761028
0.762387 0.00192264 0.759701
0.791089 0.00772107 0.766781
0.824689 0.0736706 0.792126
0.859556 0.263981 0.832715
0.00654612 0.207141 0.539315
0.0103609 0.206943 0.539269
0.0271305 0.206561 0.539117
0.403891 0.0505989 0.752209
0.697002 0.00450141 0.765347
0.766888 0.00508125 0.764492
0.7953 0.0112306 0.771756
0.828412 0.1019 0.797833
0.863508 0.291997 0.839246
0.00384527 0.215213 0.54287
0.00735485 0.215 0.542855
0.0193942 0.214145 0.542519
0.28632 0.0831769 0.741176
0.695369 0.00943008 0.771282
0.772274 0.00961318 0.77142
0.80267 0.0215763 0.780713
0.837049 0.149294 0.810376
0.871962 0.346929 0.85243
0.00115969 0.259174 0.564508
0.00433356 0.258579 0.564248
0.0103151 0.252689 0.560937
0.0539406 0.243061 0.571145
0.678553 0.0632029 0.788251
0.783291 0.0433051 0.788327
0.815152 0.0935073 0.799207
0.852644 0.248173 0.832624
0.884657 0.429374 0.871015
0.00759899 0.538705 0.701549
0.0109712 0.538582 0.701595
0.0166781 0.532769 0.699321
0.0354314 0.518486 0.693477
0.528725 0.571054 0.889464
0.823667 0.517037 0.890913
0.867994 0.51014 0.88954
0.896437 0.556603 0.896162
0.913436 0.629465 0.905318
0.0041352 0.62678 0.713787
0.00723278 0.626856 0.713939
0.0106966 0.626657 0.714046
0.0164797 0.625895 0.713832
0.0765087 0.656306 0.743847
0.755703 0.852369 0.91133
0.867582 0.851392 0.91371
0.911681 0.846555 0.912764
0.928466 0.846174 0.911437
0.0153506 0.644495 0.706142
0.0183719 0.644602 0.70634
0.0219272 0.644663 0.706432
0.0273747 0.644434 0.706218
0.0581979 0.64358 0.70663
0.661784 0.89044 0.890669
0.833936 0.903883 0.894987
0.896483 0.903899 0.895842
0.923613 0.902235 0.896376
0.0206455 0.654551 0.698039
0.0237736 0.654643 0.698161
0.0275425 0.654704 0.698146
0.0332036 0.654643 0.697963
0.0604562 0.653758 0.697108
0.566094 0.897093 0.868345
0.795239 0.922652 0.875486
0.87628 0.927718 0.878553
0.913909 0.928038 0.879835
0.0268864 0.661936 0.693568
0.0301061 0.662013 0.693721
0.034226 0.662028 0.693629
0.0409247 0.661799 0.693568
0.067277 0.666468 0.696147
0.504295 0.897887 0.853635
0.764309 0.92903 0.861204
0.858167 0.937453 0.865156
0.901671 0.9402 0.867781
0.0053254 0.20177 0.545647
0.0089723 0.20177 0.545724
0.0200504 0.201678 0.545876
0.297017 0.0445411 0.744945
0.698558 0.000915541 0.769772
0.764019 0.00105287 0.768185
0.78468 0.00300603 0.770169
0.806729 0.0121767 0.781537
0.834852 0.123232 0.811337
0.00497444 0.206744 0.547875
0.00852979 0.206561 0.547814
0.0192569 0.206455 0.547967
0.283391 0.0638743 0.743862
0.70425 0.00407416 0.773968
0.768566 0.0041352 0.772854
0.789181 0.00619516 0.775006
0.810895 0.0178378 0.786633
0.839216 0.147082 0.817288
0.00299077 0.213062 0.550851
0.00636301 0.212924 0.550835
0.0146334 0.212467 0.550683
0.150637 0.1402 0.672023
0.703243 0.00810254 0.779141
0.772854 0.00794995 0.778653
0.794827 0.010605 0.781781
0.817685 0.0364538 0.795468
0.848127 0.195468 0.829129
0.000946059 0.239567 0.562051
0.00407416 0.239048 0.561807
0.00865187 0.235981 0.560113
0.0442512 0.22945 0.56054
0.672267 0.0368505 0.789899
0.776867 0.0215 0.789929
0.804074 0.0331121 0.795026
0.827634 0.106935 0.810712
0.860105 0.276478 0.847883
0.00846876 0.505486 0.698543
0.0116121 0.505608 0.698741
0.0124361 0.494926 0.694377
0.0192874 0.462776 0.679088
0.504387 0.438956 0.871244
0.808606 0.368978 0.87039
0.846418 0.364797 0.869871
0.87126 0.411612 0.881132
0.893614 0.510201 0.900404
0.0102846 0.62414 0.727474
0.0133974 0.624155 0.72752
0.0165255 0.623575 0.727535
0.0211643 0.62211 0.727352
0.0626993 0.62182 0.731945
0.734524 0.833875 0.932754
0.854795 0.830915 0.936217
0.900481 0.82742 0.936797
0.919921 0.828138 0.935866
0.00460822 0.645441 0.727459
0.00769055 0.645502 0.727535
0.0112154 0.645457 0.727611
0.0162203 0.645167 0.727565
0.043534 0.644038 0.72726
0.615976 0.880583 0.92076
0.814801 0.896498 0.927123
0.881727 0.898695 0.928893
0.913283 0.897841 0.928817
0.00991836 0.657389 0.723171
0.0130159 0.65745 0.723232
0.0166323 0.657496 0.723323
0.0217288 0.657435 0.723308
0.0416876 0.656794 0.723598
0.477775 0.887388 0.9066
0.768658 0.91902 0.916915
0.859266 0.925048 0.919463
0.899062 0.926375 0.920714
0.0238193 0.665812 0.720531
0.0270085 0.665873 0.720607
0.0309148 0.665949 0.720668
0.0362554 0.665904 0.720653
0.0545663 0.66389 0.719387
0.389609 0.888334 0.89543
0.732937 0.926345 0.907225
0.838102 0.936812 0.909926
0.885145 0.939773 0.911665
0.00381476 0.201511 0.550683
0.00727855 0.201511 0.550713
0.0149844 0.201465 0.55079
0.125429 0.140246 0.641855
0.707454 0.000717174 0.77467
0.768139 0.00077821 0.773785
0.785245 0.00143435 0.774502
0.799054 0.00482185 0.778912
0.818692 0.0255283 0.795895
0.00355535 0.20647 0.552773
0.0069276 0.206287 0.552697
0.0144656 0.206226 0.552773
0.122866 0.145022 0.647272
0.713542 0.00378424 0.778759
0.772763 0.00383001 0.778332
0.789624 0.00454719 0.779141
0.803204 0.00801099 0.783734
0.822675 0.0394141 0.801114
0.00216678 0.212009 0.555169
0.00541695 0.211933 0.555169
0.0115663 0.211658 0.555077
0.0666209 0.194553 0.593484
0.714488 0.00714122 0.783413
0.776928 0.00727855 0.783475
0.794476 0.00834669 0.784878
0.808804 0.0126497 0.790539
0.828687 0.0781872 0.809918
0.000823987 0.228763 0.561273
0.00392157 0.228519 0.561166
0.00781262 0.226841 0.560418
0.0365606 0.222858 0.558907
0.679026 0.0234379 0.791211
0.776471 0.0145571 0.791302
0.799802 0.0186313 0.794461
0.817349 0.0365454 0.80235
0.838285 0.142138 0.824537
0.00114443 0.461769 0.684474
0.0040589 0.460655 0.68394
0.00698863 0.444297 0.675685
0.0148775 0.396582 0.651621
0.459922 0.319799 0.842008
0.793851 0.247761 0.845777
0.82916 0.243778 0.847074
0.851209 0.281621 0.855772
0.87248 0.368887 0.876692
0.00813306 0.620157 0.7337
0.0112154 0.620096 0.73373
0.0141146 0.619272 0.733684
0.0172732 0.616602 0.73344
0.049424 0.610819 0.733867
0.725078 0.81294 0.939315
0.851942 0.807309 0.942657
0.897322 0.803296 0.943786
0.917037 0.803998 0.943801
0.00572213 0.643275 0.734737
0.0087892 0.64332 0.734783
0.0123598 0.643153 0.734798
0.0171817 0.642649 0.734707
0.0406195 0.641382 0.734325
0.582864 0.871595 0.928573
0.808164 0.889342 0.937346
0.877287 0.891508 0.939818
0.909377 0.890562 0.940185
0.00535592 0.656565 0.733516
0.00846876 0.656611 0.733547
0.0120394 0.656611 0.733593
0.0166781 0.656489 0.733623
0.0338598 0.655924 0.733776
0.397055 0.877699 0.917296
0.755978 0.914748 0.931304
0.852613 0.921172 0.933913
0.892851 0.922515 0.935195
0.0164187 0.666072 0.732418
0.0196078 0.666133 0.732464
0.0233768 0.666163 0.732494
0.0285039 0.666163 0.732509
0.0437018 0.664851 0.732235
0.285939 0.878004 0.909178
0.715419 0.923049 0.927138
0.828305 0.934859 0.92987
0.877699 0.93785 0.931044
