public/textures/LUTs/TROPIC COLOUR - BEST OF LOOKS (telegram - @creativecashe)-1/TROPIC COLOUR - BEST OF LOOKS/TC - MOVIE LOOKS/THE MASTER/TC - THE MASTER.cube
TITLE "Generated by Resolve"
LUT_3D_SIZE 5
0 0 0
0.0957656 0 0
0.78587 0 0
1 0 0
1 0 0
0.0209201 0.109606 0
0.18468 0.109117 0
0.926421 0 0
1 0 0
1 0 0
0 0.739147 0
0 0.722606 0
0.812345 0.639872 0
1 0.59382 0
1 0.574975 0
0 1 0
0 1 0
0.557122 0.974395 0
1 0.929625 0
1 0.911528 0
0 1 0
0 1 0
0.253285 1 0
0.945541 1 0
1 1 0
0.0211185 0 0.157092
0.177752 0 0.121965
0.853712 0 0.0948196
1 0 0.0560311
1 0 0.0428779
0 0.142184 0.0538186
0.140932 0.106493 0.0860151
0.797086 0 0.0465248
1 0 0.00643931
1 0 0
0 0.745647 0
0 0.714839 0
0.697108 0.661112 0
1 0.616495 0
1 0.604105 0
0 1 0
0 1 0
0.377401 0.988708 0
0.976349 0.944915 0
1 0.926192 0
0 1 0
0 1 0
0.104082 1 0
0.860426 1 0
1 1 0
0 0 0.92845
0.070161 0 0.822385
0.82121 0 0.781399
1 0 0.769085
1 0 0.764126
0 0 0.643076
0 0 0.795087
0.765972 0 0.723201
1 0 0.711589
1 0 0.706615
0 0.766323 0.369406
0 0.703807 0.473533
0.573434 0.608835 0.600595
0.999069 0.571557 0.597803
1 0.554376 0.59086
0 1 0.192508
0 0.992264 0.372519
0.296803 0.941222 0.502892
0.9028 0.911116 0.504219
1 0.891096 0.532494
0 1 0.121004
0 1 0.318883
0 1 0.42884
0.794965 1 0.41268
0.996857 1 0.426276
0 0 1
0 0 1
0.804578 0 1
1 0 0.990387
1 0 0.986084
0 0 0.90486
0 0 1
0.747158 0 0.963577
1 0 0.951186
1 0 0.946609
0 0.749996 0.639323
0 0.676173 0.740993
0.522957 0.542702 0.874983
0.984115 0.488457 0.868666
1 0.467247 0.864744
0 1 0.529137
0 0.978851 0.630213
0.219348 0.930739 0.704784
0.862974 0.872526 0.796323
1 0.862989 0.788571
0 1 0.483116
0 1 0.604623
0 1 0.702586
0.77409 1 0.746502
0.976654 1 0.74725
0 0 1
0 0 1
0.79765 0 1
1 0 1
1 0 1
0 0 1
0 0 1
0.740505 0 1
1 0 1
1 0 1
0 0.728832 0.808438
0 0.643351 0.903624
0.490135 0.498482 0.991974
0.976974 0.436149 0.981308
1 0.413886 0.977325
0 0.999374 0.704433
0 0.962646 0.785046
0.319356 0.914961 0.821912
0.842939 0.853071 0.917556
1 0.833478 0.92108
0 1 0.653712
0 1 0.748562
0 1 0.821286
0.751812 0.99588 0.876951
0.962066 0.982238 0.885756
