public/textures/LUTs/TROPIC COLOUR - BEST OF LOOKS (telegram - @creativecashe)-1/TROPIC COLOUR - BEST OF LOOKS/TC - MOVIE LOOKS/THE MASTER/TC - THE MASTER.cube
TITLE "Generated by Resolve"
LUT_3D_SIZE 33
0 0 0
0 0 0
0 0 0
0 0 0
0 0 0
0 0 0
0.0980545 0 0
0.0961776 0 0
0.0957656 0 0
0.0988937 0 0
0.106554 0 0
0.283665 0.0590372 0
0.373617 0.0440681 0
0.478325 0.0208896 0
0.581003 0 0
0.685466 0 0
0.78587 0 0
0.872496 0 0
0.94786 0 0
1 0 0
1 0 0
1 0 0
1 0 0
1 0 0
1 0 0
1 0 0
1 0 0
1 0 0
1 0 0
1 0 0
1 0 0
1 0 0
1 0 0
0 0 0
0 0 0
0 0 0
0 0 0
0 0 0
0.0817578 0 0
0.0798962 0 0
0.0802319 0 0
0.0848554 0 0
0.0932479 0 0
0.198886 0.0776532 0
0.272114 0.0702525 0
0.368124 0.0549172 0
0.477638 0.0302129 0
0.583047 0 0
0.689219 0 0
0.790661 0 0
0.877836 0 0
0.953429 0 0
1 0 0
1 0 0
1 0 0
1 0 0
1 0 0
1 0 0
1 0 0
1 0 0
1 0 0
1 0 0
1 0 0
1 0 0
1 0 0
1 0 0
0 0 0
0 0 0
0 0 0
0 0 0
0.0621195 0 0
0.0609751 0 0
0.0626078 0 0
0.0689708 0 0
0.079057 0 0
0.139742 0.0840009 0
0.196933 0.0822766 0
0.274952 0.0741131 0
0.37496 0.0570535 0
0.486046 0.0302739 0
0.59205 0 0
0.698283 0 0
0.79942 0 0
0.885771 0 0
0.960052 0 0
1 0 0
1 0 0
1 0 0
1 0 0
1 0 0
1 0 0
1 0 0
1 0 0
1 0 0
1 0 0
1 0 0
1 0 0
1 0 0
1 0 0
0 0 0
0 0 0
0 0 0
0 0 0
0.0416114 0 0
0.0460212 0 0
0.0562905 0 0
0.0675669 0 0
0.106142 0.0822309 0
0.145617 0.0844282 0
0.205341 0.0823224 0
0.286763 0.0723278 0
0.389975 0.052781 0
0.500374 0.0237278 0
0.605097 0 0
0.709361 0 0
0.807797 0 0
0.891539 0 0
0.96347 0 0
1 0 0
1 0 0
1 0 0
1 0 0
1 0 0
1 0 0
1 0 0
1 0 0
1 0 0
1 0 0
1 0 0
1 0 0
1 0 0
1 0 0
0 0 0
0 0 0
0 0 0
0.02121 0.00434882 0
0.0289921 0 0
0.0426642 0 0
0.058854 0 0
0.100145 0.0737621 0
0.142931 0.0745708 0
0.190799 0.0741588 0
0.246098 0.0710918 0
0.319036 0.0617685 0
0.414038 0.0433509 0
0.515877 0.0164492 0
0.615824 0 0
0.716564 0 0
0.811749 0 0
0.892744 0 0
0.962432 0 0
1 0 0
1 0 0
1 0 0
1 0 0
1 0 0
1 0 0
1 0 0
1 0 0
1 0 0
1 0 0
1 0 0
1 0 0
1 0 0
1 0 0
0 0.0361486 0
0 0.0332036 0
0 0.0301366 0
0.0125582 0.0117189 0
0.0315557 0 0
0.0474861 0 0
0.0781415 0.0730449 0
0.112413 0.0733959 0
0.169116 0.0706493 0
0.244968 0.0607614 0
0.325872 0.0472267 0
0.404807 0.0336004 0
0.478935 0.0198825 0
0.555444 0.00236515 0
0.63653 0 0
0.724254 0 0
0.812222 0 0
0.889982 0 0
0.958495 0 0
1 0 0
1 0 0
1 0 0
1 0 0
1 0 0
1 0 0
1 0 0
1 0 0
1 0 0
1 0 0
1 0 0
1 0 0
1 0 0
1 0 0
0 0.0341955 0
0 0.0325017 0
0 0.0319066 0
0 0.0308995 0
0.0293126 0 0
0.0493019 0 0
0.0825971 0.0745708 0
0.120577 0.0759442 0
0.18024 0.0734875 0
0.259449 0.063859 0
0.355566 0.0467231 0
0.459159 0.0242924 0
0.549691 0.00224308 0
0.626947 0 0
0.69398 0 0
0.762646 0 0
0.833661 0 0
0.900221 0 0
0.961547 0 0
1 0 0
1 0 0
1 0 0
1 0 0
1 0 0
1 0 0
1 0 0
1 0 0
1 0 0
1 0 0
1 0 0
1 0 0
1 0 0
1 0 0
0 0.0357824 0
0.0411994 0.0877546 0
0.0403449 0.0874342 0
0.0414282 0.0866712 0
0.0462043 0.0847791 0
0.0589761 0.0821393 0
0.0831922 0.0836194 0
0.122942 0.0865797 0
0.184588 0.0856947 0
0.265309 0.0779431 0
0.361578 0.0635233 0
0.466896 0.0429084 0
0.568093 0.0184482 0
0.662745 0 0
0.745632 0 0
0.821256 0 0
0.887327 0 0
0.942687 0 0
0.992218 0 0
1 0 0
1 0 0
1 0 0
1 0 0
1 0 0
1 0 0
1 0 0
1 0 0
1 0 0
1 0 0
1 0 0
1 0 0
1 0 0
1 0 0
0.0209201 0.109606 0
0.0196841 0.110399 0
0.0210117 0.110735 0
0.0260319 0.110552 0
0.0357671 0.10985 0
0.051606 0.108202 0
0.0803388 0.107439 0
0.123735 0.109133 0
0.18468 0.109117 0
0.266117 0.103929 0
0.364538 0.0919966 0
0.469841 0.072755 0
0.570153 0.0500038 0
0.666499 0.0244144 0
0.757855 0 0
0.846983 0 0
0.926421 0 0
0.990066 0 0
1 0 0
1 0 0
1 0 0
1 0 0
1 0 0
1 0 0
1 0 0
1 0 0
1 0 0
1 0 0
1 0 0
1 0 0
1 0 0
1 0 0
1 0 0
0 0.15729 0
0 0.157992 0
0 0.157977 0
0 0.157336 0
0.00790417 0.156435 0
0.0273594 0.155138 0
0.0581369 0.152361 0
0.113008 0.149371 0
0.180209 0.147585 0
0.261585 0.143603 0
0.360662 0.13463 0
0.467842 0.120165 0
0.56936 0.101335 0
0.665888 0.0771954 0
0.756954 0.0505226 0
0.847837 0.0213169 0
0.934478 0 0
1 0 0
1 0 0
1 0 0
1 0 0
1 0 0
1 0 0
1 0 0
1 0 0
1 0 0
1 0 0
1 0 0
1 0 0
1 0 0
1 0 0
1 0 0
1 0 0
0 0.225879 0
0 0.225696 0
0 0.224857 0
0 0.223743 0
0 0.222416 0
0 0.22089 0
0.00582895 0.218585 0
0.0627756 0.213336 0
0.154452 0.206546 0
0.247501 0.200839 0
0.348562 0.193545 0
0.457221 0.182498 0
0.561334 0.168444 0
0.660395 0.15172 0
0.75285 0.132815 0
0.844205 0.110002 0
0.931075 0.0831922 0
1 0.0527199 0
1 0.0254063 0
1 0.00378424 0
1 0 0
1 0 0
1 0 0
1 0 0
1 0 0
1 0 0
1 0 0
1 0 0
1 0 0
1 0 0
1 0 0
1 0 0
1 0 0
0 0.312657 0
0 0.311757 0
0 0.310674 0
0 0.309194 0
0 0.3075 0
0 0.305562 0
0 0.30338 0
0 0.299458 0
0.0701152 0.290883 0
0.204013 0.280232 0
0.322621 0.271107 0
0.436225 0.261906 0
0.54345 0.250828 0
0.645777 0.238041 0
0.74165 0.224155 0
0.835645 0.208774 0
0.923903 0.188891 0
0.998138 0.168795 0
1 0.149798 0
1 0.133272 0
1 0.122301 0
1 0.113542 0
1 0.104952 0
1 0.0965133 0
1 0.0886397 0
1 0.0816968 0
1 0.0758068 0
1 0.0716564 0
1 0.0687572 0
1 0.0668345 0
1 0.0656291 0
1 0.0655833 0
1 0.0665599 0
0 0.414008 0
0 0.412695 0
0 0.411368 0
0 0.409796 0
0 0.407935 0
0 0.405844 0
0 0.403586 0
0 0.400748 0
0 0.394934 0
0.0859541 0.383566 0
0.261067 0.370291 0
0.398947 0.359121 0
0.513756 0.349416 0
0.620508 0.338964 0
0.72015 0.327413 0
0.818357 0.311482 0
0.91043 0.294728 0
0.987228 0.279149 0
1 0.265278 0
1 0.253925 0
1 0.246555 0
1 0.240787 0
1 0.235279 0
1 0.229984 0
1 0.224933 0
1 0.220233 0
1 0.215961 0
1 0.2121 0
1 0.208637 0
1 0.205676 0
1 0.203296 0
1 0.20148 0
1 0.20029 0
0 0.508186 0
0 0.506752 0
0 0.505318 0
0 0.503761 0
0 0.501915 0
0 0.49987 0
0 0.497704 0
0 0.495277 0
0 0.491676 0
0 0.484398 0
0.139223 0.471901 0
0.334585 0.458061 0
0.472786 0.446876 0
0.587549 0.435721 0
0.69189 0.423606 0
0.794263 0.410025 0
0.890471 0.395666 0
0.97081 0.382391 0
1 0.370855 0
1 0.361501 0
1 0.355612 0
1 0.351003 0
1 0.34667 0
1 0.342535 0
1 0.338613 0
1 0.334951 0
1 0.331609 0
1 0.328588 0
1 0.32578 0
1 0.323079 0
1 0.320546 0
1 0.318135 0
1 0.315892 0
0 0.590021 0
0 0.588525 0
0 0.587045 0
0 0.585489 0
0 0.583658 0
0 0.581674 0
0 0.579568 0
0 0.577325 0
0 0.574502 0
0 0.569848 0
0 0.560952 0
0.236088 0.546334 0
0.416724 0.530755 0
0.550301 0.517739 0
0.661402 0.506477 0
0.767941 0.494362 0
0.86775 0.481498 0
0.951324 0.469551 0
1 0.459007 0
1 0.450462 0
1 0.445075 0
1 0.440879 0
1 0.436973 0
1 0.43328 0
1 0.429801 0
1 0.426581 0
1 0.423636 0
1 0.420951 0
1 0.418448 0
1 0.416083 0
1 0.413809 0
1 0.411673 0
1 0.409628 0
0 0.669398 0
0 0.667903 0
0 0.666377 0
0 0.664546 0
0 0.662516 0
0 0.660349 0
0 0.658045 0
0 0.655528 0
0 0.652522 0
0 0.648539 0
0 0.641932 0
0.0452125 0.630457 0
0.3308 0.614694 0
0.497444 0.599573 0
0.624567 0.587152 0
0.737484 0.575753 0
0.841047 0.564111 0
0.927871 0.553201 0
0.99707 0.543526 0
1 0.535454 0
1 0.530297 0
1 0.526268 0
1 0.522499 0
1 0.518944 0
1 0.515618 0
1 0.512566 0
1 0.509758 0
1 0.50724 0
1 0.504875 0
1 0.502647 0
1 0.500526 0
1 0.498527 0
1 0.49659 0
0 0.739147 0
0 0.737423 0
0 0.735714 0
0 0.733959 0
0 0.731975 0
0 0.7299 0
0 0.727703 0
0 0.725353 0
0 0.722606 0
0 0.71928 0
0 0.714534 0
0 0.706477 0
0.205005 0.693385 0
0.425147 0.67747 0
0.577279 0.663218 0
0.703655 0.650843 0
0.812345 0.639872 0
0.902235 0.629862 0
0.974334 0.620783 0
1 0.613214 0
1 0.608286 0
1 0.604334 0
1 0.600626 0
1 0.597116 0
1 0.59382 0
1 0.590784 0
1 0.587961 0
1 0.585443 0
1 0.583093 0
1 0.580865 0
1 0.57879 0
1 0.576852 0
1 0.574975 0
0 0.797406 0
0 0.795712 0
0 0.794018 0
0 0.792309 0
0 0.790387 0
0 0.788373 0
0 0.786267 0
0 0.784009 0
0 0.781445 0
0 0.778439 0
0 0.774594 0
0 0.768582 0
0.00273136 0.758465 0
0.339376 0.743938 0
0.522637 0.728573 0
0.666743 0.714748 0
0.784726 0.703151 0
0.877974 0.693675 0
0.952392 0.685206 0
1 0.677958 0
1 0.673213 0
1 0.669383 0
1 0.665797 0
1 0.662333 0
1 0.659037 0
1 0.655955 0
1 0.653101 0
1 0.650523 0
1 0.648112 0
1 0.645853 0
1 0.643748 0
1 0.641764 0
1 0.639887 0
0 0.847868 0
0 0.846189 0
0 0.844541 0
0 0.842847 0
0 0.840986 0
0 0.839017 0
0 0.836973 0
0 0.834806 0
0 0.83238 0
0 0.829572 0
0 0.826185 0
0 0.821378 0
0 0.813458 0
0.237537 0.801266 0
0.460304 0.78613 0
0.625666 0.771008 0
0.755535 0.758389 0
0.854627 0.748638 0
0.931456 0.740551 0
0.989136 0.7337 0
1 0.729091 0
1 0.725353 0
1 0.721843 0
1 0.718486 0
1 0.715251 0
1 0.712154 0
1 0.709285 0
1 0.706645 0
1 0.704173 0
1 0.701854 0
1 0.699657 0
1 0.697612 0
1 0.695689 0
0 0.892348 0
0 0.890578 0
0 0.888945 0
0 0.887297 0
0 0.885451 0
0 0.883543 0
0 0.881544 0
0 0.879438 0
0 0.877119 0
0 0.874464 0
0 0.871351 0
0 0.867247 0
0 0.860853 0
0.0983139 0.850813 0
0.391424 0.836973 0
0.580179 0.821286 0
0.724208 0.807523 0
0.830747 0.797101 0
0.91136 0.788968 0
0.970947 0.782345 0
1 0.777935 0
1 0.774304 0
1 0.770886 0
1 0.76759 0
1 0.764401 0
1 0.761395 0
1 0.758511 0
1 0.755825 0
1 0.753338 0
1 0.750942 0
1 0.748684 0
1 0.746593 0
1 0.744579 0
0 0.923156 0
0 0.921599 0
0 0.920058 0
0 0.918502 0
0 0.916777 0
0 0.914961 0
0 0.913085 0
0 0.911101 0
0 0.908919 0
0 0.906447 0
0 0.903563 0
0 0.899916 0
0 0.894453 0
0 0.886 0
0.331533 0.873472 0
0.540963 0.857939 0
0.697337 0.843397 0
0.810681 0.83238 0
0.895491 0.82388 0
0.956832 0.817334 0
0.992767 0.813016 0
1 0.809491 0
1 0.806134 0
1 0.802899 0
1 0.799756 0
1 0.79675 0
1 0.793927 0
1 0.791241 0
1 0.788739 0
1 0.786328 0
1 0.784024 0
1 0.781872 0
1 0.779812 0
0 0.949935 0
0 0.948455 0
0 0.94699 0
0 0.94551 0
0 0.943862 0
0 0.942153 0
0 0.940337 0
0 0.93846 0
0 0.9364 0
0 0.934066 0
0 0.931365 0
0 0.928023 0
0 0.923232 0
0 0.915969 0
0.26865 0.905257 0
0.500771 0.890761 0
0.669551 0.87602 0
0.790234 0.864347 0
0.879561 0.855436 0
0.943343 0.848737 0
0.98027 0.84448 0
1 0.841031 0
1 0.837751 0
1 0.834562 0
1 0.831479 0
1 0.828489 0
1 0.825666 0
1 0.823041 0
1 0.820523 0
1 0.818082 0
1 0.815763 0
1 0.813565 0
1 0.81146 0
0 0.976867 0
0 0.975509 0
0 0.974151 0
0 0.972763 0
0 0.971252 0
0 0.969635 0
0 0.967956 0
0 0.966201 0
0 0.964294 0
0 0.962127 0
0 0.95964 0
0 0.956573 0
0 0.952422 0
0 0.946273 0
0.187457 0.937194 0
0.453635 0.924102 0
0.636576 0.909529 0
0.766018 0.897612 0
0.861036 0.888411 0
0.928115 0.881544 0
0.966354 0.877363 0
0.993912 0.874006 0
1 0.870863 0
1 0.867857 0
1 0.864866 0
1 0.861997 0
1 0.859266 0
1 0.856687 0
1 0.854261 0
1 0.851743 0
1 0.849393 0
1 0.847181 0
1 0.845029 0
0 1 0
0 1 0
0 1 0
0 0.998993 0
0 0.99762 0
0 0.996155 0
0 0.994629 0
0 0.993042 0
0 0.991302 0
0 0.989349 0
0 0.987091 0
0 0.984344 0
0 0.980713 0
0 0.97557 0
0.0641489 0.968078 0
0.400092 0.956817 0
0.598459 0.943114 0
0.737835 0.931075 0
0.839689 0.921553 0
0.910994 0.914443 0
0.95137 0.910109 0
0.980056 0.906798 0
1 0.903777 0
1 0.900877 0
1 0.898054 0
1 0.895308 0
1 0.892638 0
1 0.890135 0
1 0.88777 0
1 0.885481 0
1 0.883268 0
1 0.881117 0
1 0.879026 0
0 1 0
0 1 0
0 1 0
0 1 0
0 1 0
0 1 0
0 1 0
0 1 0
0 1 0
0 1 0
0 1 0
0 1 0
0 1 0
0 1 0
0 0.995911 0
0.342336 0.986618 0
0.557122 0.974395 0
0.706859 0.962707 0
0.816388 0.953063 0
0.892561 0.945785 0
0.935424 0.94139 0
0.965774 0.938003 0
0.990066 0.935027 0
1 0.93228 0
1 0.929625 0
1 0.927016 0
1 0.924529 0
1 0.922148 0
1 0.91989 0
1 0.917693 0
1 0.915587 0
1 0.913542 0
1 0.911528 0
0 1 0
0 1 0
0 1 0
0 1 0
0 1 0
0 1 0
0 1 0
0 1 0
0 1 0
0 1 0
0 1 0
0 1 0
0 1 0
0 1 0
0 1 0
0.282765 1 0
0.514961 1 0
0.674159 0.991028 0
0.791669 0.981582 0
0.873259 0.974273 0
0.919066 0.969818 0
0.951324 0.96643 0
0.977066 0.963424 0
0.99852 0.960769 0
1 0.958282 0
1 0.955856 0
1 0.953552 0
1 0.95137 0
1 0.949248 0
1 0.947204 0
1 0.945235 0
1 0.943313 0
1 0.941451 0
0 1 0
0 1 0
0 1 0
0 1 0
0 1 0
0 1 0
0 1 0
0 1 0
0 1 0
0 1 0
0 1 0
0 1 0
0 1 0
0 1 0
0 1 0
0.22005 1 0
0.473243 1 0
0.640452 1 0
0.765576 1 0
0.853101 0.999664 0
0.902251 0.995239 0
0.936736 0.991867 0
0.964202 0.988907 0
0.986511 0.986297 0
1 0.983917 0
1 0.981704 0
1 0.979599 0
1 0.9776 0
1 0.975723 0
1 0.973846 0
1 0.972045 0
1 0.970306 0
1 0.968582 0
0 1 0
0 1 0
0 1 0
0 1 0
0 1 0
0 1 0
0 1 0
0 1 0
0 1 0
