public/textures/LUTs/TROPIC COLOUR - BEST OF LOOKS (telegram - @creativecashe)-1/TROPIC COLOUR - BEST OF LOOKS/TC - MOVIE LOOKS/THE MASTER/TC - THE MASTER.cube
TITLE "Generated by Resolve"
LUT_3D_SIZE 9
0 0 0
0 0 0
0.0957656 0 0
0.373617 0.0440681 0
0.78587 0 0
1 0 0
1 0 0
1 0 0
1 0 0
0 0 0
0.0289921 0 0
0.142931 0.0745708 0
0.414038 0.0433509 0
0.811749 0 0
1 0 0
1 0 0
1 0 0
1 0 0
0.0209201 0.109606 0
0.0357671 0.10985 0
0.18468 0.109117 0
0.570153 0.0500038 0
0.926421 0 0
1 0 0
1 0 0
1 0 0
1 0 0
0 0.414008 0
0 0.407935 0
0 0.394934 0
0.513756 0.349416 0
0.91043 0.294728 0
1 0.246555 0
1 0.224933 0
1 0.208637 0
1 0.20029 0
0 0.739147 0
0 0.731975 0
0 0.722606 0
0.205005 0.693385 0
0.812345 0.639872 0
1 0.608286 0
1 0.59382 0
1 0.583093 0
1 0.574975 0
0 0.923156 0
0 0.916777 0
0 0.908919 0
0 0.894453 0
0.697337 0.843397 0
0.992767 0.813016 0
1 0.799756 0
1 0.788739 0
1 0.779812 0
0 1 0
0 1 0
0 1 0
0 1 0
0.557122 0.974395 0
0.935424 0.94139 0
1 0.929625 0
1 0.91989 0
1 0.911528 0
0 1 0
0 1 0
0 1 0
0 1 0
0.394522 1 0
0.867796 1 0
0.985885 1 0
1 1 0
1 1 0
0 1 0
0 1 0
0 1 0
0 1 0
0.253285 1 0
0.787366 1 0
0.945541 1 0
1 1 0
1 1 0
0 0 0
0 0 0
0.0750744 0 0
0.479942 0 0.0112306
0.852674 0 0
1 0 0
1 0 0
1 0 0
1 0 0
0 0.00440986 0
0.0408637 0.00582895 0
0.196643 0 0
0.496269 0 0
0.83621 0 0
1 0 0
1 0 0
1 0 0
1 0 0
0 0.142 0
0 0.136477 0
0.183581 0.118212 0
0.521996 0.0702373 0
0.807813 0.00515755 0
1 0 0
1 0 0
1 0 0
1 0 0
0 0.431662 0
0 0.422187 0
0 0.411994 0
0.457008 0.367559 0
0.857069 0.314092 0
1 0.268605 0
1 0.252216 0
1 0.251041 0
1 0.260334 0
0 0.738048 0
0 0.729061 0
0 0.720806 0
0.018143 0.70489 0
0.756558 0.652338 0
1 0.620966 0
1 0.606744 0
1 0.596155 0
1 0.588037 0
0 0.922194 0
0 0.914076 0
0 0.906813 0
0 0.895933 0
0.617105 0.857496 0
0.953231 0.824186 0
1 0.81033 0
1 0.799008 0
1 0.790616 0
0 1 0
0 1 0
0 1 0
0 1 0
0.451301 0.985702 0
0.889525 0.951141 0
1 0.938415 0
1 0.928328 0
1 0.919997 0
0 1 0
0 1 0
0 1 0
0 1 0
0.300603 1 0
0.804349 1 0
0.958755 1 0
1 1 0
1 1 0
0 1 0
0 1 0
0 1 0
0 1 0
0.171328 1 0
0.71313 1 0
0.91046 1 0
1 1 0
1 1 0
0.0211185 0 0.157092
0.0720684 0 0.126085
0.177752 0 0.121965
0.498955 0 0.115999
0.853712 0 0.0948196
1 0 0.0685435
1 0 0.0560311
1 0 0.0476234
1 0 0.0428779
0 0 0.101183
0.0320439 0 0.134356
0.188754 0 0.117876
0.488457 0 0.106996
0.830137 0 0.0819562
1 0 0.0555276
1 0 0.042298
1 0 0.0336004
1 0 0.0284886
0 0.142184 0.0538186
0 0.126833 0.0691386
0.140932 0.106493 0.0860151
0.448875 0.0703593 0.0729076
0.797086 0 0.0465248
1 0 0.0205692
1 0 0.00643931
1 0 0
1 0 0
0 0.441444 0
0 0.419532 0
0 0.403723 0
0.394766 0.37351 0
0.794949 0.326818 0
0.988525 0.317556 0
1 0.302876 0
1 0.28777 0
1 0.276249 0
0 0.745647 0
0 0.728008 0
0 0.714839 0
0 0.703166 0
0.697108 0.661112 0
0.980148 0.630579 0
1 0.616495 0
1 0.605707 0
1 0.604105 0
0 0.928374 0
0 0.913207 0
0 0.901839 0
0 0.892195 0
0.520775 0.870085 0
0.906111 0.832868 0
1 0.818204 0
1 0.807065 0
1 0.799069 0
0 1 0
0 1 0
0 1 0
0 1 0
0.377401 0.988708 0
0.831556 0.959609 0
0.976349 0.944915 0
1 0.934462 0
1 0.926192 0
0 1 0
0 1 0
0 1 0
0 1 0
0.246815 1 0
0.726757 1 0
0.925078 1 0
1 1 0
1 1 0
0 1 0
0 1 0
0 1 0
0 1 0
0.104082 1 0
0.658076 1 0
0.860426 1 0
0.979553 1 0
1 1 0
0 0 0.5944
0 0 0.539162
0.167025 0 0.482765
0.49485 0 0.46865
0.838956 0 0.456016
1 0 0.44686
1 0 0.442252
1 0 0.438773
1 0 0.43624
0 0 0.46041
0 0 0.524285
0.15404 0 0.461189
0.469902 0 0.440131
0.815671 0 0.428077
1 0 0.418799
1 0 0.413825
1 0 0.410071
1 0 0.40734
0 0.0849165 0.308492
0 0.0277409 0.365347
0.0868544 0 0.446357
0.43093 0 0.405112
0.784894 0 0.393759
1 0 0.384131
1 0 0.378622
1 0 0.374578
1 0 0.371542
0 0.461341 0.16524
0 0.431586 0.214755
0 0.398978 0.256229
0.322332 0.343236 0.339757
0.722271 0.307973 0.328725
0.969696 0.270909 0.316884
1 0.246921 0.309743
1 0.228443 0.304234
1 0.214633 0.299962
0 0.762722 0
0 0.736202 0.00207523
0 0.71043 0.119982
0 0.681102 0.209613
0.634119 0.651225 0.209979
0.926177 0.620371 0.239048
1 0.620859 0.202274
1 0.622538 0.158846
1 0.616602 0.148409
0 0.939086 0
0 0.917906 0
0 0.895781 0
0 0.875746 0
0.468238 0.859648 0
0.853803 0.827573 0.00877394
0.993515 0.811337 0.0515297
1 0.799924 0.0911421
1 0.794186 0.104753
0 1 0
0 1 0
0 1 0
0 0.989166 0
0.341451 0.976303 0
0.75819 0.958877 0
0.941451 0.939727 0
1 0.927962 0
1 0.919402 0
0 1 0
0 1 0
0 1 0
0 1 0
0.202182 1 0
0.677607 1 0
0.876234 1 0
0.98851 1 0
1 1 0
0 1 0
0 1 0
0 1 0
0 1 0
0.0234531 1 0
0.630655 1 0
0.81854 1 0
0.949599 1 0
1 1 0
0 0 0.92845
0 0 0.896193
0.070161 0 0.822385
0.465217 0 0.794675
0.82121 0 0.781399
1 0 0.772869
1 0 0.769085
1 0 0.766247
1 0 0.764126
0 0 0.812604
0 0 0.867109
0.0449073 0 0.823545
0.43978 0 0.76846
0.797513 0 0.754208
1 0 0.745846
1 0 0.742123
1 0 0.739361
1 0 0.737224
0 0 0.643076
0 0 0.717006
0 0 0.795087
0.401633 0 0.747204
0.765972 0 0.723201
1 0 0.715236
1 0 0.711589
1 0 0.708812
1 0 0.706615
0 0.43566 0.499016
0 0.391821 0.551324
0 0.335561 0.610544
0.246494 0.215793 0.69807
0.702739 0.14789 0.678355
0.954665 0.0709544 0.671275
1 0.0149538 0.667704
1 0 0.664942
1 0 0.662791
0 0.766323 0.369406
0 0.736034 0.424918
0 0.703807 0.473533
0 0.671534 0.50573
0.573434 0.608835 0.600595
0.864332 0.584039 0.602426
0.999069 0.571557 0.597803
1 0.561807 0.594003
1 0.554376 0.59086
0 0.944274 0.260456
0 0.918776 0.340383
0 0.890715 0.411872
0 0.862806 0.469688
0.434623 0.818235 0.54995
0.802365 0.794903 0.55169
0.953323 0.778393 0.565805
1 0.783917 0.537911
1 0.780087 0.529992
0 1 0.192508
0 1 0.292973
0 0.992264 0.372519
0 0.972091 0.435218
0.296803 0.941222 0.502892
0.71107 0.928405 0.495277
0.9028 0.911116 0.504219
0.999802 0.898405 0.522225
1 0.891096 0.532494
0 1 0.145602
0 1 0.259403
0 1 0.339605
0 1 0.413626
0.124147 1 0.461769
0.650462 1 0.453468
0.83183 1 0.447227
0.961639 0.99115 0.461128
1 0.982742 0.481559
0 1 0.121004
0 1 0.237781
0 1 0.318883
0 1 0.404639
0 1 0.42884
0.604807 1 0.419959
0.794965 1 0.41268
0.917235 1 0.407584
0.996857 1 0.426276
0 0 1
0 0 1
0 0 0.984909
0.443702 0 0.953429
0.809674 0 0.941375
1 0 0.933349
1 0 0.929488
1 0 0.92665
1 0 0.924605
0 0 0.975555
0 0 1
0 0 0.988357
0.418875 0 0.936751
0.785595 0 0.918959
1 0 0.91043
1 0 0.906401
1 0 0.903593
1 0 0.901564
0 0 0.820539
0 0 0.898589
0 0 0.960922
0.378302 0 0.931075
0.753521 0 0.892332
0.99324 0 0.883284
1 0 0.879255
1 0 0.876585
1 0 0.874586
0 0.394553 0.680293
0 0.335393 0.735576
0 0.254353 0.796948
0.180728 0.0118563 0.882765
0.690349 0 0.856748
0.943862 0 0.844816
1 0 0.841184
1 0 0.838758
1 0 0.836835
0 0.756741 0.556283
0 0.7243 0.598749
0 0.689219 0.645075
0 0.650477 0.696468
0.54255 0.572488 0.781231
0.852537 0.532876 0.788754
0.989563 0.518807 0.785565
1 0.507607 0.783123
1 0.498955 0.781201
0 0.939132 0.477348
0 0.91342 0.531685
0 0.88513 0.581384
0 0.856168 0.619013
0.40827 0.826505 0.644327
0.769543 0.766506 0.742504
0.918608 0.758053 0.73724
1 0.750103 0.733852
1 0.743969 0.730999
0 1 0.429679
0 1 0.48986
0 0.984573 0.547082
0 0.962554 0.597147
0.221073 0.934844 0.645563
0.695033 0.899489 0.705943
0.87718 0.886549 0.707027
0.979904 0.874418 0.719722
1 0.879881 0.69543
0 1 0.398108
0 1 0.466468
0 1 0.530724
0 1 0.58291
0 1 0.642237
0.634089 0.985 0.675456
0.816327 0.978363 0.670893
0.943542 0.967926 0.675746
1 0.958968 0.691966
0 1 0.387121
0 1 0.45864
0 1 0.520745
0 1 0.571725
0 1 0.642695
0.587228 1 0.651301
0.781277 1 0.646708
0.903014 1 0.642206
0.983993 1 0.650919
0 0 1
0 0 1
0 0 1
0.435355 0 1
0.804578 0 1
1 0 0.993713
1 0 0.990387
1 0 0.987884
1 0 0.986084
0 0 1
0 0 1
0 0 1
0.410178 0 1
0.779843 0 0.984207
1 0 0.976898
1 0 0.97319
1 0 0.970504
1 0 0.968627
0 0 0.90486
0 0 0.973556
0 0 1
0.366247 0 0.999664
0.747158 0 0.963577
0.988769 0 0.95523
1 0 0.951186
1 0 0.94847
1 0 0.946609
0 0.365148 0.76878
0 0.295964 0.82388
0 0.191653 0.885344
0.140887 0 0.958434
0.685359 0 0.938643
0.939116 0 0.922255
1 0 0.918044
1 0 0.915572
1 0 0.913832
0 0.749996 0.639323
0 0.71603 0.687739
0 0.676173 0.740993
0 0.631083 0.793393
0.522957 0.542702 0.874983
0.847089 0.502159 0.872953
0.984115 0.488457 0.868666
1 0.476524 0.866438
1 0.467247 0.864744
0 0.933761 0.572824
0 0.907652 0.621195
0 0.878798 0.66511
0 0.848814 0.695186
0.460533 0.81706 0.705257
0.756741 0.750591 0.827771
0.91313 0.737423 0.826642
1 0.728847 0.824399
1 0.722118 0.82266
0 1 0.529137
0 0.99823 0.581201
0 0.978851 0.630213
0 0.957519 0.670222
0.219348 0.930739 0.704784
0.678157 0.893019 0.776928
0.862974 0.872526 0.796323
0.96231 0.867735 0.791897
1 0.862989 0.788571
0 1 0.497383
0 1 0.554559
0 1 0.610529
0 1 0.659663
0 1 0.703471
0.62118 0.971023 0.769436
0.809186 0.963439 0.767712
0.933532 0.954589 0.768917
1 0.945602 0.782666
0 1 0.483116
0 1 0.545449
0 1 0.604623
0 1 0.652873
0 1 0.702586
0.57406 1 0.748547
0.77409 1 0.746502
0.896696 1 0.742596
0.976654 1 0.74725
0 0 1
0 0 1
0 0 1
0.429953 0 1
0.800839 0 1
1 0 1
1 0 1
1 0 1
1 0 1
0 0 1
0 0 1
0 0 1
0.404761 0 1
0.775464 0 1
1 0 1
1 0 1
1 0 1
1 0 1
0 0 0.973419
0 0 1
0 0 1
0.356893 0 1
0.742977 0 1
0.985199 0 1
1 0 1
1 0 1
1 0 0.999069
0 0.330632 0.851209
0 0.251392 0.902022
0 0.115206 0.957137
0.102312 0 1
0.681636 0 0.998383
0.934981 0 0.981079
1 0 0.977218
1 0 0.97464
1 0 0.973098
0 0.741482 0.724285
0 0.703197 0.774945
0 0.65977 0.827649
0 0.612055 0.87718
0.505455 0.517052 0.945327
0.843046 0.472389 0.940749
0.979934 0.459693 0.934783
1 0.447654 0.932296
1 0.437675 0.930877
0 0.92723 0.658289
0 0.900862 0.701473
0 0.87155 0.739788
0 0.840238 0.775784
0.309606 0.802563 0.824857
0.74844 0.736767 0.896727
0.908064 0.718654 0.897765
1 0.710048 0.895506
1 0.703075 0.894057
0 1 0.618997
0 0.990692 0.665904
0 0.97142 0.709697
0 0.95024 0.743496
0.245365 0.924498 0.763638
0.685435 0.899992 0.795895
0.85034 0.860273 0.867308
0.957488 0.852216 0.866712
1 0.846983 0.864485
0 1 0.587366
0 1 0.637705
0 1 0.686137
0 1 0.727733
0 0.993652 0.764553
0.598993 0.97351 0.799313
0.802579 0.949599 0.845777
0.923354 0.942428 0.844511
0.992691 0.934127 0.853864
0 1 0.569497
0 1 0.624125
0 1 0.677897
0 1 0.725155
0 1 0.763882
0.549386 1 0.810193
0.766873 1 0.82739
0.891081 0.997909 0.824659
0.969375 0.992309 0.825879
0 0 1
0 0 1
0 0 1
0.426352 0 1
0.79765 0 1
1 0 1
1 0 1
1 0 1
1 0 1
0 0 1
0 0 1
0 0 1
0.401129 0 1
0.772122 0 1
1 0 1
1 0 1
1 0 1
1 0 1
0 0 1
0 0 1
0 0 1
0.348638 0 1
0.740505 0 1
0.982376 0 1
1 0 1
1 0 1
1 0 1
0 0.293141 0.92459
0 0.205493 0.966232
0 0.0330358 1
0.0618753 0 1
0.67834 0 1
0.931853 0 1
1 0 1
1 0 1
1 0 1
0 0.728832 0.808438
0 0.688777 0.855909
0 0.643351 0.903624
0 0.595193 0.94432
0.490135 0.498482 0.991974
0.841611 0.445945 0.989776
0.976974 0.436149 0.981308
1 0.424155 0.978653
1 0.413886 0.977325
0 0.919829 0.737896
0 0.893233 0.775921
0 0.863355 0.820401
0 0.83122 0.863264
0.256153 0.787594 0.902358
0.737179 0.723552 0.950545
0.905089 0.702419 0.950118
1 0.694896 0.946639
1 0.687739 0.94551
0 0.999374 0.704433
0 0.981704 0.747234
0 0.962646 0.785046
0 0.941543 0.811414
0.319356 0.914961 0.821912
0.687984 0.888731 0.861097
0.842939 0.853071 0.917556
0.953735 0.83917 0.922286
1 0.833478 0.92108
0 1 0.673594
0 1 0.719173
0 1 0.761624
0 1 0.794827
0 0.987243 0.819074
0.60705 0.970748 0.83505
0.791028 0.951431 0.873182
0.914366 0.932219 0.9019
0.982544 0.928191 0.899977
0 1 0.653712
0 1 0.702037
0 1 0.748562
0 1 0.78822
0 1 0.821286
0.536782 1 0.845792
0.751812 0.99588 0.876951
0.886488 0.986648 0.886809
0.962066 0.982238 0.885756
